ios/AIPhotoCoach/Resources/LUTs/film_cool.cube
# Baseline LUT for FilterPreset 'film_cool' (胶片冷).
# Generated by scripts/luts/gen_baseline_luts.py — replace with a
# hand-graded / commercial LUT keeping the same filename to upgrade.
TITLE "film_cool"
LUT_3D_SIZE 5
DOMAIN_MIN 0.0 0.0 0.0
DOMAIN_MAX 1.0 1.0 1.0
0.000000 0.010000 0.040000
0.237500 0.010000 0.040000
0.475000 0.010000 0.040000
0.712500 0.010000 0.040000
0.950000 0.010000 0.040000
0.000000 0.265000 0.040000
0.237500 0.265000 0.040000
0.475000 0.265000 0.040000
0.712500 0.265000 0.040000
0.950000 0.265000 0.040000
0.000000 0.520000 0.040000
0.237500 0.520000 0.040000
0.475000 0.520000 0.040000
0.712500 0.520000 0.040000
0.950000 0.520000 0.040000
0.000000 0.775000 0.040000
0.237500 0.775000 0.040000
0.475000 0.775000 0.040000
0.712500 0.775000 0.040000
0.950000 0.775000 0.040000
0.000000 1.000000 0.040000
0.237500 1.000000 0.040000
0.475000 1.000000 0.040000
0.712500 1.000000 0.040000
0.950000 1.000000 0.040000
0.000000 0.010000 0.302500
0.237500 0.010000 0.302500
0.475000 0.010000 0.302500
0.712500 0.010000 0.302500
0.950000 0.010000 0.302500
0.000000 0.265000 0.302500
0.237500 0.265000 0.302500
0.475000 0.265000 0.302500
0.712500 0.265000 0.302500
0.950000 0.265000 0.302500
0.000000 0.520000 0.302500
0.237500 0.520000 0.302500
0.475000 0.520000 0.302500
0.712500 0.520000 0.302500
0.950000 0.520000 0.302500
0.000000 0.775000 0.302500
0.237500 0.775000 0.302500
0.475000 0.775000 0.302500
0.712500 0.775000 0.302500
0.950000 0.775000 0.302500
0.000000 1.000000 0.302500
0.237500 1.000000 0.302500
0.475000 1.000000 0.302500
0.712500 1.000000 0.302500
0.950000 1.000000 0.302500
0.000000 0.010000 0.565000
0.237500 0.010000 0.565000
0.475000 0.010000 0.565000
0.712500 0.010000 0.565000
0.950000 0.010000 0.565000
0.000000 0.265000 0.565000
0.237500 0.265000 0.565000
0.475000 0.265000 0.565000
0.712500 0.265000 0.565000
0.950000 0.265000 0.565000
0.000000 0.520000 0.565000
0.237500 0.520000 0.565000
0.475000 0.520000 0.565000
0.712500 0.520000 0.565000
0.950000 0.520000 0.565000
0.000000 0.775000 0.565000
0.237500 0.775000 0.565000
0.475000 0.775000 0.565000
0.712500 0.775000 0.565000
0.950000 0.775000 0.565000
0.000000 1.000000 0.565000
0.237500 1.000000 0.565000
0.475000 1.000000 0.565000
0.712500 1.000000 0.565000
0.950000 1.000000 0.565000
0.000000 0.010000 0.827500
0.237500 0.010000 0.827500
0.475000 0.010000 0.827500
0.712500 0.010000 0.827500
0.950000 0.010000 0.827500
0.000000 0.265000 0.827500
0.237500 0.265000 0.827500
0.475000 0.265000 0.827500
0.712500 0.265000 0.827500
0.950000 0.265000 0.827500
0.000000 0.520000 0.827500
0.237500 0.520000 0.827500
0.475000 0.520000 0.827500
0.712500 0.520000 0.827500
0.950000 0.520000 0.827500
0.000000 0.775000 0.827500
0.237500 0.775000 0.827500
0.475000 0.775000 0.827500
0.712500 0.775000 0.827500
0.950000 0.775000 0.827500
0.000000 1.000000 0.827500
0.237500 1.000000 0.827500
0.475000 1.000000 0.827500
0.712500 1.000000 0.827500
0.950000 1.000000 0.827500
0.000000 0.010000 1.000000
0.237500 0.010000 1.000000
0.475000 0.010000 1.000000
0.712500 0.010000 1.000000
0.950000 0.010000 1.000000
0.000000 0.265000 1.000000
0.237500 0.265000 1.000000
0.475000 0.265000 1.000000
0.712500 0.265000 1.000000
0.950000 0.265000 1.000000
0.000000 0.520000 1.000000
0.237500 0.520000 1.000000
0.475000 0.520000 1.000000
0.712500 0.520000 1.000000
0.950000 0.520000 1.000000
0.000000 0.775000 1.000000
0.237500 0.775000 1.000000
0.475000 0.775000 1.000000
0.712500 0.775000 1.000000
0.950000 0.775000 1.000000
0.000000 1.000000 1.000000
0.237500 1.000000 1.000000
0.475000 1.000000 1.000000
0.712500 1.000000 1.000000
0.950000 1.000000 1.000000
