ios/AIPhotoCoach/Resources/LUTs/film_warm.cube
# Baseline LUT for FilterPreset 'film_warm' (胶片暖).
# Generated by scripts/luts/gen_baseline_luts.py — replace with a
# hand-graded / commercial LUT keeping the same filename to upgrade.
TITLE "film_warm"
LUT_3D_SIZE 5
DOMAIN_MIN 0.0 0.0 0.0
DOMAIN_MAX 1.0 1.0 1.0
0.059200 0.020000 0.000000
0.316450 0.020000 0.000000
0.573700 0.020000 0.000000
0.830950 0.020000 0.000000
1.000000 0.020000 0.000000
0.059200 0.275000 0.000000
0.316450 0.275000 0.000000
0.573700 0.275000 0.000000
0.830950 0.275000 0.000000
1.000000 0.275000 0.000000
0.059200 0.530000 0.000000
0.316450 0.530000 0.000000
0.573700 0.530000 0.000000
0.830950 0.530000 0.000000
1.000000 0.530000 0.000000
0.059200 0.785000 0.000000
0.316450 0.785000 0.000000
0.573700 0.785000 0.000000
0.830950 0.785000 0.000000
1.000000 0.785000 0.000000
0.059200 1.000000 0.000000
0.316450 1.000000 0.000000
0.573700 1.000000 0.000000
0.830950 1.000000 0.000000
1.000000 1.000000 0.000000
0.059200 0.020000 0.230000
0.316450 0.020000 0.230000
0.573700 0.020000 0.230000
0.830950 0.020000 0.230000
1.000000 0.020000 0.230000
0.059200 0.275000 0.230000
0.316450 0.275000 0.230000
0.573700 0.275000 0.230000
0.830950 0.275000 0.230000
1.000000 0.275000 0.230000
0.059200 0.530000 0.230000
0.316450 0.530000 0.230000
0.573700 0.530000 0.230000
0.830950 0.530000 0.230000
1.000000 0.530000 0.230000
0.059200 0.785000 0.230000
0.316450 0.785000 0.230000
0.573700 0.785000 0.230000
0.830950 0.785000 0.230000
1.000000 0.785000 0.230000
0.059200 1.000000 0.230000
0.316450 1.000000 0.230000
0.573700 1.000000 0.230000
0.830950 1.000000 0.230000
1.000000 1.000000 0.230000
0.059200 0.020000 0.460000
0.316450 0.020000 0.460000
0.573700 0.020000 0.460000
0.830950 0.020000 0.460000
1.000000 0.020000 0.460000
0.059200 0.275000 0.460000
0.316450 0.275000 0.460000
0.573700 0.275000 0.460000
0.830950 0.275000 0.460000
1.000000 0.275000 0.460000
0.059200 0.530000 0.460000
0.316450 0.530000 0.460000
0.573700 0.530000 0.460000
0.830950 0.530000 0.460000
1.000000 0.530000 0.460000
0.059200 0.785000 0.460000
0.316450 0.785000 0.460000
0.573700 0.785000 0.460000
0.830950 0.785000 0.460000
1.000000 0.785000 0.460000
0.059200 1.000000 0.460000
0.316450 1.000000 0.460000
0.573700 1.000000 0.460000
0.830950 1.000000 0.460000
1.000000 1.000000 0.460000
0.059200 0.020000 0.690000
0.316450 0.020000 0.690000
0.573700 0.020000 0.690000
0.830950 0.020000 0.690000
1.000000 0.020000 0.690000
0.059200 0.275000 0.690000
0.316450 0.275000 0.690000
0.573700 0.275000 0.690000
0.830950 0.275000 0.690000
1.000000 0.275000 0.690000
0.059200 0.530000 0.690000
0.316450 0.530000 0.690000
0.573700 0.530000 0.690000
0.830950 0.530000 0.690000
1.000000 0.530000 0.690000
0.059200 0.785000 0.690000
0.316450 0.785000 0.690000
0.573700 0.785000 0.690000
0.830950 0.785000 0.690000
1.000000 0.785000 0.690000
0.059200 1.000000 0.690000
0.316450 1.000000 0.690000
0.573700 1.000000 0.690000
0.830950 1.000000 0.690000
1.000000 1.000000 0.690000
0.059200 0.020000 0.920000
0.316450 0.020000 0.920000
0.573700 0.020000 0.920000
0.830950 0.020000 0.920000
1.000000 0.020000 0.920000
0.059200 0.275000 0.920000
0.316450 0.275000 0.920000
0.573700 0.275000 0.920000
0.830950 0.275000 0.920000
1.000000 0.275000 0.920000
0.059200 0.530000 0.920000
0.316450 0.530000 0.920000
0.573700 0.530000 0.920000
0.830950 0.530000 0.920000
1.000000 0.530000 0.920000
0.059200 0.785000 0.920000
0.316450 0.785000 0.920000
0.573700 0.785000 0.920000
0.830950 0.785000 0.920000
1.000000 0.785000 0.920000
0.059200 1.000000 0.920000
0.316450 1.000000 0.920000
0.573700 1.000000 0.920000
0.830950 1.000000 0.920000
1.000000 1.000000 0.920000
