ios/AIPhotoCoach/Resources/LUTs/film_cool.cube
# Baseline LUT for FilterPreset 'film_cool' (胶片冷).
# Generated by scripts/luts/gen_baseline_luts.py — replace with a
# hand-graded / commercial LUT keeping the same filename to upgrade.
TITLE "film_cool"
LUT_3D_SIZE 17
DOMAIN_MIN 0.0 0.0 0.0
DOMAIN_MAX 1.0 1.0 1.0
0.000000 0.010000 0.040000
0.059375 0.010000 0.040000
0.118750 0.010000 0.040000
0.178125 0.010000 0.040000
0.237500 0.010000 0.040000
0.296875 0.010000 0.040000
0.356250 0.010000 0.040000
0.415625 0.010000 0.040000
0.475000 0.010000 0.040000
0.534375 0.010000 0.040000
0.593750 0.010000 0.040000
0.653125 0.010000 0.040000
0.712500 0.010000 0.040000
0.771875 0.010000 0.040000
0.831250 0.010000 0.040000
0.890625 0.010000 0.040000
0.950000 0.010000 0.040000
0.000000 0.073750 0.040000
0.059375 0.073750 0.040000
0.118750 0.073750 0.040000
0.178125 0.073750 0.040000
0.237500 0.073750 0.040000
0.296875 0.073750 0.040000
0.356250 0.073750 0.040000
0.415625 0.073750 0.040000
0.475000 0.073750 0.040000
0.534375 0.073750 0.040000
0.593750 0.073750 0.040000
0.653125 0.073750 0.040000
0.712500 0.073750 0.040000
0.771875 0.073750 0.040000
0.831250 0.073750 0.040000
0.890625 0.073750 0.040000
0.950000 0.073750 0.040000
0.000000 0.137500 0.040000
0.059375 0.137500 0.040000
0.118750 0.137500 0.040000
0.178125 0.137500 0.040000
0.237500 0.137500 0.040000
0.296875 0.137500 0.040000
0.356250 0.137500 0.040000
0.415625 0.137500 0.040000
0.475000 0.137500 0.040000
0.534375 0.137500 0.040000
0.593750 0.137500 0.040000
0.653125 0.137500 0.040000
0.712500 0.137500 0.040000
0.771875 0.137500 0.040000
0.831250 0.137500 0.040000
0.890625 0.137500 0.040000
0.950000 0.137500 0.040000
0.000000 0.201250 0.040000
0.059375 0.201250 0.040000
0.118750 0.201250 0.040000
0.178125 0.201250 0.040000
0.237500 0.201250 0.040000
0.296875 0.201250 0.040000
0.356250 0.201250 0.040000
0.415625 0.201250 0.040000
0.475000 0.201250 0.040000
0.534375 0.201250 0.040000
0.593750 0.201250 0.040000
0.653125 0.201250 0.040000
0.712500 0.201250 0.040000
0.771875 0.201250 0.040000
0.831250 0.201250 0.040000
0.890625 0.201250 0.040000
0.950000 0.201250 0.040000
0.000000 0.265000 0.040000
0.059375 0.265000 0.040000
0.118750 0.265000 0.040000
0.178125 0.265000 0.040000
0.237500 0.265000 0.040000
0.296875 0.265000 0.040000
0.356250 0.265000 0.040000
0.415625 0.265000 0.040000
0.475000 0.265000 0.040000
0.534375 0.265000 0.040000
0.593750 0.265000 0.040000
0.653125 0.265000 0.040000
0.712500 0.265000 0.040000
0.771875 0.265000 0.040000
0.831250 0.265000 0.040000
0.890625 0.265000 0.040000
0.950000 0.265000 0.040000
0.000000 0.328750 0.040000
0.059375 0.328750 0.040000
0.118750 0.328750 0.040000
0.178125 0.328750 0.040000
0.237500 0.328750 0.040000
0.296875 0.328750 0.040000
0.356250 0.328750 0.040000
0.415625 0.328750 0.040000
0.475000 0.328750 0.040000
0.534375 0.328750 0.040000
0.593750 0.328750 0.040000
0.653125 0.328750 0.040000
0.712500 0.328750 0.040000
0.771875 0.328750 0.040000
0.831250 0.328750 0.040000
0.890625 0.328750 0.040000
0.950000 0.328750 0.040000
0.000000 0.392500 0.040000
0.059375 0.392500 0.040000
0.118750 0.392500 0.040000
0.178125 0.392500 0.040000
0.237500 0.392500 0.040000
0.296875 0.392500 0.040000
0.356250 0.392500 0.040000
0.415625 0.392500 0.040000
0.475000 0.392500 0.040000
0.534375 0.392500 0.040000
0.593750 0.392500 0.040000
0.653125 0.392500 0.040000
0.712500 0.392500 0.040000
0.771875 0.392500 0.040000
0.831250 0.392500 0.040000
0.890625 0.392500 0.040000
0.950000 0.392500 0.040000
0.000000 0.456250 0.040000
0.059375 0.456250 0.040000
0.118750 0.456250 0.040000
0.178125 0.456250 0.040000
0.237500 0.456250 0.040000
0.296875 0.456250 0.040000
0.356250 0.456250 0.040000
0.415625 0.456250 0.040000
0.475000 0.456250 0.040000
0.534375 0.456250 0.040000
0.593750 0.456250 0.040000
0.653125 0.456250 0.040000
0.712500 0.456250 0.040000
0.771875 0.456250 0.040000
0.831250 0.456250 0.040000
0.890625 0.456250 0.040000
0.950000 0.456250 0.040000
0.000000 0.520000 0.040000
0.059375 0.520000 0.040000
0.118750 0.520000 0.040000
0.178125 0.520000 0.040000
0.237500 0.520000 0.040000
0.296875 0.520000 0.040000
0.356250 0.520000 0.040000
0.415625 0.520000 0.040000
0.475000 0.520000 0.040000
0.534375 0.520000 0.040000
0.593750 0.520000 0.040000
0.653125 0.520000 0.040000
0.712500 0.520000 0.040000
0.771875 0.520000 0.040000
0.831250 0.520000 0.040000
0.890625 0.520000 0.040000
0.950000 0.520000 0.040000
0.000000 0.583750 0.040000
0.059375 0.583750 0.040000
0.118750 0.583750 0.040000
0.178125 0.583750 0.040000
0.237500 0.583750 0.040000
0.296875 0.583750 0.040000
0.356250 0.583750 0.040000
0.415625 0.583750 0.040000
0.475000 0.583750 0.040000
0.534375 0.583750 0.040000
0.593750 0.583750 0.040000
0.653125 0.583750 0.040000
0.712500 0.583750 0.040000
0.771875 0.583750 0.040000
0.831250 0.583750 0.040000
0.890625 0.583750 0.040000
0.950000 0.583750 0.040000
0.000000 0.647500 0.040000
0.059375 0.647500 0.040000
0.118750 0.647500 0.040000
0.178125 0.647500 0.040000
0.237500 0.647500 0.040000
0.296875 0.647500 0.040000
0.356250 0.647500 0.040000
0.415625 0.647500 0.040000
0.475000 0.647500 0.040000
0.534375 0.647500 0.040000
0.593750 0.647500 0.040000
0.653125 0.647500 0.040000
0.712500 0.647500 0.040000
0.771875 0.647500 0.040000
0.831250 0.647500 0.040000
0.890625 0.647500 0.040000
0.950000 0.647500 0.040000
0.000000 0.711250 0.040000
0.059375 0.711250 0.040000
0.118750 0.711250 0.040000
0.178125 0.711250 0.040000
0.237500 0.711250 0.040000
0.296875 0.711250 0.040000
0.356250 0.711250 0.040000
0.415625 0.711250 0.040000
0.475000 0.711250 0.040000
0.534375 0.711250 0.040000
0.593750 0.711250 0.040000
0.653125 0.711250 0.040000
0.712500 0.711250 0.040000
0.771875 0.711250 0.040000
0.831250 0.711250 0.040000
0.890625 0.711250 0.040000
0.950000 0.711250 0.040000
0.000000 0.775000 0.040000
0.059375 0.775000 0.040000
0.118750 0.775000 0.040000
0.178125 0.775000 0.040000
0.237500 0.775000 0.040000
0.296875 0.775000 0.040000
0.356250 0.775000 0.040000
0.415625 0.775000 0.040000
0.475000 0.775000 0.040000
0.534375 0.775000 0.040000
0.593750 0.775000 0.040000
0.653125 0.775000 0.040000
0.712500 0.775000 0.040000
0.771875 0.775000 0.040000
0.831250 0.775000 0.040000
0.890625 0.775000 0.040000
0.950000 0.775000 0.040000
0.000000 0.838750 0.040000
0.059375 0.838750 0.040000
0.118750 0.838750 0.040000
0.178125 0.838750 0.040000
0.237500 0.838750 0.040000
0.296875 0.838750 0.040000
0.356250 0.838750 0.040000
0.415625 0.838750 0.040000
0.475000 0.838750 0.040000
0.534375 0.838750 0.040000
0.593750 0.838750 0.040000
0.653125 0.838750 0.040000
0.712500 0.838750 0.040000
0.771875 0.838750 0.040000
0.831250 0.838750 0.040000
0.890625 0.838750 0.040000
0.950000 0.838750 0.040000
0.000000 0.902500 0.040000
0.059375 0.902500 0.040000
0.118750 0.902500 0.040000
0.178125 0.902500 0.040000
0.237500 0.902500 0.040000
0.296875 0.902500 0.040000
0.356250 0.902500 0.040000
0.415625 0.902500 0.040000
0.475000 0.902500 0.040000
0.534375 0.902500 0.040000
0.593750 0.902500 0.040000
0.653125 0.902500 0.040000
0.712500 0.902500 0.040000
0.771875 0.902500 0.040000
0.831250 0.902500 0.040000
0.890625 0.902500 0.040000
0.950000 0.902500 0.040000
0.000000 0.966250 0.040000
0.059375 0.966250 0.040000
0.118750 0.966250 0.040000
0.178125 0.966250 0.040000
0.237500 0.966250 0.040000
0.296875 0.966250 0.040000
0.356250 0.966250 0.040000
0.415625 0.966250 0.040000
0.475000 0.966250 0.040000
0.534375 0.966250 0.040000
0.593750 0.966250 0.040000
0.653125 0.966250 0.040000
0.712500 0.966250 0.040000
0.771875 0.966250 0.040000
0.831250 0.966250 0.040000
0.890625 0.966250 0.040000
0.950000 0.966250 0.040000
0.000000 1.000000 0.040000
0.059375 1.000000 0.040000
0.118750 1.000000 0.040000
0.178125 1.000000 0.040000
0.237500 1.000000 0.040000
0.296875 1.000000 0.040000
0.356250 1.000000 0.040000
0.415625 1.000000 0.040000
0.475000 1.000000 0.040000
0.534375 1.000000 0.040000
0.593750 1.000000 0.040000
0.653125 1.000000 0.040000
0.712500 1.000000 0.040000
0.771875 1.000000 0.040000
0.831250 1.000000 0.040000
0.890625 1.000000 0.040000
0.950000 1.000000 0.040000
0.000000 0.010000 0.105625
0.059375 0.010000 0.105625
0.118750 0.010000 0.105625
0.178125 0.010000 0.105625
0.237500 0.010000 0.105625
0.296875 0.010000 0.105625
0.356250 0.010000 0.105625
0.415625 0.010000 0.105625
0.475000 0.010000 0.105625
0.534375 0.010000 0.105625
0.593750 0.010000 0.105625
0.653125 0.010000 0.105625
0.712500 0.010000 0.105625
0.771875 0.010000 0.105625
0.831250 0.010000 0.105625
0.890625 0.010000 0.105625
0.950000 0.010000 0.105625
0.000000 0.073750 0.105625
0.059375 0.073750 0.105625
0.118750 0.073750 0.105625
0.178125 0.073750 0.105625
0.237500 0.073750 0.105625
0.296875 0.073750 0.105625
0.356250 0.073750 0.105625
0.415625 0.073750 0.105625
0.475000 0.073750 0.105625
0.534375 0.073750 0.105625
0.593750 0.073750 0.105625
0.653125 0.073750 0.105625
0.712500 0.073750 0.105625
0.771875 0.073750 0.105625
0.831250 0.073750 0.105625
0.890625 0.073750 0.105625
0.950000 0.073750 0.105625
0.000000 0.137500 0.105625
0.059375 0.137500 0.105625
0.118750 0.137500 0.105625
0.178125 0.137500 0.105625
0.237500 0.137500 0.105625
0.296875 0.137500 0.105625
0.356250 0.137500 0.105625
0.415625 0.137500 0.105625
0.475000 0.137500 0.105625
0.534375 0.137500 0.105625
0.593750 0.137500 0.105625
0.653125 0.137500 0.105625
0.712500 0.137500 0.105625
0.771875 0.137500 0.105625
0.831250 0.137500 0.105625
0.890625 0.137500 0.105625
0.950000 0.137500 0.105625
0.000000 0.201250 0.105625
0.059375 0.201250 0.105625
0.118750 0.201250 0.105625
0.178125 0.201250 0.105625
0.237500 0.201250 0.105625
0.296875 0.201250 0.105625
0.356250 0.201250 0.105625
0.415625 0.201250 0.105625
0.475000 0.201250 0.105625
0.534375 0.201250 0.105625
0.593750 0.201250 0.105625
0.653125 0.201250 0.105625
0.712500 0.201250 0.105625
0.771875 0.201250 0.105625
0.831250 0.201250 0.105625
0.890625 0.201250 0.105625
0.950000 0.201250 0.105625
0.000000 0.265000 0.105625
0.059375 0.265000 0.105625
0.118750 0.265000 0.105625
0.178125 0.265000 0.105625
0.237500 0.265000 0.105625
0.296875 0.265000 0.105625
0.356250 0.265000 0.105625
0.415625 0.265000 0.105625
0.475000 0.265000 0.105625
0.534375 0.265000 0.105625
0.593750 0.265000 0.105625
0.653125 0.265000 0.105625
0.712500 0.265000 0.105625
0.771875 0.265000 0.105625
0.831250 0.265000 0.105625
0.890625 0.265000 0.105625
0.950000 0.265000 0.105625
0.000000 0.328750 0.105625
0.059375 0.328750 0.105625
0.118750 0.328750 0.105625
0.178125 0.328750 0.105625
0.237500 0.328750 0.105625
0.296875 0.328750 0.105625
0.356250 0.328750 0.105625
0.415625 0.328750 0.105625
0.475000 0.328750 0.105625
0.534375 0.328750 0.105625
0.593750 0.328750 0.105625
0.653125 0.328750 0.105625
0.712500 0.328750 0.105625
0.771875 0.328750 0.105625
0.831250 0.328750 0.105625
0.890625 0.328750 0.105625
0.950000 0.328750 0.105625
0.000000 0.392500 0.105625
0.059375 0.392500 0.105625
0.118750 0.392500 0.105625
0.178125 0.392500 0.105625
0.237500 0.392500 0.105625
0.296875 0.392500 0.105625
0.356250 0.392500 0.105625
0.415625 0.392500 0.105625
0.475000 0.392500 0.105625
0.534375 0.392500 0.105625
0.593750 0.392500 0.105625
0.653125 0.392500 0.105625
0.712500 0.392500 0.105625
0.771875 0.392500 0.105625
0.831250 0.392500 0.105625
0.890625 0.392500 0.105625
0.950000 0.392500 0.105625
0.000000 0.456250 0.105625
0.059375 0.456250 0.105625
0.118750 0.456250 0.105625
0.178125 0.456250 0.105625
0.237500 0.456250 0.105625
0.296875 0.456250 0.105625
0.356250 0.456250 0.105625
0.415625 0.456250 0.105625
0.475000 0.456250 0.105625
0.534375 0.456250 0.105625
0.593750 0.456250 0.105625
0.653125 0.456250 0.105625
0.712500 0.456250 0.105625
0.771875 0.456250 0.105625
0.831250 0.456250 0.105625
0.890625 0.456250 0.105625
0.950000 0.456250 0.105625
0.000000 0.520000 0.105625
0.059375 0.520000 0.105625
0.118750 0.520000 0.105625
0.178125 0.520000 0.105625
0.237500 0.520000 0.105625
0.296875 0.520000 0.105625
0.356250 0.520000 0.105625
0.415625 0.520000 0.105625
0.475000 0.520000 0.105625
0.534375 0.520000 0.105625
0.593750 0.520000 0.105625
0.653125 0.520000 0.105625
0.712500 0.520000 0.105625
0.771875 0.520000 0.105625
0.831250 0.520000 0.105625
0.890625 0.520000 0.105625
0.950000 0.520000 0.105625
0.000000 0.583750 0.105625
0.059375 0.583750 0.105625
0.118750 0.583750 0.105625
0.178125 0.583750 0.105625
0.237500 0.583750 0.105625
0.296875 0.583750 0.105625
0.356250 0.583750 0.105625
0.415625 0.583750 0.105625
0.475000 0.583750 0.105625
0.534375 0.583750 0.105625
0.593750 0.583750 0.105625
0.653125 0.583750 0.105625
0.712500 0.583750 0.105625
0.771875 0.583750 0.105625
0.831250 0.583750 0.105625
0.890625 0.583750 0.105625
0.950000 0.583750 0.105625
0.000000 0.647500 0.105625
0.059375 0.647500 0.105625
0.118750 0.647500 0.105625
0.178125 0.647500 0.105625
0.237500 0.647500 0.105625
0.296875 0.647500 0.105625
0.356250 0.647500 0.105625
0.415625 0.647500 0.105625
0.475000 0.647500 0.105625
0.534375 0.647500 0.105625
0.593750 0.647500 0.105625
0.653125 0.647500 0.105625
0.712500 0.647500 0.105625
0.771875 0.647500 0.105625
0.831250 0.647500 0.105625
0.890625 0.647500 0.105625
0.950000 0.647500 0.105625
0.000000 0.711250 0.105625
0.059375 0.711250 0.105625
0.118750 0.711250 0.105625
0.178125 0.711250 0.105625
0.237500 0.711250 0.105625
0.296875 0.711250 0.105625
0.356250 0.711250 0.105625
0.415625 0.711250 0.105625
0.475000 0.711250 0.105625
0.534375 0.711250 0.105625
0.593750 0.711250 0.105625
0.653125 0.711250 0.105625
0.712500 0.711250 0.105625
0.771875 0.711250 0.105625
0.831250 0.711250 0.105625
0.890625 0.711250 0.105625
0.950000 0.711250 0.105625
0.000000 0.775000 0.105625
0.059375 0.775000 0.105625
0.118750 0.775000 0.105625
0.178125 0.775000 0.105625
0.237500 0.775000 0.105625
0.296875 0.775000 0.105625
0.356250 0.775000 0.105625
0.415625 0.775000 0.105625
0.475000 0.775000 0.105625
0.534375 0.775000 0.105625
0.593750 0.775000 0.105625
0.653125 0.775000 0.105625
0.712500 0.775000 0.105625
0.771875 0.775000 0.105625
0.831250 0.775000 0.105625
0.890625 0.775000 0.105625
0.950000 0.775000 0.105625
0.000000 0.838750 0.105625
0.059375 0.838750 0.105625
0.118750 0.838750 0.105625
0.178125 0.838750 0.105625
0.237500 0.838750 0.105625
0.296875 0.838750 0.105625
0.356250 0.838750 0.105625
0.415625 0.838750 0.105625
0.475000 0.838750 0.105625
0.534375 0.838750 0.105625
0.593750 0.838750 0.105625
0.653125 0.838750 0.105625
0.712500 0.838750 0.105625
0.771875 0.838750 0.105625
0.831250 0.838750 0.105625
0.890625 0.838750 0.105625
0.950000 0.838750 0.105625
0.000000 0.902500 0.105625
0.059375 0.902500 0.105625
0.118750 0.902500 0.105625
0.178125 0.902500 0.105625
0.237500 0.902500 0.105625
0.296875 0.902500 0.105625
0.356250 0.902500 0.105625
0.415625 0.902500 0.105625
0.475000 0.902500 0.105625
0.534375 0.902500 0.105625
0.593750 0.902500 0.105625
0.653125 0.902500 0.105625
0.712500 0.902500 0.105625
0.771875 0.902500 0.105625
0.831250 0.902500 0.105625
0.890625 0.902500 0.105625
0.950000 0.902500 0.105625
0.000000 0.966250 0.105625
0.059375 0.966250 0.105625
0.118750 0.966250 0.105625
0.178125 0.966250 0.105625
0.237500 0.966250 0.105625
0.296875 0.966250 0.105625
0.356250 0.966250 0.105625
0.415625 0.966250 0.105625
0.475000 0.966250 0.105625
0.534375 0.966250 0.105625
0.593750 0.966250 0.105625
0.653125 0.966250 0.105625
0.712500 0.966250 0.105625
0.771875 0.966250 0.105625
0.831250 0.966250 0.105625
0.890625 0.966250 0.105625
0.950000 0.966250 0.105625
0.000000 1.000000 0.105625
0.059375 1.000000 0.105625
0.118750 1.000000 0.105625
0.178125 1.000000 0.105625
0.237500 1.000000 0.105625
0.296875 1.000000 0.105625
0.356250 1.000000 0.105625
0.415625 1.000000 0.105625
0.475000 1.000000 0.105625
0.534375 1.000000 0.105625
0.593750 1.000000 0.105625
0.653125 1.000000 0.105625
0.712500 1.000000 0.105625
0.771875 1.000000 0.105625
0.831250 1.000000 0.105625
0.890625 1.000000 0.105625
0.950000 1.000000 0.105625
0.000000 0.010000 0.171250
0.059375 0.010000 0.171250
0.118750 0.010000 0.171250
0.178125 0.010000 0.171250
0.237500 0.010000 0.171250
0.296875 0.010000 0.171250
0.356250 0.010000 0.171250
0.415625 0.010000 0.171250
0.475000 0.010000 0.171250
0.534375 0.010000 0.171250
0.593750 0.010000 0.171250
0.653125 0.010000 0.171250
0.712500 0.010000 0.171250
0.771875 0.010000 0.171250
0.831250 0.010000 0.171250
0.890625 0.010000 0.171250
0.950000 0.010000 0.171250
0.000000 0.073750 0.171250
0.059375 0.073750 0.171250
0.118750 0.073750 0.171250
0.178125 0.073750 0.171250
0.237500 0.073750 0.171250
0.296875 0.073750 0.171250
0.356250 0.073750 0.171250
0.415625 0.073750 0.171250
0.475000 0.073750 0.171250
0.534375 0.073750 0.171250
0.593750 0.073750 0.171250
0.653125 0.073750 0.171250
0.712500 0.073750 0.171250
0.771875 0.073750 0.171250
0.831250 0.073750 0.171250
0.890625 0.073750 0.171250
0.950000 0.073750 0.171250
0.000000 0.137500 0.171250
0.059375 0.137500 0.171250
0.118750 0.137500 0.171250
0.178125 0.137500 0.171250
0.237500 0.137500 0.171250
0.296875 0.137500 0.171250
0.356250 0.137500 0.171250
0.415625 0.137500 0.171250
0.475000 0.137500 0.171250
0.534375 0.137500 0.171250
0.593750 0.137500 0.171250
0.653125 0.137500 0.171250
0.712500 0.137500 0.171250
0.771875 0.137500 0.171250
0.831250 0.137500 0.171250
0.890625 0.137500 0.171250
0.950000 0.137500 0.171250
0.000000 0.201250 0.171250
0.059375 0.201250 0.171250
0.118750 0.201250 0.171250
0.178125 0.201250 0.171250
0.237500 0.201250 0.171250
0.296875 0.201250 0.171250
0.356250 0.201250 0.171250
0.415625 0.201250 0.171250
0.475000 0.201250 0.171250
0.534375 0.201250 0.171250
0.593750 0.201250 0.171250
0.653125 0.201250 0.171250
0.712500 0.201250 0.171250
0.771875 0.201250 0.171250
0.831250 0.201250 0.171250
0.890625 0.201250 0.171250
0.950000 0.201250 0.171250
0.000000 0.265000 0.171250
0.059375 0.265000 0.171250
0.118750 0.265000 0.171250
0.178125 0.265000 0.171250
0.237500 0.265000 0.171250
0.296875 0.265000 0.171250
0.356250 0.265000 0.171250
0.415625 0.265000 0.171250
0.475000 0.265000 0.171250
0.534375 0.265000 0.171250
0.593750 0.265000 0.171250
0.653125 0.265000 0.171250
0.712500 0.265000 0.171250
0.771875 0.265000 0.171250
0.831250 0.265000 0.171250
0.890625 0.265000 0.171250
0.950000 0.265000 0.171250
0.000000 0.328750 0.171250
0.059375 0.328750 0.171250
0.118750 0.328750 0.171250
0.178125 0.328750 0.171250
0.237500 0.328750 0.171250
0.296875 0.328750 0.171250
0.356250 0.328750 0.171250
0.415625 0.328750 0.171250
0.475000 0.328750 0.171250
0.534375 0.328750 0.171250
0.593750 0.328750 0.171250
0.653125 0.328750 0.171250
0.712500 0.328750 0.171250
0.771875 0.328750 0.171250
0.831250 0.328750 0.171250
0.890625 0.328750 0.171250
0.950000 0.328750 0.171250
0.000000 0.392500 0.171250
0.059375 0.392500 0.171250
0.118750 0.392500 0.171250
0.178125 0.392500 0.171250
0.237500 0.392500 0.171250
0.296875 0.392500 0.171250
0.356250 0.392500 0.171250
0.415625 0.392500 0.171250
0.475000 0.392500 0.171250
0.534375 0.392500 0.171250
0.593750 0.392500 0.171250
0.653125 0.392500 0.171250
0.712500 0.392500 0.171250
0.771875 0.392500 0.171250
0.831250 0.392500 0.171250
0.890625 0.392500 0.171250
0.950000 0.392500 0.171250
0.000000 0.456250 0.171250
0.059375 0.456250 0.171250
0.118750 0.456250 0.171250
0.178125 0.456250 0.171250
0.237500 0.456250 0.171250
0.296875 0.456250 0.171250
0.356250 0.456250 0.171250
0.415625 0.456250 0.171250
0.475000 0.456250 0.171250
0.534375 0.456250 0.171250
0.593750 0.456250 0.171250
0.653125 0.456250 0.171250
0.712500 0.456250 0.171250
0.771875 0.456250 0.171250
0.831250 0.456250 0.171250
0.890625 0.456250 0.171250
0.950000 0.456250 0.171250
0.000000 0.520000 0.171250
0.059375 0.520000 0.171250
0.118750 0.520000 0.171250
0.178125 0.520000 0.171250
0.237500 0.520000 0.171250
0.296875 0.520000 0.171250
0.356250 0.520000 0.171250
0.415625 0.520000 0.171250
0.475000 0.520000 0.171250
0.534375 0.520000 0.171250
0.593750 0.520000 0.171250
0.653125 0.520000 0.171250
0.712500 0.520000 0.171250
0.771875 0.520000 0.171250
0.831250 0.520000 0.171250
0.890625 0.520000 0.171250
0.950000 0.520000 0.171250
0.000000 0.583750 0.171250
0.059375 0.583750 0.171250
0.118750 0.583750 0.171250
0.178125 0.583750 0.171250
0.237500 0.583750 0.171250
0.296875 0.583750 0.171250
0.356250 0.583750 0.171250
0.415625 0.583750 0.171250
0.475000 0.583750 0.171250
0.534375 0.583750 0.171250
0.593750 0.583750 0.171250
0.653125 0.583750 0.171250
0.712500 0.583750 0.171250
0.771875 0.583750 0.171250
0.831250 0.583750 0.171250
0.890625 0.583750 0.171250
0.950000 0.583750 0.171250
0.000000 0.647500 0.171250
0.059375 0.647500 0.171250
0.118750 0.647500 0.171250
0.178125 0.647500 0.171250
0.237500 0.647500 0.171250
0.296875 0.647500 0.171250
0.356250 0.647500 0.171250
0.415625 0.647500 0.171250
0.475000 0.647500 0.171250
0.534375 0.647500 0.171250
0.593750 0.647500 0.171250
0.653125 0.647500 0.171250
0.712500 0.647500 0.171250
0.771875 0.647500 0.171250
0.831250 0.647500 0.171250
0.890625 0.647500 0.171250
0.950000 0.647500 0.171250
0.000000 0.711250 0.171250
0.059375 0.711250 0.171250
0.118750 0.711250 0.171250
0.178125 0.711250 0.171250
0.237500 0.711250 0.171250
0.296875 0.711250 0.171250
0.356250 0.711250 0.171250
0.415625 0.711250 0.171250
0.475000 0.711250 0.171250
0.534375 0.711250 0.171250
0.593750 0.711250 0.171250
0.653125 0.711250 0.171250
0.712500 0.711250 0.171250
0.771875 0.711250 0.171250
0.831250 0.711250 0.171250
0.890625 0.711250 0.171250
0.950000 0.711250 0.171250
0.000000 0.775000 0.171250
0.059375 0.775000 0.171250
0.118750 0.775000 0.171250
0.178125 0.775000 0.171250
0.237500 0.775000 0.171250
0.296875 0.775000 0.171250
0.356250 0.775000 0.171250
0.415625 0.775000 0.171250
0.475000 0.775000 0.171250
0.534375 0.775000 0.171250
0.593750 0.775000 0.171250
0.653125 0.775000 0.171250
0.712500 0.775000 0.171250
0.771875 0.775000 0.171250
0.831250 0.775000 0.171250
0.890625 0.775000 0.171250
0.950000 0.775000 0.171250
0.000000 0.838750 0.171250
0.059375 0.838750 0.171250
0.118750 0.838750 0.171250
0.178125 0.838750 0.171250
0.237500 0.838750 0.171250
0.296875 0.838750 0.171250
0.356250 0.838750 0.171250
0.415625 0.838750 0.171250
0.475000 0.838750 0.171250
0.534375 0.838750 0.171250
0.593750 0.838750 0.171250
0.653125 0.838750 0.171250
0.712500 0.838750 0.171250
0.771875 0.838750 0.171250
0.831250 0.838750 0.171250
0.890625 0.838750 0.171250
0.950000 0.838750 0.171250
0.000000 0.902500 0.171250
0.059375 0.902500 0.171250
0.118750 0.902500 0.171250
0.178125 0.902500 0.171250
0.237500 0.902500 0.171250
0.296875 0.902500 0.171250
0.356250 0.902500 0.171250
0.415625 0.902500 0.171250
0.475000 0.902500 0.171250
0.534375 0.902500 0.171250
0.593750 0.902500 0.171250
0.653125 0.902500 0.171250
0.712500 0.902500 0.171250
0.771875 0.902500 0.171250
0.831250 0.902500 0.171250
0.890625 0.902500 0.171250
0.950000 0.902500 0.171250
0.000000 0.966250 0.171250
0.059375 0.966250 0.171250
0.118750 0.966250 0.171250
0.178125 0.966250 0.171250
0.237500 0.966250 0.171250
0.296875 0.966250 0.171250
0.356250 0.966250 0.171250
0.415625 0.966250 0.171250
0.475000 0.966250 0.171250
0.534375 0.966250 0.171250
0.593750 0.966250 0.171250
0.653125 0.966250 0.171250
0.712500 0.966250 0.171250
0.771875 0.966250 0.171250
0.831250 0.966250 0.171250
0.890625 0.966250 0.171250
0.950000 0.966250 0.171250
0.000000 1.000000 0.171250
0.059375 1.000000 0.171250
0.118750 1.000000 0.171250
0.178125 1.000000 0.171250
0.237500 1.000000 0.171250
0.296875 1.000000 0.171250
0.356250 1.000000 0.171250
0.415625 1.000000 0.171250
0.475000 1.000000 0.171250
0.534375 1.000000 0.171250
0.593750 1.000000 0.171250
0.653125 1.000000 0.171250
0.712500 1.000000 0.171250
0.771875 1.000000 0.171250
0.831250 1.000000 0.171250
0.890625 1.000000 0.171250
0.950000 1.000000 0.171250
0.000000 0.010000 0.236875
0.059375 0.010000 0.236875
0.118750 0.010000 0.236875
0.178125 0.010000 0.236875
0.237500 0.010000 0.236875
0.296875 0.010000 0.236875
0.356250 0.010000 0.236875
0.415625 0.010000 0.236875
0.475000 0.010000 0.236875
0.534375 0.010000 0.236875
0.593750 0.010000 0.236875
0.653125 0.010000 0.236875
