ios/AIPhotoCoach/Resources/LUTs/film_warm.cube
# Baseline LUT for FilterPreset 'film_warm' (胶片暖).
# Generated by scripts/luts/gen_baseline_luts.py — replace with a
# hand-graded / commercial LUT keeping the same filename to upgrade.
TITLE "film_warm"
LUT_3D_SIZE 17
DOMAIN_MIN 0.0 0.0 0.0
DOMAIN_MAX 1.0 1.0 1.0
0.059200 0.020000 0.000000
0.123512 0.020000 0.000000
0.187825 0.020000 0.000000
0.252138 0.020000 0.000000
0.316450 0.020000 0.000000
0.380763 0.020000 0.000000
0.445075 0.020000 0.000000
0.509387 0.020000 0.000000
0.573700 0.020000 0.000000
0.638013 0.020000 0.000000
0.702325 0.020000 0.000000
0.766638 0.020000 0.000000
0.830950 0.020000 0.000000
0.895263 0.020000 0.000000
0.959575 0.020000 0.000000
1.000000 0.020000 0.000000
1.000000 0.020000 0.000000
0.059200 0.083750 0.000000
0.123512 0.083750 0.000000
0.187825 0.083750 0.000000
0.252138 0.083750 0.000000
0.316450 0.083750 0.000000
0.380763 0.083750 0.000000
0.445075 0.083750 0.000000
0.509387 0.083750 0.000000
0.573700 0.083750 0.000000
0.638013 0.083750 0.000000
0.702325 0.083750 0.000000
0.766638 0.083750 0.000000
0.830950 0.083750 0.000000
0.895263 0.083750 0.000000
0.959575 0.083750 0.000000
1.000000 0.083750 0.000000
1.000000 0.083750 0.000000
0.059200 0.147500 0.000000
0.123512 0.147500 0.000000
0.187825 0.147500 0.000000
0.252138 0.147500 0.000000
0.316450 0.147500 0.000000
0.380763 0.147500 0.000000
0.445075 0.147500 0.000000
0.509387 0.147500 0.000000
0.573700 0.147500 0.000000
0.638013 0.147500 0.000000
0.702325 0.147500 0.000000
0.766638 0.147500 0.000000
0.830950 0.147500 0.000000
0.895263 0.147500 0.000000
0.959575 0.147500 0.000000
1.000000 0.147500 0.000000
1.000000 0.147500 0.000000
0.059200 0.211250 0.000000
0.123512 0.211250 0.000000
0.187825 0.211250 0.000000
0.252138 0.211250 0.000000
0.316450 0.211250 0.000000
0.380763 0.211250 0.000000
0.445075 0.211250 0.000000
0.509387 0.211250 0.000000
0.573700 0.211250 0.000000
0.638013 0.211250 0.000000
0.702325 0.211250 0.000000
0.766638 0.211250 0.000000
0.830950 0.211250 0.000000
0.895263 0.211250 0.000000
0.959575 0.211250 0.000000
1.000000 0.211250 0.000000
1.000000 0.211250 0.000000
0.059200 0.275000 0.000000
0.123512 0.275000 0.000000
0.187825 0.275000 0.000000
0.252138 0.275000 0.000000
0.316450 0.275000 0.000000
0.380763 0.275000 0.000000
0.445075 0.275000 0.000000
0.509387 0.275000 0.000000
0.573700 0.275000 0.000000
0.638013 0.275000 0.000000
0.702325 0.275000 0.000000
0.766638 0.275000 0.000000
0.830950 0.275000 0.000000
0.895263 0.275000 0.000000
0.959575 0.275000 0.000000
1.000000 0.275000 0.000000
1.000000 0.275000 0.000000
0.059200 0.338750 0.000000
0.123512 0.338750 0.000000
0.187825 0.338750 0.000000
0.252138 0.338750 0.000000
0.316450 0.338750 0.000000
0.380763 0.338750 0.000000
0.445075 0.338750 0.000000
0.509387 0.338750 0.000000
0.573700 0.338750 0.000000
0.638013 0.338750 0.000000
0.702325 0.338750 0.000000
0.766638 0.338750 0.000000
0.830950 0.338750 0.000000
0.895263 0.338750 0.000000
0.959575 0.338750 0.000000
1.000000 0.338750 0.000000
1.000000 0.338750 0.000000
0.059200 0.402500 0.000000
0.123512 0.402500 0.000000
0.187825 0.402500 0.000000
0.252138 0.402500 0.000000
0.316450 0.402500 0.000000
0.380763 0.402500 0.000000
0.445075 0.402500 0.000000
0.509387 0.402500 0.000000
0.573700 0.402500 0.000000
0.638013 0.402500 0.000000
0.702325 0.402500 0.000000
0.766638 0.402500 0.000000
0.830950 0.402500 0.000000
0.895263 0.402500 0.000000
0.959575 0.402500 0.000000
1.000000 0.402500 0.000000
1.000000 0.402500 0.000000
0.059200 0.466250 0.000000
0.123512 0.466250 0.000000
0.187825 0.466250 0.000000
0.252138 0.466250 0.000000
0.316450 0.466250 0.000000
0.380763 0.466250 0.000000
0.445075 0.466250 0.000000
0.509387 0.466250 0.000000
0.573700 0.466250 0.000000
0.638013 0.466250 0.000000
0.702325 0.466250 0.000000
0.766638 0.466250 0.000000
0.830950 0.466250 0.000000
0.895263 0.466250 0.000000
0.959575 0.466250 0.000000
1.000000 0.466250 0.000000
1.000000 0.466250 0.000000
0.059200 0.530000 0.000000
0.123512 0.530000 0.000000
0.187825 0.530000 0.000000
0.252138 0.530000 0.000000
0.316450 0.530000 0.000000
0.380763 0.530000 0.000000
0.445075 0.530000 0.000000
0.509387 0.530000 0.000000
0.573700 0.530000 0.000000
0.638013 0.530000 0.000000
0.702325 0.530000 0.000000
0.766638 0.530000 0.000000
0.830950 0.530000 0.000000
0.895263 0.530000 0.000000
0.959575 0.530000 0.000000
1.000000 0.530000 0.000000
1.000000 0.530000 0.000000
0.059200 0.593750 0.000000
0.123512 0.593750 0.000000
0.187825 0.593750 0.000000
0.252138 0.593750 0.000000
0.316450 0.593750 0.000000
0.380763 0.593750 0.000000
0.445075 0.593750 0.000000
0.509387 0.593750 0.000000
0.573700 0.593750 0.000000
0.638013 0.593750 0.000000
0.702325 0.593750 0.000000
0.766638 0.593750 0.000000
0.830950 0.593750 0.000000
0.895263 0.593750 0.000000
0.959575 0.593750 0.000000
1.000000 0.593750 0.000000
1.000000 0.593750 0.000000
0.059200 0.657500 0.000000
0.123512 0.657500 0.000000
0.187825 0.657500 0.000000
0.252138 0.657500 0.000000
0.316450 0.657500 0.000000
0.380763 0.657500 0.000000
0.445075 0.657500 0.000000
0.509387 0.657500 0.000000
0.573700 0.657500 0.000000
0.638013 0.657500 0.000000
0.702325 0.657500 0.000000
0.766638 0.657500 0.000000
0.830950 0.657500 0.000000
0.895263 0.657500 0.000000
0.959575 0.657500 0.000000
1.000000 0.657500 0.000000
1.000000 0.657500 0.000000
0.059200 0.721250 0.000000
0.123512 0.721250 0.000000
0.187825 0.721250 0.000000
0.252138 0.721250 0.000000
0.316450 0.721250 0.000000
0.380763 0.721250 0.000000
0.445075 0.721250 0.000000
0.509387 0.721250 0.000000
0.573700 0.721250 0.000000
0.638013 0.721250 0.000000
0.702325 0.721250 0.000000
0.766638 0.721250 0.000000
0.830950 0.721250 0.000000
0.895263 0.721250 0.000000
0.959575 0.721250 0.000000
1.000000 0.721250 0.000000
1.000000 0.721250 0.000000
0.059200 0.785000 0.000000
0.123512 0.785000 0.000000
0.187825 0.785000 0.000000
0.252138 0.785000 0.000000
0.316450 0.785000 0.000000
0.380763 0.785000 0.000000
0.445075 0.785000 0.000000
0.509387 0.785000 0.000000
0.573700 0.785000 0.000000
0.638013 0.785000 0.000000
0.702325 0.785000 0.000000
0.766638 0.785000 0.000000
0.830950 0.785000 0.000000
0.895263 0.785000 0.000000
0.959575 0.785000 0.000000
1.000000 0.785000 0.000000
1.000000 0.785000 0.000000
0.059200 0.848750 0.000000
0.123512 0.848750 0.000000
0.187825 0.848750 0.000000
0.252138 0.848750 0.000000
0.316450 0.848750 0.000000
0.380763 0.848750 0.000000
0.445075 0.848750 0.000000
0.509387 0.848750 0.000000
0.573700 0.848750 0.000000
0.638013 0.848750 0.000000
0.702325 0.848750 0.000000
0.766638 0.848750 0.000000
0.830950 0.848750 0.000000
0.895263 0.848750 0.000000
0.959575 0.848750 0.000000
1.000000 0.848750 0.000000
1.000000 0.848750 0.000000
0.059200 0.912500 0.000000
0.123512 0.912500 0.000000
0.187825 0.912500 0.000000
0.252138 0.912500 0.000000
0.316450 0.912500 0.000000
0.380763 0.912500 0.000000
0.445075 0.912500 0.000000
0.509387 0.912500 0.000000
0.573700 0.912500 0.000000
0.638013 0.912500 0.000000
0.702325 0.912500 0.000000
0.766638 0.912500 0.000000
0.830950 0.912500 0.000000
0.895263 0.912500 0.000000
0.959575 0.912500 0.000000
1.000000 0.912500 0.000000
1.000000 0.912500 0.000000
0.059200 0.976250 0.000000
0.123512 0.976250 0.000000
0.187825 0.976250 0.000000
0.252138 0.976250 0.000000
0.316450 0.976250 0.000000
0.380763 0.976250 0.000000
0.445075 0.976250 0.000000
0.509387 0.976250 0.000000
0.573700 0.976250 0.000000
0.638013 0.976250 0.000000
0.702325 0.976250 0.000000
0.766638 0.976250 0.000000
0.830950 0.976250 0.000000
0.895263 0.976250 0.000000
0.959575 0.976250 0.000000
1.000000 0.976250 0.000000
1.000000 0.976250 0.000000
0.059200 1.000000 0.000000
0.123512 1.000000 0.000000
0.187825 1.000000 0.000000
0.252138 1.000000 0.000000
0.316450 1.000000 0.000000
0.380763 1.000000 0.000000
0.445075 1.000000 0.000000
0.509387 1.000000 0.000000
0.573700 1.000000 0.000000
0.638013 1.000000 0.000000
0.702325 1.000000 0.000000
0.766638 1.000000 0.000000
0.830950 1.000000 0.000000
0.895263 1.000000 0.000000
0.959575 1.000000 0.000000
1.000000 1.000000 0.000000
1.000000 1.000000 0.000000
0.059200 0.020000 0.057500
0.123512 0.020000 0.057500
0.187825 0.020000 0.057500
0.252138 0.020000 0.057500
0.316450 0.020000 0.057500
0.380763 0.020000 0.057500
0.445075 0.020000 0.057500
0.509387 0.020000 0.057500
0.573700 0.020000 0.057500
0.638013 0.020000 0.057500
0.702325 0.020000 0.057500
0.766638 0.020000 0.057500
0.830950 0.020000 0.057500
0.895263 0.020000 0.057500
0.959575 0.020000 0.057500
1.000000 0.020000 0.057500
1.000000 0.020000 0.057500
0.059200 0.083750 0.057500
0.123512 0.083750 0.057500
0.187825 0.083750 0.057500
0.252138 0.083750 0.057500
0.316450 0.083750 0.057500
0.380763 0.083750 0.057500
0.445075 0.083750 0.057500
0.509387 0.083750 0.057500
0.573700 0.083750 0.057500
0.638013 0.083750 0.057500
0.702325 0.083750 0.057500
0.766638 0.083750 0.057500
0.830950 0.083750 0.057500
0.895263 0.083750 0.057500
0.959575 0.083750 0.057500
1.000000 0.083750 0.057500
1.000000 0.083750 0.057500
0.059200 0.147500 0.057500
0.123512 0.147500 0.057500
0.187825 0.147500 0.057500
0.252138 0.147500 0.057500
0.316450 0.147500 0.057500
0.380763 0.147500 0.057500
0.445075 0.147500 0.057500
0.509387 0.147500 0.057500
0.573700 0.147500 0.057500
0.638013 0.147500 0.057500
0.702325 0.147500 0.057500
0.766638 0.147500 0.057500
0.830950 0.147500 0.057500
0.895263 0.147500 0.057500
0.959575 0.147500 0.057500
1.000000 0.147500 0.057500
1.000000 0.147500 0.057500
0.059200 0.211250 0.057500
0.123512 0.211250 0.057500
0.187825 0.211250 0.057500
0.252138 0.211250 0.057500
0.316450 0.211250 0.057500
0.380763 0.211250 0.057500
0.445075 0.211250 0.057500
0.509387 0.211250 0.057500
0.573700 0.211250 0.057500
0.638013 0.211250 0.057500
0.702325 0.211250 0.057500
0.766638 0.211250 0.057500
0.830950 0.211250 0.057500
0.895263 0.211250 0.057500
0.959575 0.211250 0.057500
1.000000 0.211250 0.057500
1.000000 0.211250 0.057500
0.059200 0.275000 0.057500
0.123512 0.275000 0.057500
0.187825 0.275000 0.057500
0.252138 0.275000 0.057500
0.316450 0.275000 0.057500
0.380763 0.275000 0.057500
0.445075 0.275000 0.057500
0.509387 0.275000 0.057500
0.573700 0.275000 0.057500
0.638013 0.275000 0.057500
0.702325 0.275000 0.057500
0.766638 0.275000 0.057500
0.830950 0.275000 0.057500
0.895263 0.275000 0.057500
0.959575 0.275000 0.057500
1.000000 0.275000 0.057500
1.000000 0.275000 0.057500
0.059200 0.338750 0.057500
0.123512 0.338750 0.057500
0.187825 0.338750 0.057500
0.252138 0.338750 0.057500
0.316450 0.338750 0.057500
0.380763 0.338750 0.057500
0.445075 0.338750 0.057500
0.509387 0.338750 0.057500
0.573700 0.338750 0.057500
0.638013 0.338750 0.057500
0.702325 0.338750 0.057500
0.766638 0.338750 0.057500
0.830950 0.338750 0.057500
0.895263 0.338750 0.057500
0.959575 0.338750 0.057500
1.000000 0.338750 0.057500
1.000000 0.338750 0.057500
0.059200 0.402500 0.057500
0.123512 0.402500 0.057500
0.187825 0.402500 0.057500
0.252138 0.402500 0.057500
0.316450 0.402500 0.057500
0.380763 0.402500 0.057500
0.445075 0.402500 0.057500
0.509387 0.402500 0.057500
0.573700 0.402500 0.057500
0.638013 0.402500 0.057500
0.702325 0.402500 0.057500
0.766638 0.402500 0.057500
0.830950 0.402500 0.057500
0.895263 0.402500 0.057500
0.959575 0.402500 0.057500
1.000000 0.402500 0.057500
1.000000 0.402500 0.057500
0.059200 0.466250 0.057500
0.123512 0.466250 0.057500
0.187825 0.466250 0.057500
0.252138 0.466250 0.057500
0.316450 0.466250 0.057500
0.380763 0.466250 0.057500
0.445075 0.466250 0.057500
0.509387 0.466250 0.057500
0.573700 0.466250 0.057500
0.638013 0.466250 0.057500
0.702325 0.466250 0.057500
0.766638 0.466250 0.057500
0.830950 0.466250 0.057500
0.895263 0.466250 0.057500
0.959575 0.466250 0.057500
1.000000 0.466250 0.057500
1.000000 0.466250 0.057500
0.059200 0.530000 0.057500
0.123512 0.530000 0.057500
0.187825 0.530000 0.057500
0.252138 0.530000 0.057500
0.316450 0.530000 0.057500
0.380763 0.530000 0.057500
0.445075 0.530000 0.057500
0.509387 0.530000 0.057500
0.573700 0.530000 0.057500
0.638013 0.530000 0.057500
0.702325 0.530000 0.057500
0.766638 0.530000 0.057500
0.830950 0.530000 0.057500
0.895263 0.530000 0.057500
0.959575 0.530000 0.057500
1.000000 0.530000 0.057500
1.000000 0.530000 0.057500
0.059200 0.593750 0.057500
0.123512 0.593750 0.057500
0.187825 0.593750 0.057500
0.252138 0.593750 0.057500
0.316450 0.593750 0.057500
0.380763 0.593750 0.057500
0.445075 0.593750 0.057500
0.509387 0.593750 0.057500
0.573700 0.593750 0.057500
0.638013 0.593750 0.057500
0.702325 0.593750 0.057500
0.766638 0.593750 0.057500
0.830950 0.593750 0.057500
0.895263 0.593750 0.057500
0.959575 0.593750 0.057500
1.000000 0.593750 0.057500
1.000000 0.593750 0.057500
0.059200 0.657500 0.057500
0.123512 0.657500 0.057500
0.187825 0.657500 0.057500
0.252138 0.657500 0.057500
0.316450 0.657500 0.057500
0.380763 0.657500 0.057500
0.445075 0.657500 0.057500
0.509387 0.657500 0.057500
0.573700 0.657500 0.057500
0.638013 0.657500 0.057500
0.702325 0.657500 0.057500
0.766638 0.657500 0.057500
0.830950 0.657500 0.057500
0.895263 0.657500 0.057500
0.959575 0.657500 0.057500
1.000000 0.657500 0.057500
1.000000 0.657500 0.057500
0.059200 0.721250 0.057500
0.123512 0.721250 0.057500
0.187825 0.721250 0.057500
0.252138 0.721250 0.057500
0.316450 0.721250 0.057500
0.380763 0.721250 0.057500
0.445075 0.721250 0.057500
0.509387 0.721250 0.057500
0.573700 0.721250 0.057500
0.638013 0.721250 0.057500
0.702325 0.721250 0.057500
0.766638 0.721250 0.057500
0.830950 0.721250 0.057500
0.895263 0.721250 0.057500
0.959575 0.721250 0.057500
1.000000 0.721250 0.057500
1.000000 0.721250 0.057500
0.059200 0.785000 0.057500
0.123512 0.785000 0.057500
0.187825 0.785000 0.057500
0.252138 0.785000 0.057500
0.316450 0.785000 0.057500
0.380763 0.785000 0.057500
0.445075 0.785000 0.057500
0.509387 0.785000 0.057500
0.573700 0.785000 0.057500
0.638013 0.785000 0.057500
0.702325 0.785000 0.057500
0.766638 0.785000 0.057500
0.830950 0.785000 0.057500
0.895263 0.785000 0.057500
0.959575 0.785000 0.057500
1.000000 0.785000 0.057500
1.000000 0.785000 0.057500
0.059200 0.848750 0.057500
0.123512 0.848750 0.057500
0.187825 0.848750 0.057500
0.252138 0.848750 0.057500
0.316450 0.848750 0.057500
0.380763 0.848750 0.057500
0.445075 0.848750 0.057500
0.509387 0.848750 0.057500
0.573700 0.848750 0.057500
0.638013 0.848750 0.057500
0.702325 0.848750 0.057500
0.766638 0.848750 0.057500
0.830950 0.848750 0.057500
0.895263 0.848750 0.057500
0.959575 0.848750 0.057500
1.000000 0.848750 0.057500
1.000000 0.848750 0.057500
0.059200 0.912500 0.057500
0.123512 0.912500 0.057500
0.187825 0.912500 0.057500
0.252138 0.912500 0.057500
0.316450 0.912500 0.057500
0.380763 0.912500 0.057500
0.445075 0.912500 0.057500
0.509387 0.912500 0.057500
0.573700 0.912500 0.057500
0.638013 0.912500 0.057500
0.702325 0.912500 0.057500
0.766638 0.912500 0.057500
0.830950 0.912500 0.057500
0.895263 0.912500 0.057500
0.959575 0.912500 0.057500
1.000000 0.912500 0.057500
1.000000 0.912500 0.057500
0.059200 0.976250 0.057500
0.123512 0.976250 0.057500
0.187825 0.976250 0.057500
0.252138 0.976250 0.057500
0.316450 0.976250 0.057500
0.380763 0.976250 0.057500
0.445075 0.976250 0.057500
0.509387 0.976250 0.057500
0.573700 0.976250 0.057500
0.638013 0.976250 0.057500
0.702325 0.976250 0.057500
0.766638 0.976250 0.057500
0.830950 0.976250 0.057500
0.895263 0.976250 0.057500
0.959575 0.976250 0.057500
1.000000 0.976250 0.057500
1.000000 0.976250 0.057500
0.059200 1.000000 0.057500
0.123512 1.000000 0.057500
0.187825 1.000000 0.057500
0.252138 1.000000 0.057500
0.316450 1.000000 0.057500
0.380763 1.000000 0.057500
0.445075 1.000000 0.057500
0.509387 1.000000 0.057500
0.573700 1.000000 0.057500
0.638013 1.000000 0.057500
0.702325 1.000000 0.057500
0.766638 1.000000 0.057500
0.830950 1.000000 0.057500
0.895263 1.000000 0.057500
0.959575 1.000000 0.057500
1.000000 1.000000 0.057500
1.000000 1.000000 0.057500
0.059200 0.020000 0.115000
0.123512 0.020000 0.115000
0.187825 0.020000 0.115000
0.252138 0.020000 0.115000
0.316450 0.020000 0.115000
0.380763 0.020000 0.115000
0.445075 0.020000 0.115000
0.509387 0.020000 0.115000
0.573700 0.020000 0.115000
0.638013 0.020000 0.115000
0.702325 0.020000 0.115000
0.766638 0.020000 0.115000
0.830950 0.020000 0.115000
0.895263 0.020000 0.115000
0.959575 0.020000 0.115000
1.000000 0.020000 0.115000
1.000000 0.020000 0.115000
0.059200 0.083750 0.115000
0.123512 0.083750 0.115000
0.187825 0.083750 0.115000
0.252138 0.083750 0.115000
0.316450 0.083750 0.115000
0.380763 0.083750 0.115000
0.445075 0.083750 0.115000
0.509387 0.083750 0.115000
0.573700 0.083750 0.115000
0.638013 0.083750 0.115000
0.702325 0.083750 0.115000
0.766638 0.083750 0.115000
0.830950 0.083750 0.115000
0.895263 0.083750 0.115000
0.959575 0.083750 0.115000
1.000000 0.083750 0.115000
1.000000 0.083750 0.115000
0.059200 0.147500 0.115000
0.123512 0.147500 0.115000
0.187825 0.147500 0.115000
0.252138 0.147500 0.115000
0.316450 0.147500 0.115000
0.380763 0.147500 0.115000
0.445075 0.147500 0.115000
0.509387 0.147500 0.115000
0.573700 0.147500 0.115000
0.638013 0.147500 0.115000
0.702325 0.147500 0.115000
0.766638 0.147500 0.115000
0.830950 0.147500 0.115000
0.895263 0.147500 0.115000
0.959575 0.147500 0.115000
1.000000 0.147500 0.115000
1.000000 0.147500 0.115000
0.059200 0.211250 0.115000
0.123512 0.211250 0.115000
0.187825 0.211250 0.115000
0.252138 0.211250 0.115000
0.316450 0.211250 0.115000
0.380763 0.211250 0.115000
0.445075 0.211250 0.115000
0.509387 0.211250 0.115000
0.573700 0.211250 0.115000
0.638013 0.211250 0.115000
0.702325 0.211250 0.115000
0.766638 0.211250 0.115000
0.830950 0.211250 0.115000
0.895263 0.211250 0.115000
0.959575 0.211250 0.115000
1.000000 0.211250 0.115000
1.000000 0.211250 0.115000
0.059200 0.275000 0.115000
0.123512 0.275000 0.115000
0.187825 0.275000 0.115000
0.252138 0.275000 0.115000
0.316450 0.275000 0.115000
0.380763 0.275000 0.115000
0.445075 0.275000 0.115000
0.509387 0.275000 0.115000
0.573700 0.275000 0.115000
0.638013 0.275000 0.115000
0.702325 0.275000 0.115000
0.766638 0.275000 0.115000
0.830950 0.275000 0.115000
0.895263 0.275000 0.115000
0.959575 0.275000 0.115000
1.000000 0.275000 0.115000
1.000000 0.275000 0.115000
0.059200 0.338750 0.115000
0.123512 0.338750 0.115000
0.187825 0.338750 0.115000
0.252138 0.338750 0.115000
0.316450 0.338750 0.115000
0.380763 0.338750 0.115000
0.445075 0.338750 0.115000
0.509387 0.338750 0.115000
0.573700 0.338750 0.115000
0.638013 0.338750 0.115000
0.702325 0.338750 0.115000
0.766638 0.338750 0.115000
0.830950 0.338750 0.115000
0.895263 0.338750 0.115000
0.959575 0.338750 0.115000
1.000000 0.338750 0.115000
1.000000 0.338750 0.115000
0.059200 0.402500 0.115000
0.123512 0.402500 0.115000
0.187825 0.402500 0.115000
0.252138 0.402500 0.115000
0.316450 0.402500 0.115000
0.380763 0.402500 0.115000
0.445075 0.402500 0.115000
0.509387 0.402500 0.115000
0.573700 0.402500 0.115000
0.638013 0.402500 0.115000
0.702325 0.402500 0.115000
0.766638 0.402500 0.115000
0.830950 0.402500 0.115000
0.895263 0.402500 0.115000
0.959575 0.402500 0.115000
1.000000 0.402500 0.115000
1.000000 0.402500 0.115000
0.059200 0.466250 0.115000
0.123512 0.466250 0.115000
0.187825 0.466250 0.115000
0.252138 0.466250 0.115000
0.316450 0.466250 0.115000
0.380763 0.466250 0.115000
0.445075 0.466250 0.115000
0.509387 0.466250 0.115000
0.573700 0.466250 0.115000
0.638013 0.466250 0.115000
0.702325 0.466250 0.115000
0.766638 0.466250 0.115000
0.830950 0.466250 0.115000
0.895263 0.466250 0.115000
0.959575 0.466250 0.115000
1.000000 0.466250 0.115000
1.000000 0.466250 0.115000
0.059200 0.530000 0.115000
0.123512 0.530000 0.115000
0.187825 0.530000 0.115000
0.252138 0.530000 0.115000
0.316450 0.530000 0.115000
0.380763 0.530000 0.115000
0.445075 0.530000 0.115000
0.509387 0.530000 0.115000
0.573700 0.530000 0.115000
0.638013 0.530000 0.115000
0.702325 0.530000 0.115000
0.766638 0.530000 0.115000
0.830950 0.530000 0.115000
0.895263 0.530000 0.115000
0.959575 0.530000 0.115000
1.000000 0.530000 0.115000
1.000000 0.530000 0.115000
0.059200 0.593750 0.115000
0.123512 0.593750 0.115000
0.187825 0.593750 0.115000
0.252138 0.593750 0.115000
0.316450 0.593750 0.115000
0.380763 0.593750 0.115000
0.445075 0.593750 0.115000
0.509387 0.593750 0.115000
0.573700 0.593750 0.115000
0.638013 0.593750 0.115000
0.702325 0.593750 0.115000
0.766638 0.593750 0.115000
0.830950 0.593750 0.115000
0.895263 0.593750 0.115000
0.959575 0.593750 0.115000
1.000000 0.593750 0.115000
1.000000 0.593750 0.115000
0.059200 0.657500 0.115000
0.123512 0.657500 0.115000
0.187825 0.657500 0.115000
0.252138 0.657500 0.115000
0.316450 0.657500 0.115000
0.380763 0.657500 0.115000
0.445075 0.657500 0.115000
0.509387 0.657500 0.115000
0.573700 0.657500 0.115000
0.638013 0.657500 0.115000
0.702325 0.657500 0.115000
0.766638 0.657500 0.115000
0.830950 0.657500 0.115000
0.895263 0.657500 0.115000
0.959575 0.657500 0.115000
1.000000 0.657500 0.115000
1.000000 0.657500 0.115000
0.059200 0.721250 0.115000
0.123512 0.721250 0.115000
0.187825 0.721250 0.115000
0.252138 0.721250 0.115000
0.316450 0.721250 0.115000
0.380763 0.721250 0.115000
0.445075 0.721250 0.115000
0.509387 0.721250 0.115000
0.573700 0.721250 0.115000
0.638013 0.721250 0.115000
0.702325 0.721250 0.115000
0.766638 0.721250 0.115000
0.830950 0.721250 0.115000
0.895263 0.721250 0.115000
0.959575 0.721250 0.115000
1.000000 0.721250 0.115000
1.000000 0.721250 0.115000
0.059200 0.785000 0.115000
0.123512 0.785000 0.115000
0.187825 0.785000 0.115000
0.252138 0.785000 0.115000
0.316450 0.785000 0.115000
0.380763 0.785000 0.115000
0.445075 0.785000 0.115000
0.509387 0.785000 0.115000
0.573700 0.785000 0.115000
0.638013 0.785000 0.115000
0.702325 0.785000 0.115000
0.766638 0.785000 0.115000
0.830950 0.785000 0.115000
0.895263 0.785000 0.115000
0.959575 0.785000 0.115000
1.000000 0.785000 0.115000
1.000000 0.785000 0.115000
0.059200 0.848750 0.115000
0.123512 0.848750 0.115000
0.187825 0.848750 0.115000
0.252138 0.848750 0.115000
0.316450 0.848750 0.115000
0.380763 0.848750 0.115000
0.445075 0.848750 0.115000
0.509387 0.848750 0.115000
0.573700 0.848750 0.115000
0.638013 0.848750 0.115000
0.702325 0.848750 0.115000
0.766638 0.848750 0.115000
0.830950 0.848750 0.115000
0.895263 0.848750 0.115000
0.959575 0.848750 0.115000
1.000000 0.848750 0.115000
1.000000 0.848750 0.115000
0.059200 0.912500 0.115000
0.123512 0.912500 0.115000
0.187825 0.912500 0.115000
0.252138 0.912500 0.115000
0.316450 0.912500 0.115000
0.380763 0.912500 0.115000
0.445075 0.912500 0.115000
0.509387 0.912500 0.115000
0.573700 0.912500 0.115000
0.638013 0.912500 0.115000
0.702325 0.912500 0.115000
0.766638 0.912500 0.115000
0.830950 0.912500 0.115000
0.895263 0.912500 0.115000
0.959575 0.912500 0.115000
1.000000 0.912500 0.115000
1.000000 0.912500 0.115000
0.059200 0.976250 0.115000
0.123512 0.976250 0.115000
0.187825 0.976250 0.115000
0.252138 0.976250 0.115000
0.316450 0.976250 0.115000
0.380763 0.976250 0.115000
0.445075 0.976250 0.115000
0.509387 0.976250 0.115000
0.573700 0.976250 0.115000
0.638013 0.976250 0.115000
0.702325 0.976250 0.115000
0.766638 0.976250 0.115000
0.830950 0.976250 0.115000
0.895263 0.976250 0.115000
0.959575 0.976250 0.115000
1.000000 0.976250 0.115000
1.000000 0.976250 0.115000
0.059200 1.000000 0.115000
0.123512 1.000000 0.115000
0.187825 1.000000 0.115000
0.252138 1.000000 0.115000
0.316450 1.000000 0.115000
0.380763 1.000000 0.115000
0.445075 1.000000 0.115000
0.509387 1.000000 0.115000
0.573700 1.000000 0.115000
0.638013 1.000000 0.115000
0.702325 1.000000 0.115000
0.766638 1.000000 0.115000
0.830950 1.000000 0.115000
0.895263 1.000000 0.115000
0.959575 1.000000 0.115000
1.000000 1.000000 0.115000
1.000000 1.000000 0.115000
0.059200 0.020000 0.172500
0.123512 0.020000 0.172500
0.187825 0.020000 0.172500
0.252138 0.020000 0.172500
0.316450 0.020000 0.172500
0.380763 0.020000 0.172500
0.445075 0.020000 0.172500
0.509387 0.020000 0.172500
0.573700 0.020000 0.172500
0.638013 0.020000 0.172500
0.702325 0.020000 0.172500
0.766638 0.020000 0.172500
