ios/AIPhotoCoach/Resources/LUTs/film_cool.cube
# Baseline LUT for FilterPreset 'film_cool' (胶片冷).
# Generated by scripts/luts/gen_baseline_luts.py — replace with a
# hand-graded / commercial LUT keeping the same filename to upgrade.
TITLE "film_cool"
LUT_3D_SIZE 9
DOMAIN_MIN 0.0 0.0 0.0
DOMAIN_MAX 1.0 1.0 1.0
0.000000 0.010000 0.040000
0.118750 0.010000 0.040000
0.237500 0.010000 0.040000
0.356250 0.010000 0.040000
0.475000 0.010000 0.040000
0.593750 0.010000 0.040000
0.712500 0.010000 0.040000
0.831250 0.010000 0.040000
0.950000 0.010000 0.040000
0.000000 0.137500 0.040000
0.118750 0.137500 0.040000
0.237500 0.137500 0.040000
0.356250 0.137500 0.040000
0.475000 0.137500 0.040000
0.593750 0.137500 0.040000
0.712500 0.137500 0.040000
0.831250 0.137500 0.040000
0.950000 0.137500 0.040000
0.000000 0.265000 0.040000
0.118750 0.265000 0.040000
0.237500 0.265000 0.040000
0.356250 0.265000 0.040000
0.475000 0.265000 0.040000
0.593750 0.265000 0.040000
0.712500 0.265000 0.040000
0.831250 0.265000 0.040000
0.950000 0.265000 0.040000
0.000000 0.392500 0.040000
0.118750 0.392500 0.040000
0.237500 0.392500 0.040000
0.356250 0.392500 0.040000
0.475000 0.392500 0.040000
0.593750 0.392500 0.040000
0.712500 0.392500 0.040000
0.831250 0.392500 0.040000
0.950000 0.392500 0.040000
0.000000 0.520000 0.040000
0.118750 0.520000 0.040000
0.237500 0.520000 0.040000
0.356250 0.520000 0.040000
0.475000 0.520000 0.040000
0.593750 0.520000 0.040000
0.712500 0.520000 0.040000
0.831250 0.520000 0.040000
0.950000 0.520000 0.040000
0.000000 0.647500 0.040000
0.118750 0.647500 0.040000
0.237500 0.647500 0.040000
0.356250 0.647500 0.040000
0.475000 0.647500 0.040000
0.593750 0.647500 0.040000
0.712500 0.647500 0.040000
0.831250 0.647500 0.040000
0.950000 0.647500 0.040000
0.000000 0.775000 0.040000
0.118750 0.775000 0.040000
0.237500 0.775000 0.040000
0.356250 0.775000 0.040000
0.475000 0.775000 0.040000
0.593750 0.775000 0.040000
0.712500 0.775000 0.040000
0.831250 0.775000 0.040000
0.950000 0.775000 0.040000
0.000000 0.902500 0.040000
0.118750 0.902500 0.040000
0.237500 0.902500 0.040000
0.356250 0.902500 0.040000
0.475000 0.902500 0.040000
0.593750 0.902500 0.040000
0.712500 0.902500 0.040000
0.831250 0.902500 0.040000
0.950000 0.902500 0.040000
0.000000 1.000000 0.040000
0.118750 1.000000 0.040000
0.237500 1.000000 0.040000
0.356250 1.000000 0.040000
0.475000 1.000000 0.040000
0.593750 1.000000 0.040000
0.712500 1.000000 0.040000
0.831250 1.000000 0.040000
0.950000 1.000000 0.040000
0.000000 0.010000 0.171250
0.118750 0.010000 0.171250
0.237500 0.010000 0.171250
0.356250 0.010000 0.171250
0.475000 0.010000 0.171250
0.593750 0.010000 0.171250
0.712500 0.010000 0.171250
0.831250 0.010000 0.171250
0.950000 0.010000 0.171250
0.000000 0.137500 0.171250
0.118750 0.137500 0.171250
0.237500 0.137500 0.171250
0.356250 0.137500 0.171250
0.475000 0.137500 0.171250
0.593750 0.137500 0.171250
0.712500 0.137500 0.171250
0.831250 0.137500 0.171250
0.950000 0.137500 0.171250
0.000000 0.265000 0.171250
0.118750 0.265000 0.171250
0.237500 0.265000 0.171250
0.356250 0.265000 0.171250
0.475000 0.265000 0.171250
0.593750 0.265000 0.171250
0.712500 0.265000 0.171250
0.831250 0.265000 0.171250
0.950000 0.265000 0.171250
0.000000 0.392500 0.171250
0.118750 0.392500 0.171250
0.237500 0.392500 0.171250
0.356250 0.392500 0.171250
0.475000 0.392500 0.171250
0.593750 0.392500 0.171250
0.712500 0.392500 0.171250
0.831250 0.392500 0.171250
0.950000 0.392500 0.171250
0.000000 0.520000 0.171250
0.118750 0.520000 0.171250
0.237500 0.520000 0.171250
0.356250 0.520000 0.171250
0.475000 0.520000 0.171250
0.593750 0.520000 0.171250
0.712500 0.520000 0.171250
0.831250 0.520000 0.171250
0.950000 0.520000 0.171250
0.000000 0.647500 0.171250
0.118750 0.647500 0.171250
0.237500 0.647500 0.171250
0.356250 0.647500 0.171250
0.475000 0.647500 0.171250
0.593750 0.647500 0.171250
0.712500 0.647500 0.171250
0.831250 0.647500 0.171250
0.950000 0.647500 0.171250
0.000000 0.775000 0.171250
0.118750 0.775000 0.171250
0.237500 0.775000 0.171250
0.356250 0.775000 0.171250
0.475000 0.775000 0.171250
0.593750 0.775000 0.171250
0.712500 0.775000 0.171250
0.831250 0.775000 0.171250
0.950000 0.775000 0.171250
0.000000 0.902500 0.171250
0.118750 0.902500 0.171250
0.237500 0.902500 0.171250
0.356250 0.902500 0.171250
0.475000 0.902500 0.171250
0.593750 0.902500 0.171250
0.712500 0.902500 0.171250
0.831250 0.902500 0.171250
0.950000 0.902500 0.171250
0.000000 1.000000 0.171250
0.118750 1.000000 0.171250
0.237500 1.000000 0.171250
0.356250 1.000000 0.171250
0.475000 1.000000 0.171250
0.593750 1.000000 0.171250
0.712500 1.000000 0.171250
0.831250 1.000000 0.171250
0.950000 1.000000 0.171250
0.000000 0.010000 0.302500
0.118750 0.010000 0.302500
0.237500 0.010000 0.302500
0.356250 0.010000 0.302500
0.475000 0.010000 0.302500
0.593750 0.010000 0.302500
0.712500 0.010000 0.302500
0.831250 0.010000 0.302500
0.950000 0.010000 0.302500
0.000000 0.137500 0.302500
0.118750 0.137500 0.302500
0.237500 0.137500 0.302500
0.356250 0.137500 0.302500
0.475000 0.137500 0.302500
0.593750 0.137500 0.302500
0.712500 0.137500 0.302500
0.831250 0.137500 0.302500
0.950000 0.137500 0.302500
0.000000 0.265000 0.302500
0.118750 0.265000 0.302500
0.237500 0.265000 0.302500
0.356250 0.265000 0.302500
0.475000 0.265000 0.302500
0.593750 0.265000 0.302500
0.712500 0.265000 0.302500
0.831250 0.265000 0.302500
0.950000 0.265000 0.302500
0.000000 0.392500 0.302500
0.118750 0.392500 0.302500
0.237500 0.392500 0.302500
0.356250 0.392500 0.302500
0.475000 0.392500 0.302500
0.593750 0.392500 0.302500
0.712500 0.392500 0.302500
0.831250 0.392500 0.302500
0.950000 0.392500 0.302500
0.000000 0.520000 0.302500
0.118750 0.520000 0.302500
0.237500 0.520000 0.302500
0.356250 0.520000 0.302500
0.475000 0.520000 0.302500
0.593750 0.520000 0.302500
0.712500 0.520000 0.302500
0.831250 0.520000 0.302500
0.950000 0.520000 0.302500
0.000000 0.647500 0.302500
0.118750 0.647500 0.302500
0.237500 0.647500 0.302500
0.356250 0.647500 0.302500
0.475000 0.647500 0.302500
0.593750 0.647500 0.302500
0.712500 0.647500 0.302500
0.831250 0.647500 0.302500
0.950000 0.647500 0.302500
0.000000 0.775000 0.302500
0.118750 0.775000 0.302500
0.237500 0.775000 0.302500
0.356250 0.775000 0.302500
0.475000 0.775000 0.302500
0.593750 0.775000 0.302500
0.712500 0.775000 0.302500
0.831250 0.775000 0.302500
0.950000 0.775000 0.302500
0.000000 0.902500 0.302500
0.118750 0.902500 0.302500
0.237500 0.902500 0.302500
0.356250 0.902500 0.302500
0.475000 0.902500 0.302500
0.593750 0.902500 0.302500
0.712500 0.902500 0.302500
0.831250 0.902500 0.302500
0.950000 0.902500 0.302500
0.000000 1.000000 0.302500
0.118750 1.000000 0.302500
0.237500 1.000000 0.302500
0.356250 1.000000 0.302500
0.475000 1.000000 0.302500
0.593750 1.000000 0.302500
0.712500 1.000000 0.302500
0.831250 1.000000 0.302500
0.950000 1.000000 0.302500
0.000000 0.010000 0.433750
0.118750 0.010000 0.433750
0.237500 0.010000 0.433750
0.356250 0.010000 0.433750
0.475000 0.010000 0.433750
0.593750 0.010000 0.433750
0.712500 0.010000 0.433750
0.831250 0.010000 0.433750
0.950000 0.010000 0.433750
0.000000 0.137500 0.433750
0.118750 0.137500 0.433750
0.237500 0.137500 0.433750
0.356250 0.137500 0.433750
0.475000 0.137500 0.433750
0.593750 0.137500 0.433750
0.712500 0.137500 0.433750
0.831250 0.137500 0.433750
0.950000 0.137500 0.433750
0.000000 0.265000 0.433750
0.118750 0.265000 0.433750
0.237500 0.265000 0.433750
0.356250 0.265000 0.433750
0.475000 0.265000 0.433750
0.593750 0.265000 0.433750
0.712500 0.265000 0.433750
0.831250 0.265000 0.433750
0.950000 0.265000 0.433750
0.000000 0.392500 0.433750
0.118750 0.392500 0.433750
0.237500 0.392500 0.433750
0.356250 0.392500 0.433750
0.475000 0.392500 0.433750
0.593750 0.392500 0.433750
0.712500 0.392500 0.433750
0.831250 0.392500 0.433750
0.950000 0.392500 0.433750
0.000000 0.520000 0.433750
0.118750 0.520000 0.433750
0.237500 0.520000 0.433750
0.356250 0.520000 0.433750
0.475000 0.520000 0.433750
0.593750 0.520000 0.433750
0.712500 0.520000 0.433750
0.831250 0.520000 0.433750
0.950000 0.520000 0.433750
0.000000 0.647500 0.433750
0.118750 0.647500 0.433750
0.237500 0.647500 0.433750
0.356250 0.647500 0.433750
0.475000 0.647500 0.433750
0.593750 0.647500 0.433750
0.712500 0.647500 0.433750
0.831250 0.647500 0.433750
0.950000 0.647500 0.433750
0.000000 0.775000 0.433750
0.118750 0.775000 0.433750
0.237500 0.775000 0.433750
0.356250 0.775000 0.433750
0.475000 0.775000 0.433750
0.593750 0.775000 0.433750
0.712500 0.775000 0.433750
0.831250 0.775000 0.433750
0.950000 0.775000 0.433750
0.000000 0.902500 0.433750
0.118750 0.902500 0.433750
0.237500 0.902500 0.433750
0.356250 0.902500 0.433750
0.475000 0.902500 0.433750
0.593750 0.902500 0.433750
0.712500 0.902500 0.433750
0.831250 0.902500 0.433750
0.950000 0.902500 0.433750
0.000000 1.000000 0.433750
0.118750 1.000000 0.433750
0.237500 1.000000 0.433750
0.356250 1.000000 0.433750
0.475000 1.000000 0.433750
0.593750 1.000000 0.433750
0.712500 1.000000 0.433750
0.831250 1.000000 0.433750
0.950000 1.000000 0.433750
0.000000 0.010000 0.565000
0.118750 0.010000 0.565000
0.237500 0.010000 0.565000
0.356250 0.010000 0.565000
0.475000 0.010000 0.565000
0.593750 0.010000 0.565000
0.712500 0.010000 0.565000
0.831250 0.010000 0.565000
0.950000 0.010000 0.565000
0.000000 0.137500 0.565000
0.118750 0.137500 0.565000
0.237500 0.137500 0.565000
0.356250 0.137500 0.565000
0.475000 0.137500 0.565000
0.593750 0.137500 0.565000
0.712500 0.137500 0.565000
0.831250 0.137500 0.565000
0.950000 0.137500 0.565000
0.000000 0.265000 0.565000
0.118750 0.265000 0.565000
0.237500 0.265000 0.565000
0.356250 0.265000 0.565000
0.475000 0.265000 0.565000
0.593750 0.265000 0.565000
0.712500 0.265000 0.565000
0.831250 0.265000 0.565000
0.950000 0.265000 0.565000
0.000000 0.392500 0.565000
0.118750 0.392500 0.565000
0.237500 0.392500 0.565000
0.356250 0.392500 0.565000
0.475000 0.392500 0.565000
0.593750 0.392500 0.565000
0.712500 0.392500 0.565000
0.831250 0.392500 0.565000
0.950000 0.392500 0.565000
0.000000 0.520000 0.565000
0.118750 0.520000 0.565000
0.237500 0.520000 0.565000
0.356250 0.520000 0.565000
0.475000 0.520000 0.565000
0.593750 0.520000 0.565000
0.712500 0.520000 0.565000
0.831250 0.520000 0.565000
0.950000 0.520000 0.565000
0.000000 0.647500 0.565000
0.118750 0.647500 0.565000
0.237500 0.647500 0.565000
0.356250 0.647500 0.565000
0.475000 0.647500 0.565000
0.593750 0.647500 0.565000
0.712500 0.647500 0.565000
0.831250 0.647500 0.565000
0.950000 0.647500 0.565000
0.000000 0.775000 0.565000
0.118750 0.775000 0.565000
0.237500 0.775000 0.565000
0.356250 0.775000 0.565000
0.475000 0.775000 0.565000
0.593750 0.775000 0.565000
0.712500 0.775000 0.565000
0.831250 0.775000 0.565000
0.950000 0.775000 0.565000
0.000000 0.902500 0.565000
0.118750 0.902500 0.565000
0.237500 0.902500 0.565000
0.356250 0.902500 0.565000
0.475000 0.902500 0.565000
0.593750 0.902500 0.565000
0.712500 0.902500 0.565000
0.831250 0.902500 0.565000
0.950000 0.902500 0.565000
0.000000 1.000000 0.565000
0.118750 1.000000 0.565000
0.237500 1.000000 0.565000
0.356250 1.000000 0.565000
0.475000 1.000000 0.565000
0.593750 1.000000 0.565000
0.712500 1.000000 0.565000
0.831250 1.000000 0.565000
0.950000 1.000000 0.565000
0.000000 0.010000 0.696250
0.118750 0.010000 0.696250
0.237500 0.010000 0.696250
0.356250 0.010000 0.696250
0.475000 0.010000 0.696250
0.593750 0.010000 0.696250
0.712500 0.010000 0.696250
0.831250 0.010000 0.696250
0.950000 0.010000 0.696250
0.000000 0.137500 0.696250
0.118750 0.137500 0.696250
0.237500 0.137500 0.696250
0.356250 0.137500 0.696250
0.475000 0.137500 0.696250
0.593750 0.137500 0.696250
0.712500 0.137500 0.696250
0.831250 0.137500 0.696250
0.950000 0.137500 0.696250
0.000000 0.265000 0.696250
0.118750 0.265000 0.696250
0.237500 0.265000 0.696250
0.356250 0.265000 0.696250
0.475000 0.265000 0.696250
0.593750 0.265000 0.696250
0.712500 0.265000 0.696250
0.831250 0.265000 0.696250
0.950000 0.265000 0.696250
0.000000 0.392500 0.696250
0.118750 0.392500 0.696250
0.237500 0.392500 0.696250
0.356250 0.392500 0.696250
0.475000 0.392500 0.696250
0.593750 0.392500 0.696250
0.712500 0.392500 0.696250
0.831250 0.392500 0.696250
0.950000 0.392500 0.696250
0.000000 0.520000 0.696250
0.118750 0.520000 0.696250
0.237500 0.520000 0.696250
0.356250 0.520000 0.696250
0.475000 0.520000 0.696250
0.593750 0.520000 0.696250
0.712500 0.520000 0.696250
0.831250 0.520000 0.696250
0.950000 0.520000 0.696250
0.000000 0.647500 0.696250
0.118750 0.647500 0.696250
0.237500 0.647500 0.696250
0.356250 0.647500 0.696250
0.475000 0.647500 0.696250
0.593750 0.647500 0.696250
0.712500 0.647500 0.696250
0.831250 0.647500 0.696250
0.950000 0.647500 0.696250
0.000000 0.775000 0.696250
0.118750 0.775000 0.696250
0.237500 0.775000 0.696250
0.356250 0.775000 0.696250
0.475000 0.775000 0.696250
0.593750 0.775000 0.696250
0.712500 0.775000 0.696250
0.831250 0.775000 0.696250
0.950000 0.775000 0.696250
0.000000 0.902500 0.696250
0.118750 0.902500 0.696250
0.237500 0.902500 0.696250
0.356250 0.902500 0.696250
0.475000 0.902500 0.696250
0.593750 0.902500 0.696250
0.712500 0.902500 0.696250
0.831250 0.902500 0.696250
0.950000 0.902500 0.696250
0.000000 1.000000 0.696250
0.118750 1.000000 0.696250
0.237500 1.000000 0.696250
0.356250 1.000000 0.696250
0.475000 1.000000 0.696250
0.593750 1.000000 0.696250
0.712500 1.000000 0.696250
0.831250 1.000000 0.696250
0.950000 1.000000 0.696250
0.000000 0.010000 0.827500
0.118750 0.010000 0.827500
0.237500 0.010000 0.827500
0.356250 0.010000 0.827500
0.475000 0.010000 0.827500
0.593750 0.010000 0.827500
0.712500 0.010000 0.827500
0.831250 0.010000 0.827500
0.950000 0.010000 0.827500
0.000000 0.137500 0.827500
0.118750 0.137500 0.827500
0.237500 0.137500 0.827500
0.356250 0.137500 0.827500
0.475000 0.137500 0.827500
0.593750 0.137500 0.827500
0.712500 0.137500 0.827500
0.831250 0.137500 0.827500
0.950000 0.137500 0.827500
0.000000 0.265000 0.827500
0.118750 0.265000 0.827500
0.237500 0.265000 0.827500
0.356250 0.265000 0.827500
0.475000 0.265000 0.827500
0.593750 0.265000 0.827500
0.712500 0.265000 0.827500
0.831250 0.265000 0.827500
0.950000 0.265000 0.827500
0.000000 0.392500 0.827500
0.118750 0.392500 0.827500
0.237500 0.392500 0.827500
0.356250 0.392500 0.827500
0.475000 0.392500 0.827500
0.593750 0.392500 0.827500
0.712500 0.392500 0.827500
0.831250 0.392500 0.827500
0.950000 0.392500 0.827500
0.000000 0.520000 0.827500
0.118750 0.520000 0.827500
0.237500 0.520000 0.827500
0.356250 0.520000 0.827500
0.475000 0.520000 0.827500
0.593750 0.520000 0.827500
0.712500 0.520000 0.827500
0.831250 0.520000 0.827500
0.950000 0.520000 0.827500
0.000000 0.647500 0.827500
0.118750 0.647500 0.827500
0.237500 0.647500 0.827500
0.356250 0.647500 0.827500
0.475000 0.647500 0.827500
0.593750 0.647500 0.827500
0.712500 0.647500 0.827500
0.831250 0.647500 0.827500
0.950000 0.647500 0.827500
0.000000 0.775000 0.827500
0.118750 0.775000 0.827500
0.237500 0.775000 0.827500
0.356250 0.775000 0.827500
0.475000 0.775000 0.827500
0.593750 0.775000 0.827500
0.712500 0.775000 0.827500
0.831250 0.775000 0.827500
0.950000 0.775000 0.827500
0.000000 0.902500 0.827500
0.118750 0.902500 0.827500
0.237500 0.902500 0.827500
0.356250 0.902500 0.827500
0.475000 0.902500 0.827500
0.593750 0.902500 0.827500
0.712500 0.902500 0.827500
0.831250 0.902500 0.827500
0.950000 0.902500 0.827500
0.000000 1.000000 0.827500
0.118750 1.000000 0.827500
0.237500 1.000000 0.827500
0.356250 1.000000 0.827500
0.475000 1.000000 0.827500
0.593750 1.000000 0.827500
0.712500 1.000000 0.827500
0.831250 1.000000 0.827500
0.950000 1.000000 0.827500
0.000000 0.010000 0.958750
0.118750 0.010000 0.958750
0.237500 0.010000 0.958750
0.356250 0.010000 0.958750
0.475000 0.010000 0.958750
0.593750 0.010000 0.958750
0.712500 0.010000 0.958750
0.831250 0.010000 0.958750
0.950000 0.010000 0.958750
0.000000 0.137500 0.958750
0.118750 0.137500 0.958750
0.237500 0.137500 0.958750
0.356250 0.137500 0.958750
0.475000 0.137500 0.958750
0.593750 0.137500 0.958750
0.712500 0.137500 0.958750
0.831250 0.137500 0.958750
0.950000 0.137500 0.958750
0.000000 0.265000 0.958750
0.118750 0.265000 0.958750
0.237500 0.265000 0.958750
0.356250 0.265000 0.958750
0.475000 0.265000 0.958750
0.593750 0.265000 0.958750
0.712500 0.265000 0.958750
0.831250 0.265000 0.958750
0.950000 0.265000 0.958750
0.000000 0.392500 0.958750
0.118750 0.392500 0.958750
0.237500 0.392500 0.958750
0.356250 0.392500 0.958750
0.475000 0.392500 0.958750
0.593750 0.392500 0.958750
0.712500 0.392500 0.958750
0.831250 0.392500 0.958750
0.950000 0.392500 0.958750
0.000000 0.520000 0.958750
0.118750 0.520000 0.958750
0.237500 0.520000 0.958750
0.356250 0.520000 0.958750
0.475000 0.520000 0.958750
0.593750 0.520000 0.958750
0.712500 0.520000 0.958750
0.831250 0.520000 0.958750
0.950000 0.520000 0.958750
0.000000 0.647500 0.958750
0.118750 0.647500 0.958750
0.237500 0.647500 0.958750
0.356250 0.647500 0.958750
0.475000 0.647500 0.958750
0.593750 0.647500 0.958750
0.712500 0.647500 0.958750
0.831250 0.647500 0.958750
0.950000 0.647500 0.958750
0.000000 0.775000 0.958750
0.118750 0.775000 0.958750
0.237500 0.775000 0.958750
0.356250 0.775000 0.958750
0.475000 0.775000 0.958750
0.593750 0.775000 0.958750
0.712500 0.775000 0.958750
0.831250 0.775000 0.958750
0.950000 0.775000 0.958750
0.000000 0.902500 0.958750
0.118750 0.902500 0.958750
0.237500 0.902500 0.958750
0.356250 0.902500 0.958750
0.475000 0.902500 0.958750
0.593750 0.902500 0.958750
0.712500 0.902500 0.958750
0.831250 0.902500 0.958750
0.950000 0.902500 0.958750
0.000000 1.000000 0.958750
0.118750 1.000000 0.958750
0.237500 1.000000 0.958750
0.356250 1.000000 0.958750
0.475000 1.000000 0.958750
0.593750 1.000000 0.958750
0.712500 1.000000 0.958750
0.831250 1.000000 0.958750
0.950000 1.000000 0.958750
0.000000 0.010000 1.000000
0.118750 0.010000 1.000000
0.237500 0.010000 1.000000
0.356250 0.010000 1.000000
0.475000 0.010000 1.000000
0.593750 0.010000 1.000000
0.712500 0.010000 1.000000
0.831250 0.010000 1.000000
0.950000 0.010000 1.000000
0.000000 0.137500 1.000000
0.118750 0.137500 1.000000
0.237500 0.137500 1.000000
0.356250 0.137500 1.000000
0.475000 0.137500 1.000000
0.593750 0.137500 1.000000
0.712500 0.137500 1.000000
0.831250 0.137500 1.000000
0.950000 0.137500 1.000000
0.000000 0.265000 1.000000
0.118750 0.265000 1.000000
0.237500 0.265000 1.000000
0.356250 0.265000 1.000000
0.475000 0.265000 1.000000
0.593750 0.265000 1.000000
0.712500 0.265000 1.000000
0.831250 0.265000 1.000000
0.950000 0.265000 1.000000
0.000000 0.392500 1.000000
0.118750 0.392500 1.000000
0.237500 0.392500 1.000000
0.356250 0.392500 1.000000
0.475000 0.392500 1.000000
0.593750 0.392500 1.000000
0.712500 0.392500 1.000000
0.831250 0.392500 1.000000
0.950000 0.392500 1.000000
0.000000 0.520000 1.000000
0.118750 0.520000 1.000000
0.237500 0.520000 1.000000
0.356250 0.520000 1.000000
0.475000 0.520000 1.000000
0.593750 0.520000 1.000000
0.712500 0.520000 1.000000
0.831250 0.520000 1.000000
0.950000 0.520000 1.000000
0.000000 0.647500 1.000000
0.118750 0.647500 1.000000
0.237500 0.647500 1.000000
0.356250 0.647500 1.000000
0.475000 0.647500 1.000000
0.593750 0.647500 1.000000
0.712500 0.647500 1.000000
0.831250 0.647500 1.000000
0.950000 0.647500 1.000000
0.000000 0.775000 1.000000
0.118750 0.775000 1.000000
0.237500 0.775000 1.000000
0.356250 0.775000 1.000000
0.475000 0.775000 1.000000
0.593750 0.775000 1.000000
0.712500 0.775000 1.000000
0.831250 0.775000 1.000000
0.950000 0.775000 1.000000
0.000000 0.902500 1.000000
0.118750 0.902500 1.000000
0.237500 0.902500 1.000000
0.356250 0.902500 1.000000
0.475000 0.902500 1.000000
0.593750 0.902500 1.000000
0.712500 0.902500 1.000000
0.831250 0.902500 1.000000
0.950000 0.902500 1.000000
0.000000 1.000000 1.000000
0.118750 1.000000 1.000000
0.237500 1.000000 1.000000
0.356250 1.000000 1.000000
0.475000 1.000000 1.000000
0.593750 1.000000 1.000000
0.712500 1.000000 1.000000
0.831250 1.000000 1.000000
0.950000 1.000000 1.000000
