ios/AIPhotoCoach/Resources/LUTs/golden_glow.cube
# Baseline LUT for FilterPreset 'golden_glow' (金光).
# Generated by scripts/luts/gen_baseline_luts.py — replace with a
# hand-graded / commercial LUT keeping the same filename to upgrade.
TITLE "golden_glow"
LUT_3D_SIZE 9
DOMAIN_MIN 0.0 0.0 0.0
DOMAIN_MAX 1.0 1.0 1.0
0.000000 0.000000 0.000000
0.125000 0.000000 0.000000
0.250000 0.000000 0.000000
0.375000 0.000000 0.000000
0.500000 0.000000 0.000000
0.625000 0.000000 0.000000
0.750000 0.000000 0.000000
0.875000 0.000000 0.000000
1.000000 0.000000 0.000000
0.000000 0.125000 0.000000
0.125000 0.125000 0.000000
0.250000 0.125000 0.000000
0.375000 0.125000 0.000000
0.500000 0.125000 0.000000
0.625000 0.125000 0.000000
0.750000 0.125000 0.000000
0.875000 0.125000 0.000000
1.000000 0.125001 0.000000
0.000000 0.250000 0.000000
0.125000 0.250000 0.000000
0.250000 0.250000 0.000000
0.375000 0.250000 0.000000
0.500000 0.250000 0.000000
0.625093 0.250025 0.000000
0.751079 0.250259 0.000000
0.878319 0.250724 0.000000
1.000000 0.251401 0.000000
0.000000 0.375000 0.000000
0.125000 0.375000 0.000000
0.250205 0.375096 0.000000
0.376174 0.375470 0.000000
0.503157 0.376105 0.000000
0.631359 0.376978 0.000000
0.760954 0.378067 0.000000
0.892082 0.379348 0.000000
1.000000 0.380799 0.000000
0.000960 0.500768 0.000000
0.127494 0.501596 0.000000
0.255038 0.502687 0.000000
0.383781 0.504014 0.000000
0.513880 0.505552 0.000000
0.645456 0.507273 0.000000
0.778601 0.509152 0.000000
0.913372 0.511163 0.000000
1.000000 0.513279 0.000000
0.005689 0.630120 0.000000
0.134623 0.631928 0.000000
0.264888 0.633933 0.000000
0.396592 0.636104 0.000000
0.529806 0.638413 0.000000
0.664571 0.640828 0.000000
0.800895 0.643322 0.000000
0.938752 0.645864 0.000000
1.000000 0.648425 0.000000
0.013256 0.763256 0.000000
0.144835 0.765868 0.000000
0.277881 0.768588 0.000000
0.412418 0.771382 0.000000
0.548436 0.774218 0.000000
0.685892 0.777063 0.000000
0.824711 0.779884 0.000000
0.964785 0.782649 0.000000
1.000000 0.785324 0.000000
0.022411 0.899652 0.000000
0.156568 0.902780 0.000000
0.292142 0.905904 0.000000
0.429074 0.908989 0.000000
0.567270 0.911999 0.000000
0.706607 0.914897 0.000000
0.846924 0.917647 0.000000
0.988033 0.920213 0.000000
1.000000 0.922560 0.000000
0.031905 1.000000 0.000000
0.168260 1.000000 0.000000
0.305796 1.000000 0.000000
0.444370 1.000000 0.000000
0.583809 1.000000 0.000000
0.723902 1.000000 0.000000
0.864411 1.000000 0.000000
1.000000 1.000000 0.000000
1.000000 1.000000 0.000000
0.000000 0.000000 0.125000
0.125000 0.000000 0.125000
0.250000 0.000000 0.125000
0.375000 0.000000 0.125000
0.500000 0.000000 0.125000
0.625000 0.000000 0.125000
0.750000 0.000000 0.125000
0.875000 0.000000 0.125000
1.000000 0.000000 0.125000
0.000000 0.125000 0.125000
0.125000 0.125000 0.125000
0.250000 0.125000 0.125000
0.375000 0.125000 0.125000
0.500000 0.125000 0.125000
0.625000 0.125000 0.125000
0.750000 0.125000 0.125000
0.875000 0.125000 0.125000
1.000000 0.125018 0.124991
0.000000 0.250000 0.125000
0.125000 0.250000 0.125000
0.250000 0.250000 0.125000
0.375000 0.250000 0.125000
0.500000 0.250000 0.125000
0.625289 0.250077 0.124968
0.751633 0.250392 0.124837
0.879268 0.250931 0.124612
1.000000 0.251675 0.124302
0.000000 0.375000 0.125000
0.125006 0.375003 0.124999
0.250411 0.375192 0.124931
0.376643 0.375657 0.124765
0.503932 0.376376 0.124509
0.632474 0.377325 0.124170
0.762435 0.378482 0.123756
0.893947 0.379823 0.123278
1.000000 0.381326 0.122741
0.001273 0.501018 0.124682
0.128029 0.501938 0.124394
0.255836 0.503113 0.124027
0.384875 0.504514 0.123589
0.515293 0.506117 0.123088
0.647205 0.507895 0.122533
0.780693 0.509822 0.121931
0.915806 0.511871 0.121290
1.000000 0.514016 0.120620
0.006345 0.630710 0.123414
0.135540 0.632589 0.122892
0.266089 0.634653 0.122319
0.398089 0.636874 0.121702
0.531605 0.639222 0.121049
0.666670 0.641668 0.120370
0.803282 0.644182 0.119672
0.941408 0.646734 0.118963
1.000000 0.649294 0.118252
0.014129 0.764129 0.121468
0.145977 0.766781 0.120805
0.279295 0.769530 0.120118
0.414098 0.772342 0.119415
0.550370 0.775185 0.118704
0.688057 0.778026 0.117994
0.827078 0.780831 0.117292
0.967315 0.783569 0.116608
1.000000 0.786207 0.115948
0.023375 0.900713 0.119156
0.157776 0.903843 0.118445
0.293579 0.906958 0.117737
0.430716 0.910021 0.117041
0.569086 0.912997 0.116364
0.708555 0.915849 0.115716
0.848956 0.918541 0.115104
0.990091 0.921037 0.114537
1.000000 0.923300 0.114023
0.032833 1.000000 0.116792
0.169377 1.000000 0.116125
0.307067 1.000000 0.115489
0.445754 1.000000 0.114892
0.585254 1.000000 0.114343
0.725349 1.000000 0.113850
0.865792 1.000000 0.113421
1.000000 1.000000 0.113064
1.000000 1.000000 0.112787
0.000000 0.000000 0.250000
0.125000 0.000000 0.250000
0.250000 0.000000 0.250000
0.375000 0.000000 0.250000
0.500000 0.000000 0.250000
0.625000 0.000000 0.250000
0.750000 0.000000 0.250000
0.875000 0.000000 0.250000
1.000000 0.000000 0.250000
0.000000 0.125000 0.250000
0.125000 0.125000 0.250000
0.250000 0.125000 0.250000
0.375000 0.125000 0.250000
0.500000 0.125000 0.250000
0.625000 0.125000 0.250000
0.750000 0.125000 0.250000
0.875000 0.125000 0.250000
1.000000 0.125060 0.249940
0.000000 0.250000 0.250000
0.125000 0.250000 0.250000
0.250000 0.250000 0.250000
0.375000 0.250000 0.250000
0.500006 0.250002 0.249998
0.625591 0.250158 0.249869
0.752296 0.250551 0.249541
0.880326 0.251162 0.249032
1.000000 0.251971 0.248358
0.000000 0.375000 0.250000
0.125062 0.375035 0.249975
0.250686 0.375320 0.249771
0.377185 0.375874 0.249376
0.504782 0.376674 0.248805
0.633665 0.377696 0.248074
0.763992 0.378918 0.247202
0.895885 0.380316 0.246203
1.000000 0.381868 0.245094
0.001626 0.501301 0.249187
0.128609 0.502310 0.248556
0.256683 0.503564 0.247772
0.386019 0.505037 0.246852
0.516757 0.506703 0.245811
0.649002 0.508534 0.244666
0.782829 0.510505 0.243434
0.918278 0.512590 0.242131
1.000000 0.514762 0.240774
0.007028 0.631326 0.246486
0.136487 0.633270 0.245405
0.267319 0.635391 0.244227
0.399615 0.637659 0.242967
0.533430 0.640044 0.241642
0.668789 0.642516 0.240269
0.805682 0.645045 0.238864
0.944067 0.647604 0.237442
1.000000 0.650161 0.236022
0.015017 0.765017 0.242492
0.147132 0.767705 0.241147
0.280719 0.770479 0.239760
0.415785 0.773306 0.238347
0.552303 0.776151 0.236924
0.690214 0.778984 0.235508
0.829426 0.781770 0.234115
0.969814 0.784478 0.232761
1.000000 0.787074 0.231463
0.024341 0.901775 0.237829
0.158982 0.904904 0.236407
0.295008 0.908006 0.234997
0.432342 0.911044 0.233617
0.570875 0.913981 0.232281
0.710465 0.916783 0.231008
0.850937 0.919412 0.229813
0.992083 0.921833 0.228712
1.000000 0.924010 0.227723
0.033751 1.000000 0.233124
0.170476 1.000000 0.231810
0.308312 1.000000 0.230563
0.447099 1.000000 0.229400
0.586647 1.000000 0.228338
0.726729 1.000000 0.227393
0.867089 1.000000 0.226582
1.000000 1.000000 0.225921
1.000000 1.000000 0.225426
0.000000 0.000000 0.375000
0.125000 0.000000 0.375000
0.250000 0.000000 0.375000
0.375000 0.000000 0.375000
0.500000 0.000000 0.375000
0.625000 0.000000 0.375000
0.750000 0.000000 0.375000
0.875000 0.000000 0.375000
1.000000 0.000000 0.375000
0.000000 0.125000 0.375000
0.125000 0.125000 0.375000
0.250000 0.125000 0.375000
0.375000 0.125000 0.375000
0.500000 0.125000 0.375000
0.625000 0.125000 0.375000
0.750000 0.125000 0.375000
0.875005 0.125001 0.374999
1.000000 0.125126 0.374811
0.000000 0.250000 0.375000
0.125000 0.250000 0.375000
0.250000 0.250000 0.375000
0.375000 0.250000 0.375000
0.500090 0.250027 0.374966
0.625996 0.250266 0.374668
0.753063 0.250735 0.374081
0.881488 0.251415 0.373231
1.000000 0.252287 0.372141
0.000000 0.375000 0.375000
0.125179 0.375100 0.374893
0.251027 0.375479 0.374486
0.377798 0.376119 0.373801
0.505706 0.376997 0.372860
0.634931 0.378090 0.371690
0.765622 0.379374 0.370314
0.897893 0.380827 0.368756
1.000000 0.382427 0.367043
0.002018 0.501614 0.373487
0.129234 0.502710 0.372460
0.257578 0.504041 0.371211
0.387212 0.505583 0.369766
0.518268 0.507307 0.368149
0.650844 0.509189 0.366385
0.785006 0.511202 0.364498
0.920785 0.513319 0.362513
1.000000 0.515515 0.360455
0.007738 0.631964 0.369196
0.137462 0.633972 0.367523
0.268578 0.636147 0.365711
0.401167 0.638457 0.363786
0.535277 0.640875 0.361771
0.670924 0.643370 0.359692
0.808090 0.645913 0.357573
0.946725 0.648474 0.355439
1.000000 0.651024 0.353314
0.015918 0.765918 0.363061
0.148300 0.768640 0.361020
0.282152 0.771435 0.358924
0.417475 0.774272 0.356796
0.554233 0.777116 0.354663
0.692358 0.779937 0.352547
0.831751 0.782700 0.350475
0.972277 0.785374 0.348470
1.000000 0.787924 0.346557
0.025308 0.902839 0.356019
0.160185 0.905963 0.353889
0.296427 0.909047 0.351786
0.433950 0.912054 0.349736
0.572636 0.914950 0.347762
0.712334 0.917697 0.345889
0.852862 0.920259 0.344141
0.994004 0.922602 0.342544
1.000000 0.924687 0.341123
0.034658 1.000000 0.349007
0.171556 1.000000 0.347067
0.309527 1.000000 0.345237
0.448404 1.000000 0.343541
0.587986 1.000000 0.342005
0.728040 1.000000 0.340653
0.868300 1.000000 0.339510
1.000000 1.000000 0.338600
1.000000 1.000000 0.337947
0.000000 0.000000 0.500000
0.125000 0.000000 0.500000
0.250000 0.000000 0.500000
0.375000 0.000000 0.500000
0.500000 0.000000 0.500000
0.625000 0.000000 0.500000
0.750000 0.000000 0.500000
0.875000 0.000000 0.500000
1.000000 0.000000 0.500000
0.000000 0.125000 0.500000
0.125000 0.125000 0.500000
0.250000 0.125000 0.500000
0.375000 0.125000 0.500000
0.500000 0.125000 0.500000
0.625000 0.125000 0.500000
0.750000 0.125000 0.500000
0.875111 0.125020 0.499960
1.000000 0.125214 0.499572
0.000000 0.250000 0.500000
0.125000 0.250000 0.500000
0.250000 0.250000 0.500000
0.375000 0.250000 0.500000
0.500270 0.250081 0.499865
0.626501 0.250400 0.499333
0.753931 0.250943 0.498428
0.882751 0.251691 0.497182
1.000000 0.252623 0.495628
0.000006 0.375004 0.499994
0.125354 0.375198 0.499717
0.251433 0.375669 0.499045
0.378480 0.376392 0.498012
0.506700 0.377345 0.496650
0.636267 0.378505 0.494992
0.767321 0.379850 0.493072
0.899967 0.381355 0.490921
1.000000 0.382999 0.488573
0.002448 0.501958 0.497552
0.129901 0.503137 0.496079
0.258517 0.504543 0.494322
0.388451 0.506149 0.492314
0.519825 0.507930 0.490087
0.652729 0.509859 0.487676
0.787220 0.511910 0.485112
0.923322 0.514057 0.482428
1.000000 0.516274 0.479658
0.008473 0.632626 0.491527
0.138463 0.634694 0.489229
0.269862 0.636917 0.486758
0.402743 0.639268 0.484147
0.537144 0.641715 0.481428
0.673073 0.644229 0.478634
0.810505 0.646782 0.475798
0.949379 0.649342 0.472953
1.000000 0.651882 0.470131
0.016832 0.766832 0.483168
0.149478 0.769582 0.480418
0.283593 0.772395 0.477605
0.419167 0.775238 0.474762
0.556157 0.778079 0.471921
0.694488 0.780884 0.469116
0.834050 0.783620 0.466380
0.974701 0.786255 0.463745
1.000000 0.788756 0.461244
0.026275 0.903902 0.473725
0.161382 0.907016 0.470894
0.297834 0.910078 0.468111
0.435537 0.913052 0.465407
0.574366 0.915901 0.462817
0.714161 0.918590 0.460373
0.854730 0.921081 0.458108
0.995851 0.923340 0.456054
1.000000 0.925330 0.454245
0.035551 1.000000 0.464449
0.172614 1.000000 0.461909
0.310711 1.000000 0.459526
0.449666 1.000000 0.457334
0.589269 1.000000 0.455366
0.729279 1.000000 0.453654
0.869422 1.000000 0.452231
1.000000 1.000000 0.451131
1.000000 1.000000 0.450385
0.000000 0.000000 0.625000
0.125000 0.000000 0.625000
0.250000 0.000000 0.625000
0.375000 0.000000 0.625000
0.500000 0.000000 0.625000
0.625000 0.000000 0.625000
0.750000 0.000000 0.625000
0.875000 0.000000 0.625000
1.000000 0.000000 0.625000
0.000000 0.125000 0.625000
0.125000 0.125000 0.625000
0.250000 0.125000 0.625000
0.375000 0.125000 0.625000
0.500000 0.125000 0.625000
0.625000 0.125000 0.625000
0.750000 0.125000 0.625000
0.875349 0.125063 0.624842
1.000000 0.125325 0.624188
0.000000 0.250000 0.625000
0.125000 0.250000 0.625000
0.250000 0.250000 0.625000
0.375007 0.250002 0.624995
0.500543 0.250163 0.624660
0.627102 0.250561 0.623832
0.754898 0.251175 0.622551
0.884111 0.251988 0.620859
1.000000 0.252978 0.618795
0.000054 0.375038 0.624933
0.125586 0.375328 0.624414
0.251901 0.375887 0.623416
0.379227 0.376691 0.621980
0.507763 0.377717 0.620148
0.637672 0.378942 0.617960
0.769086 0.380344 0.615457
0.902103 0.381899 0.612680
1.000000 0.383584 0.609671
0.002914 0.502331 0.621357
0.130610 0.503590 0.619390
0.259501 0.505067 0.617083
0.389734 0.506736 0.614476
0.521425 0.508570 0.611610
0.654654 0.510543 0.608526
0.789469 0.512630 0.605265
0.925887 0.514804 0.601869
1.000000 0.517038 0.598379
0.009232 0.633309 0.613460
0.139490 0.635433 0.610510
0.271171 0.637703 0.607357
0.404340 0.640089 0.604043
0.539028 0.642563 0.600607
0.675233 0.645093 0.597093
0.812922 0.647652 0.593539
0.952026 0.650209 0.589988
1.000000 0.652734 0.586480
0.017757 0.767757 0.602804
0.150665 0.770532 0.599335
0.285039 0.773359 0.595801
0.420859 0.776205 0.592244
0.558074 0.779037 0.588704
0.696600 0.781822 0.585222
0.836320 0.784528 0.581840
0.977083 0.787121 0.578599
1.000000 0.789569 0.575539
0.027239 0.904963 0.590951
0.162573 0.908064 0.587427
0.299227 0.911100 0.583977
0.437102 0.914035 0.580642
0.576062 0.916834 0.577461
0.715940 0.919460 0.574478
0.856537 0.921876 0.571731
0.997620 0.924048 0.569264
1.000000 0.925938 0.567115
0.036429 1.000000 0.579464
0.173650 1.000000 0.576350
0.311862 1.000000 0.573448
0.450882 1.000000 0.570798
0.590492 1.000000 0.568442
0.730443 1.000000 0.566421
0.870451 1.000000 0.564775
1.000000 1.000000 0.563545
1.000000 1.000000 0.562773
0.000000 0.000000 0.750000
0.125000 0.000000 0.750000
0.250000 0.000000 0.750000
0.375000 0.000000 0.750000
0.500000 0.000000 0.750000
0.625000 0.000000 0.750000
0.750000 0.000000 0.750000
0.875000 0.000000 0.750000
1.000000 0.000000 0.750000
0.000000 0.125000 0.750000
0.125000 0.125000 0.750000
0.250000 0.125000 0.750000
0.375000 0.125000 0.750000
0.500000 0.125000 0.750000
0.625000 0.125000 0.750000
0.750007 0.125001 0.749996
0.875716 0.125130 0.749610
1.000000 0.125457 0.748630
0.000000 0.250000 0.750000
0.125000 0.250000 0.750000
0.250000 0.250000 0.750000
0.375085 0.250029 0.749927
0.500908 0.250272 0.749319
0.627797 0.250746 0.748135
0.755959 0.251430 0.746425
0.885566 0.252305 0.744237
1.000000 0.253352 0.741621
0.000150 0.375105 0.749776
0.125873 0.375489 0.748952
0.252429 0.376134 0.747571
0.380039 0.377016 0.745681
0.508892 0.378112 0.743331
0.639142 0.379400 0.740572
0.770915 0.380856 0.737451
0.904299 0.382458 0.734019
1.000000 0.384182 0.730324
0.003416 0.502733 0.744876
0.131357 0.504069 0.742372
0.260525 0.505613 0.739475
0.391059 0.507341 0.736235
0.523065 0.509226 0.732702
0.656615 0.511241 0.728924
0.791749 0.513360 0.724950
0.928476 0.515557 0.720831
1.000000 0.517805 0.716615
0.010013 0.634012 0.734980
0.140540 0.636189 0.731352
0.272503 0.638502 0.727497
0.405958 0.640921 0.723465
0.540927 0.643417 0.719305
0.677402 0.645961 0.715066
0.815338 0.648522 0.710797
0.954662 0.651071 0.706548
1.000000 0.653579 0.702368
0.018692 0.768692 0.721963
0.151860 0.771488 0.717768
0.286488 0.774325 0.713512
0.422547 0.777170 0.709245
0.559979 0.779990 0.705016
0.698691 0.782752 0.700873
0.838557 0.785423 0.696866
0.979419 0.787970 0.693044
1.000000 0.790362 0.689458
0.028201 0.906021 0.707698
0.163754 0.909104 0.703495
0.300604 0.912110 0.699396
0.438641 0.915003 0.695451
0.577722 0.917747 0.691709
0.717671 0.920306 0.688220
0.858280 0.922643 0.685032
0.999309 0.924723 0.682195
1.000000 0.926510 0.679759
0.037292 1.000000 0.694062
0.174661 1.000000 0.690407
0.312978 1.000000 0.687022
0.452051 1.000000 0.683956
0.591654 1.000000 0.681259
0.731528 1.000000 0.678981
0.871383 1.000000 0.677170
1.000000 1.000000 0.675876
1.000000 1.000000 0.675147
0.000000 0.000000 0.875000
0.125000 0.000000 0.875000
0.250000 0.000000 0.875000
0.375000 0.000000 0.875000
0.500000 0.000000 0.875000
0.625000 0.000000 0.875000
0.750000 0.000000 0.875000
0.875000 0.000000 0.875000
1.000000 0.000000 0.875000
0.000000 0.125000 0.875000
0.125000 0.125000 0.875000
0.250000 0.125000 0.875000
0.375000 0.125000 0.875000
0.500000 0.125000 0.875000
0.625000 0.125000 0.875000
0.750109 0.125022 0.874923
0.876208 0.125220 0.874231
1.000000 0.125610 0.872866
0.000000 0.250000 0.875000
0.125000 0.250000 0.875000
0.250000 0.250000 0.875000
0.375247 0.250085 0.874753
0.501361 0.250408 0.873809
0.628584 0.250956 0.872213
0.757112 0.251707 0.870021
0.887111 0.252642 0.867293
1.000000 0.253743 0.864084
0.000292 0.375205 0.874488
0.126214 0.375680 0.873300
0.253017 0.376408 0.871481
0.380913 0.377365 0.869087
0.510083 0.378529 0.866177
0.640675 0.379877 0.862808
0.772803 0.381385 0.859038
0.906550 0.383031 0.854923
1.000000 0.384791 0.850522
0.003952 0.503161 0.868085
0.132142 0.504571 0.865001
0.261589 0.506181 0.861479
0.392424 0.507965 0.857576
0.524742 0.509897 0.853351
0.658610 0.511950 0.848859
0.794058 0.514099 0.844159
0.931086 0.516316 0.839309
1.000000 0.518576 0.834365
0.010816 0.634734 0.856072
0.141612 0.636961 0.851743
0.273855 0.639313 0.847169
0.407592 0.641762 0.842408
0.542838 0.644277 0.837517
0.679575 0.646830 0.832553
0.817751 0.649390 0.827574
0.957283 0.651929 0.822638
1.000000 0.654416 0.817801
0.019635 0.769635 0.840639
0.153061 0.772449 0.835715
0.287938 0.775292 0.830739
0.424231 0.778132 0.825769
0.561871 0.780936 0.820862
0.700759 0.783671 0.816077
0.840759 0.786303 0.811469
0.981705 0.788802 0.807097
1.000000 0.791132 0.803018
0.029159 0.907074 0.823972
0.164926 0.910135 0.819103
0.301964 0.913107 0.814375
0.440153 0.915953 0.809847
0.579343 0.918638 0.805575
0.719349 0.921126 0.801617
0.859955 0.923380 0.798031
1.000000 0.925365 0.794874
1.000000 0.927044 0.792203
0.038138 1.000000 0.808259
0.175646 1.000000 0.804095
0.314058 1.000000 0.800266
0.453171 1.000000 0.796829
0.592752 1.000000 0.793842
0.732533 1.000000 0.791363
0.872217 1.000000 0.789448
1.000000 1.000000 0.788156
1.000000 1.000000 0.787543
0.000000 0.000000 1.000000
0.125000 0.000000 1.000000
0.250000 0.000000 1.000000
0.375000 0.000000 1.000000
0.500000 0.000000 1.000000
0.625000 0.000000 1.000000
0.750000 0.000000 1.000000
0.875000 0.000000 1.000000
1.000000 0.000000 1.000000
0.000000 0.125000 1.000000
0.125000 0.125000 1.000000
0.250000 0.125000 1.000000
0.375000 0.125000 1.000000
0.500000 0.125000 1.000000
0.625000 0.125000 1.000000
0.750332 0.125066 0.999734
0.876823 0.125331 0.998674
1.000000 0.125783 0.996867
0.000000 0.250000 1.000000
0.125000 0.250000 1.000000
0.250008 0.250003 0.999989
0.375491 0.250168 0.999439
0.501900 0.250570 0.998100
0.629458 0.251189 0.996037
0.758354 0.252005 0.993317
0.888743 0.252999 0.990005
1.000000 0.254150 0.986166
0.000480 0.375336 0.999039
0.126607 0.375900 0.997429
0.253661 0.376708 0.995119
0.381846 0.377738 0.992176
0.511335 0.378967 0.988665
0.642267 0.380372 0.984651
0.774749 0.381930 0.980201
0.908852 0.383617 0.975380
1.000000 0.385411 0.970254
0.004520 0.503616 0.990960
0.132964 0.505097 0.987258
0.262691 0.506769 0.983078
0.393825 0.508606 0.978485
0.526454 0.510582 0.973546
0.660635 0.512670 0.968324
0.796391 0.514845 0.962887
0.933713 0.517080 0.957300
1.000000 0.519349 0.951628
0.011638 0.635474 0.976724
0.142704 0.637747 0.971674
0.275225 0.640135 0.966366
0.409241 0.642610 0.960867
0.544759 0.645141 0.955241
0.681750 0.647700 0.949555
0.820157 0.650257 0.943874
0.959887 0.652781 0.938264
1.000000 0.655244 0.932791
0.020585 0.770585 0.958830
0.154266 0.773413 0.953175
0.289388 0.776258 0.947483
0.425907 0.779090 0.941820
0.563748 0.781874 0.936252
0.702800 0.784578 0.930845
0.842921 0.787169 0.925663
0.983937 0.789614 0.920773
1.000000 0.791880 0.916240
0.030111 0.908122 0.939779
0.166087 0.911156 0.934261
0.303304 0.914089 0.928928
0.441635 0.916885 0.923845
0.580922 0.919507 0.919078
0.720972 0.921920 0.914691
0.861560 0.924086 0.910752
1.000000 0.925971 0.907325
1.000000 0.927538 0.904477
0.038965 1.000000 0.922070
0.176604 1.000000 0.917433
0.315098 1.000000 0.913202
0.454238 1.000000 0.909442
0.593782 1.000000 0.906218
0.733454 1.000000 0.903596
0.872948 1.000000 0.901642
1.000000 1.000000 0.900421
1.000000 1.000000 0.900000
