ios/AIPhotoCoach/Resources/LUTs/golden_glow.cube
# Baseline LUT for FilterPreset 'golden_glow' (金光).
# Generated by scripts/luts/gen_baseline_luts.py — replace with a
# hand-graded / commercial LUT keeping the same filename to upgrade.
TITLE "golden_glow"
LUT_3D_SIZE 5
DOMAIN_MIN 0.0 0.0 0.0
DOMAIN_MAX 1.0 1.0 1.0
0.000000 0.000000 0.000000
0.250000 0.000000 0.000000
0.500000 0.000000 0.000000
0.750000 0.000000 0.000000
1.000000 0.000000 0.000000
0.000000 0.250000 0.000000
0.250000 0.250000 0.000000
0.500000 0.250000 0.000000
0.751079 0.250259 0.000000
1.000000 0.251401 0.000000
0.000960 0.500768 0.000000
0.255038 0.502687 0.000000
0.513880 0.505552 0.000000
0.778601 0.509152 0.000000
1.000000 0.513279 0.000000
0.013256 0.763256 0.000000
0.277881 0.768588 0.000000
0.548436 0.774218 0.000000
0.824711 0.779884 0.000000
1.000000 0.785324 0.000000
0.031905 1.000000 0.000000
0.305796 1.000000 0.000000
0.583809 1.000000 0.000000
0.864411 1.000000 0.000000
1.000000 1.000000 0.000000
0.000000 0.000000 0.250000
0.250000 0.000000 0.250000
0.500000 0.000000 0.250000
0.750000 0.000000 0.250000
1.000000 0.000000 0.250000
0.000000 0.250000 0.250000
0.250000 0.250000 0.250000
0.500006 0.250002 0.249998
0.752296 0.250551 0.249541
1.000000 0.251971 0.248358
0.001626 0.501301 0.249187
0.256683 0.503564 0.247772
0.516757 0.506703 0.245811
0.782829 0.510505 0.243434
1.000000 0.514762 0.240774
0.015017 0.765017 0.242492
0.280719 0.770479 0.239760
0.552303 0.776151 0.236924
0.829426 0.781770 0.234115
1.000000 0.787074 0.231463
0.033751 1.000000 0.233124
0.308312 1.000000 0.230563
0.586647 1.000000 0.228338
0.867089 1.000000 0.226582
1.000000 1.000000 0.225426
0.000000 0.000000 0.500000
0.250000 0.000000 0.500000
0.500000 0.000000 0.500000
0.750000 0.000000 0.500000
1.000000 0.000000 0.500000
0.000000 0.250000 0.500000
0.250000 0.250000 0.500000
0.500270 0.250081 0.499865
0.753931 0.250943 0.498428
1.000000 0.252623 0.495628
0.002448 0.501958 0.497552
0.258517 0.504543 0.494322
0.519825 0.507930 0.490087
0.787220 0.511910 0.485112
1.000000 0.516274 0.479658
0.016832 0.766832 0.483168
0.283593 0.772395 0.477605
0.556157 0.778079 0.471921
0.834050 0.783620 0.466380
1.000000 0.788756 0.461244
0.035551 1.000000 0.464449
0.310711 1.000000 0.459526
0.589269 1.000000 0.455366
0.869422 1.000000 0.452231
1.000000 1.000000 0.450385
0.000000 0.000000 0.750000
0.250000 0.000000 0.750000
0.500000 0.000000 0.750000
0.750000 0.000000 0.750000
1.000000 0.000000 0.750000
0.000000 0.250000 0.750000
0.250000 0.250000 0.750000
0.500908 0.250272 0.749319
0.755959 0.251430 0.746425
1.000000 0.253352 0.741621
0.003416 0.502733 0.744876
0.260525 0.505613 0.739475
0.523065 0.509226 0.732702
0.791749 0.513360 0.724950
1.000000 0.517805 0.716615
0.018692 0.768692 0.721963
0.286488 0.774325 0.713512
0.559979 0.779990 0.705016
0.838557 0.785423 0.696866
1.000000 0.790362 0.689458
0.037292 1.000000 0.694062
0.312978 1.000000 0.687022
0.591654 1.000000 0.681259
0.871383 1.000000 0.677170
1.000000 1.000000 0.675147
0.000000 0.000000 1.000000
0.250000 0.000000 1.000000
0.500000 0.000000 1.000000
0.750000 0.000000 1.000000
1.000000 0.000000 1.000000
0.000000 0.250000 1.000000
0.250008 0.250003 0.999989
0.501900 0.250570 0.998100
0.758354 0.252005 0.993317
1.000000 0.254150 0.986166
0.004520 0.503616 0.990960
0.262691 0.506769 0.983078
0.526454 0.510582 0.973546
0.796391 0.514845 0.962887
1.000000 0.519349 0.951628
0.020585 0.770585 0.958830
0.289388 0.776258 0.947483
0.563748 0.781874 0.936252
0.842921 0.787169 0.925663
1.000000 0.791880 0.916240
0.038965 1.000000 0.922070
0.315098 1.000000 0.913202
0.593782 1.000000 0.906218
0.872948 1.000000 0.901642
1.000000 1.000000 0.900000
