ios/AIPhotoCoach/Resources/LUTs/golden_glow.cube
# Baseline LUT for FilterPreset 'golden_glow' (金光).
# Generated by scripts/luts/gen_baseline_luts.py — replace with a
# hand-graded / commercial LUT keeping the same filename to upgrade.
TITLE "golden_glow"
LUT_3D_SIZE 33
DOMAIN_MIN 0.0 0.0 0.0
DOMAIN_MAX 1.0 1.0 1.0
0.000000 0.000000 0.000000
0.031250 0.000000 0.000000
0.062500 0.000000 0.000000
0.093750 0.000000 0.000000
0.125000 0.000000 0.000000
0.156250 0.000000 0.000000
0.187500 0.000000 0.000000
0.218750 0.000000 0.000000
0.250000 0.000000 0.000000
0.281250 0.000000 0.000000
0.312500 0.000000 0.000000
0.343750 0.000000 0.000000
0.375000 0.000000 0.000000
0.406250 0.000000 0.000000
0.437500 0.000000 0.000000
0.468750 0.000000 0.000000
0.500000 0.000000 0.000000
0.531250 0.000000 0.000000
0.562500 0.000000 0.000000
0.593750 0.000000 0.000000
0.625000 0.000000 0.000000
0.656250 0.000000 0.000000
0.687500 0.000000 0.000000
0.718750 0.000000 0.000000
0.750000 0.000000 0.000000
0.781250 0.000000 0.000000
0.812500 0.000000 0.000000
0.843750 0.000000 0.000000
0.875000 0.000000 0.000000
0.906250 0.000000 0.000000
0.937500 0.000000 0.000000
0.968750 0.000000 0.000000
1.000000 0.000000 0.000000
0.000000 0.031250 0.000000
0.031250 0.031250 0.000000
0.062500 0.031250 0.000000
0.093750 0.031250 0.000000
0.125000 0.031250 0.000000
0.156250 0.031250 0.000000
0.187500 0.031250 0.000000
0.218750 0.031250 0.000000
0.250000 0.031250 0.000000
0.281250 0.031250 0.000000
0.312500 0.031250 0.000000
0.343750 0.031250 0.000000
0.375000 0.031250 0.000000
0.406250 0.031250 0.000000
0.437500 0.031250 0.000000
0.468750 0.031250 0.000000
0.500000 0.031250 0.000000
0.531250 0.031250 0.000000
0.562500 0.031250 0.000000
0.593750 0.031250 0.000000
0.625000 0.031250 0.000000
0.656250 0.031250 0.000000
0.687500 0.031250 0.000000
0.718750 0.031250 0.000000
0.750000 0.031250 0.000000
0.781250 0.031250 0.000000
0.812500 0.031250 0.000000
0.843750 0.031250 0.000000
0.875000 0.031250 0.000000
0.906250 0.031250 0.000000
0.937500 0.031250 0.000000
0.968750 0.031250 0.000000
1.000000 0.031250 0.000000
0.000000 0.062500 0.000000
0.031250 0.062500 0.000000
0.062500 0.062500 0.000000
0.093750 0.062500 0.000000
0.125000 0.062500 0.000000
0.156250 0.062500 0.000000
0.187500 0.062500 0.000000
0.218750 0.062500 0.000000
0.250000 0.062500 0.000000
0.281250 0.062500 0.000000
0.312500 0.062500 0.000000
0.343750 0.062500 0.000000
0.375000 0.062500 0.000000
0.406250 0.062500 0.000000
0.437500 0.062500 0.000000
0.468750 0.062500 0.000000
0.500000 0.062500 0.000000
0.531250 0.062500 0.000000
0.562500 0.062500 0.000000
0.593750 0.062500 0.000000
0.625000 0.062500 0.000000
0.656250 0.062500 0.000000
0.687500 0.062500 0.000000
0.718750 0.062500 0.000000
0.750000 0.062500 0.000000
0.781250 0.062500 0.000000
0.812500 0.062500 0.000000
0.843750 0.062500 0.000000
0.875000 0.062500 0.000000
0.906250 0.062500 0.000000
0.937500 0.062500 0.000000
0.968750 0.062500 0.000000
1.000000 0.062500 0.000000
0.000000 0.093750 0.000000
0.031250 0.093750 0.000000
0.062500 0.093750 0.000000
0.093750 0.093750 0.000000
0.125000 0.093750 0.000000
0.156250 0.093750 0.000000
0.187500 0.093750 0.000000
0.218750 0.093750 0.000000
0.250000 0.093750 0.000000
0.281250 0.093750 0.000000
0.312500 0.093750 0.000000
0.343750 0.093750 0.000000
0.375000 0.093750 0.000000
0.406250 0.093750 0.000000
0.437500 0.093750 0.000000
0.468750 0.093750 0.000000
0.500000 0.093750 0.000000
0.531250 0.093750 0.000000
0.562500 0.093750 0.000000
0.593750 0.093750 0.000000
0.625000 0.093750 0.000000
0.656250 0.093750 0.000000
0.687500 0.093750 0.000000
0.718750 0.093750 0.000000
0.750000 0.093750 0.000000
0.781250 0.093750 0.000000
0.812500 0.093750 0.000000
0.843750 0.093750 0.000000
0.875000 0.093750 0.000000
0.906250 0.093750 0.000000
0.937500 0.093750 0.000000
0.968750 0.093750 0.000000
1.000000 0.093750 0.000000
0.000000 0.125000 0.000000
0.031250 0.125000 0.000000
0.062500 0.125000 0.000000
0.093750 0.125000 0.000000
0.125000 0.125000 0.000000
0.156250 0.125000 0.000000
0.187500 0.125000 0.000000
0.218750 0.125000 0.000000
0.250000 0.125000 0.000000
0.281250 0.125000 0.000000
0.312500 0.125000 0.000000
0.343750 0.125000 0.000000
0.375000 0.125000 0.000000
0.406250 0.125000 0.000000
0.437500 0.125000 0.000000
0.468750 0.125000 0.000000
0.500000 0.125000 0.000000
0.531250 0.125000 0.000000
0.562500 0.125000 0.000000
0.593750 0.125000 0.000000
0.625000 0.125000 0.000000
0.656250 0.125000 0.000000
0.687500 0.125000 0.000000
0.718750 0.125000 0.000000
0.750000 0.125000 0.000000
0.781250 0.125000 0.000000
0.812500 0.125000 0.000000
0.843750 0.125000 0.000000
0.875000 0.125000 0.000000
0.906250 0.125000 0.000000
0.937500 0.125000 0.000000
0.968750 0.125000 0.000000
1.000000 0.125001 0.000000
0.000000 0.156250 0.000000
0.031250 0.156250 0.000000
0.062500 0.156250 0.000000
0.093750 0.156250 0.000000
0.125000 0.156250 0.000000
0.156250 0.156250 0.000000
0.187500 0.156250 0.000000
0.218750 0.156250 0.000000
0.250000 0.156250 0.000000
0.281250 0.156250 0.000000
0.312500 0.156250 0.000000
0.343750 0.156250 0.000000
0.375000 0.156250 0.000000
0.406250 0.156250 0.000000
0.437500 0.156250 0.000000
0.468750 0.156250 0.000000
0.500000 0.156250 0.000000
0.531250 0.156250 0.000000
0.562500 0.156250 0.000000
0.593750 0.156250 0.000000
0.625000 0.156250 0.000000
0.656250 0.156250 0.000000
0.687500 0.156250 0.000000
0.718750 0.156250 0.000000
0.750000 0.156250 0.000000
0.781250 0.156250 0.000000
0.812500 0.156250 0.000000
0.843750 0.156250 0.000000
0.875000 0.156250 0.000000
0.906267 0.156253 0.000000
0.937607 0.156269 0.000000
0.969027 0.156300 0.000000
1.000000 0.156343 0.000000
0.000000 0.187500 0.000000
0.031250 0.187500 0.000000
0.062500 0.187500 0.000000
0.093750 0.187500 0.000000
0.125000 0.187500 0.000000
0.156250 0.187500 0.000000
0.187500 0.187500 0.000000
0.218750 0.187500 0.000000
0.250000 0.187500 0.000000
0.281250 0.187500 0.000000
0.312500 0.187500 0.000000
0.343750 0.187500 0.000000
0.375000 0.187500 0.000000
0.406250 0.187500 0.000000
0.437500 0.187500 0.000000
0.468750 0.187500 0.000000
0.500000 0.187500 0.000000
0.531250 0.187500 0.000000
0.562500 0.187500 0.000000
0.593750 0.187500 0.000000
0.625000 0.187500 0.000000
0.656250 0.187500 0.000000
0.687500 0.187500 0.000000
0.718750 0.187500 0.000000
0.750000 0.187500 0.000000
0.781250 0.187500 0.000000
0.812537 0.187508 0.000000
0.843898 0.187530 0.000000
0.875334 0.187567 0.000000
0.906851 0.187618 0.000000
0.938451 0.187682 0.000000
0.970138 0.187760 0.000000
1.000000 0.187851 0.000000
0.000000 0.218750 0.000000
0.031250 0.218750 0.000000
0.062500 0.218750 0.000000
0.093750 0.218750 0.000000
0.125000 0.218750 0.000000
0.156250 0.218750 0.000000
0.187500 0.218750 0.000000
0.218750 0.218750 0.000000
0.250000 0.218750 0.000000
0.281250 0.218750 0.000000
0.312500 0.218750 0.000000
0.343750 0.218750 0.000000
0.375000 0.218750 0.000000
0.406250 0.218750 0.000000
0.437500 0.218750 0.000000
0.468750 0.218750 0.000000
0.500000 0.218750 0.000000
0.531250 0.218750 0.000000
0.562500 0.218750 0.000000
0.593750 0.218750 0.000000
0.625000 0.218750 0.000000
0.656250 0.218750 0.000000
0.687505 0.218751 0.000000
0.718813 0.218765 0.000000
0.750191 0.218794 0.000000
0.781640 0.218838 0.000000
0.813166 0.218896 0.000000
0.844770 0.218968 0.000000
0.876457 0.219055 0.000000
0.908230 0.219155 0.000000
0.940091 0.219268 0.000000
0.972044 0.219395 0.000000
1.000000 0.219534 0.000000
0.000000 0.250000 0.000000
0.031250 0.250000 0.000000
0.062500 0.250000 0.000000
0.093750 0.250000 0.000000
0.125000 0.250000 0.000000
0.156250 0.250000 0.000000
0.187500 0.250000 0.000000
0.218750 0.250000 0.000000
0.250000 0.250000 0.000000
0.281250 0.250000 0.000000
0.312500 0.250000 0.000000
0.343750 0.250000 0.000000
0.375000 0.250000 0.000000
0.406250 0.250000 0.000000
0.437500 0.250000 0.000000
0.468750 0.250000 0.000000
0.500000 0.250000 0.000000
0.531250 0.250000 0.000000
0.562500 0.250000 0.000000
0.593767 0.250005 0.000000
0.625093 0.250025 0.000000
0.656483 0.250061 0.000000
0.687942 0.250112 0.000000
0.719473 0.250178 0.000000
0.751079 0.250259 0.000000
0.782763 0.250354 0.000000
0.814530 0.250464 0.000000
0.846381 0.250587 0.000000
0.878319 0.250724 0.000000
0.910348 0.250874 0.000000
0.942471 0.251037 0.000000
0.974688 0.251213 0.000000
1.000000 0.251401 0.000000
0.000000 0.281250 0.000000
0.031250 0.281250 0.000000
0.062500 0.281250 0.000000
0.093750 0.281250 0.000000
0.125000 0.281250 0.000000
0.156250 0.281250 0.000000
0.187500 0.281250 0.000000
0.218750 0.281250 0.000000
0.250000 0.281250 0.000000
0.281250 0.281250 0.000000
0.312500 0.281250 0.000000
0.343750 0.281250 0.000000
0.375000 0.281250 0.000000
0.406250 0.281250 0.000000
0.437500 0.281250 0.000000
0.468750 0.281250 0.000000
0.500034 0.281261 0.000000
0.531374 0.281287 0.000000
0.562774 0.281331 0.000000
0.594239 0.281390 0.000000
0.625772 0.281464 0.000000
0.657375 0.281554 0.000000
0.689054 0.281659 0.000000
0.720811 0.281778 0.000000
0.752648 0.281912 0.000000
0.784570 0.282060 0.000000
0.816578 0.282221 0.000000
0.848676 0.282396 0.000000
0.880866 0.282583 0.000000
0.913151 0.282784 0.000000
0.945533 0.282996 0.000000
0.978014 0.283221 0.000000
1.000000 0.283457 0.000000
0.000000 0.312500 0.000000
0.031250 0.312500 0.000000
0.062500 0.312500 0.000000
0.093750 0.312500 0.000000
0.125000 0.312500 0.000000
0.156250 0.312500 0.000000
0.187500 0.312500 0.000000
0.218750 0.312500 0.000000
0.250000 0.312500 0.000000
0.281250 0.312500 0.000000
0.312500 0.312500 0.000000
0.343750 0.312500 0.000000
0.375006 0.312502 0.000000
0.406304 0.312519 0.000000
0.437654 0.312553 0.000000
0.469061 0.312604 0.000000
0.500528 0.312672 0.000000
0.532059 0.312755 0.000000
0.563658 0.312854 0.000000
0.595328 0.312969 0.000000
0.627071 0.313098 0.000000
0.658893 0.313243 0.000000
0.690794 0.313402 0.000000
0.722779 0.313574 0.000000
0.754850 0.313761 0.000000
0.787009 0.313961 0.000000
0.819260 0.314174 0.000000
0.851605 0.314400 0.000000
0.884045 0.314638 0.000000
0.916583 0.314888 0.000000
0.949222 0.315150 0.000000
0.981962 0.315424 0.000000
1.000000 0.315708 0.000000
0.000000 0.343750 0.000000
0.031250 0.343750 0.000000
0.062500 0.343750 0.000000
0.093750 0.343750 0.000000
0.125000 0.343750 0.000000
0.156250 0.343750 0.000000
0.187500 0.343750 0.000000
0.218750 0.343750 0.000000
0.250000 0.343750 0.000000
0.281265 0.343757 0.000000
0.312574 0.343781 0.000000
0.343932 0.343823 0.000000
0.375342 0.343882 0.000000
0.406808 0.343958 0.000000
0.438335 0.344051 0.000000
0.469925 0.344159 0.000000
0.501582 0.344284 0.000000
0.533310 0.344424 0.000000
0.565112 0.344580 0.000000
0.596990 0.344750 0.000000
0.628949 0.344935 0.000000
0.660990 0.345133 0.000000
0.693116 0.345346 0.000000
0.725330 0.345572 0.000000
0.757635 0.345811 0.000000
0.790032 0.346063 0.000000
0.822524 0.346328 0.000000
0.855114 0.346604 0.000000
0.887802 0.346892 0.000000
0.920590 0.347192 0.000000
0.953482 0.347502 0.000000
0.986477 0.347823 0.000000
1.000000 0.348155 0.000000
0.000000 0.375000 0.000000
0.031250 0.375000 0.000000
0.062500 0.375000 0.000000
0.093750 0.375000 0.000000
0.125000 0.375000 0.000000
0.156251 0.375000 0.000000
0.187527 0.375014 0.000000
0.218844 0.375046 0.000000
0.250205 0.375096 0.000000
0.281615 0.375163 0.000000
0.313077 0.375249 0.000000
0.344596 0.375351 0.000000
0.376174 0.375470 0.000000
0.407816 0.375605 0.000000
0.439525 0.375756 0.000000
0.471304 0.375923 0.000000
0.503157 0.376105 0.000000
0.535086 0.376302 0.000000
0.567094 0.376513 0.000000
0.599184 0.376739 0.000000
0.631359 0.376978 0.000000
0.663621 0.377231 0.000000
0.695973 0.377497 0.000000
0.728417 0.377776 0.000000
0.760954 0.378067 0.000000
0.793588 0.378370 0.000000
0.826319 0.378685 0.000000
0.859150 0.379011 0.000000
0.892082 0.379348 0.000000
0.925117 0.379696 0.000000
0.958256 0.380054 0.000000
0.991500 0.380421 0.000000
1.000000 0.380799 0.000000
0.000000 0.406250 0.000000
0.031250 0.406250 0.000000
0.062505 0.406253 0.000000
0.093790 0.406274 0.000000
0.125110 0.406314 0.000000
0.156472 0.406373 0.000000
0.187878 0.406449 0.000000
0.219333 0.406544 0.000000
0.250840 0.406656 0.000000
0.282404 0.406786 0.000000
0.314028 0.406932 0.000000
0.345715 0.407094 0.000000
0.377469 0.407273 0.000000
0.409292 0.407467 0.000000
0.441189 0.407676 0.000000
0.473162 0.407901 0.000000
0.505213 0.408140 0.000000
0.537346 0.408393 0.000000
0.569563 0.408660 0.000000
0.601867 0.408940 0.000000
0.634259 0.409234 0.000000
0.666743 0.409540 0.000000
0.699319 0.409858 0.000000
0.731991 0.410188 0.000000
0.764759 0.410530 0.000000
0.797626 0.410883 0.000000
0.830594 0.411247 0.000000
0.863662 0.411622 0.000000
0.896833 0.412006 0.000000
0.930109 0.412400 0.000000
0.963489 0.412804 0.000000
0.996975 0.413216 0.000000
1.000000 0.413637 0.000000
0.000050 0.437538 0.000000
0.031372 0.437586 0.000000
0.062730 0.437654 0.000000
0.094130 0.437740 0.000000
0.125574 0.437844 0.000000
0.157067 0.437967 0.000000
0.188613 0.438107 0.000000
0.220215 0.438264 0.000000
0.251877 0.438439 0.000000
0.283603 0.438629 0.000000
0.315395 0.438836 0.000000
0.347256 0.439058 0.000000
0.379191 0.439296 0.000000
0.411201 0.439549 0.000000
0.443289 0.439816 0.000000
0.475459 0.440097 0.000000
0.507712 0.440392 0.000000
0.540051 0.440700 0.000000
0.572478 0.441022 0.000000
0.604995 0.441355 0.000000
0.637605 0.441702 0.000000
0.670308 0.442060 0.000000
0.703108 0.442429 0.000000
0.736005 0.442809 0.000000
0.769002 0.443200 0.000000
0.802098 0.443602 0.000000
0.835296 0.444013 0.000000
0.868597 0.444434 0.000000
0.902001 0.444864 0.000000
0.935510 0.445303 0.000000
0.969124 0.445750 0.000000
1.000000 0.446205 0.000000
1.000000 0.446667 0.000000
0.000368 0.469035 0.000000
0.031798 0.469150 0.000000
0.063274 0.469283 0.000000
0.094799 0.469434 0.000000
0.126377 0.469603 0.000000
0.158011 0.469790 0.000000
0.189705 0.469993 0.000000
0.221462 0.470212 0.000000
0.253286 0.470448 0.000000
0.285180 0.470699 0.000000
0.317146 0.470966 0.000000
0.349187 0.471247 0.000000
0.381306 0.471543 0.000000
0.413506 0.471853 0.000000
0.445789 0.472176 0.000000
0.478158 0.472513 0.000000
0.510613 0.472863 0.000000
0.543159 0.473225 0.000000
0.575796 0.473599 0.000000
0.608526 0.473985 0.000000
0.641352 0.474382 0.000000
0.674273 0.474790 0.000000
0.707293 0.475209 0.000000
0.740412 0.475638 0.000000
0.773632 0.476076 0.000000
0.806953 0.476523 0.000000
0.840376 0.476980 0.000000
0.873902 0.477445 0.000000
0.907532 0.477918 0.000000
0.941267 0.478399 0.000000
0.975106 0.478887 0.000000
1.000000 0.479382 0.000000
1.000000 0.479884 0.000000
0.000960 0.500768 0.000000
0.032510 0.500949 0.000000
0.064114 0.501148 0.000000
0.095774 0.501363 0.000000
0.127494 0.501596 0.000000
0.159277 0.501845 0.000000
0.191127 0.502110 0.000000
0.223046 0.502391 0.000000
0.255038 0.502687 0.000000
0.287105 0.502998 0.000000
0.319249 0.503323 0.000000
0.351474 0.503662 0.000000
0.383781 0.504014 0.000000
0.416173 0.504380 0.000000
0.448653 0.504758 0.000000
0.481221 0.505149 0.000000
0.513880 0.505552 0.000000
0.546631 0.505966 0.000000
0.579477 0.506391 0.000000
0.612418 0.506827 0.000000
0.645456 0.507273 0.000000
0.678593 0.507729 0.000000
0.711828 0.508195 0.000000
0.745164 0.508669 0.000000
0.778601 0.509152 0.000000
0.812140 0.509644 0.000000
0.845781 0.510143 0.000000
0.879525 0.510649 0.000000
0.913372 0.511163 0.000000
0.947323 0.511683 0.000000
0.981377 0.512209 0.000000
1.000000 0.512741 0.000000
1.000000 0.513279 0.000000
0.001808 0.532741 0.000000
0.033488 0.532988 0.000000
0.065228 0.533251 0.000000
0.097032 0.533530 0.000000
0.128902 0.533825 0.000000
0.160841 0.534136 0.000000
0.192853 0.534462 0.000000
0.224939 0.534802 0.000000
0.257104 0.535157 0.000000
0.289348 0.535526 0.000000
0.321674 0.535907 0.000000
0.354084 0.536302 0.000000
0.386582 0.536710 0.000000
0.419167 0.537129 0.000000
0.451843 0.537561 0.000000
0.484610 0.538003 0.000000
0.517471 0.538457 0.000000
0.550427 0.538921 0.000000
0.583478 0.539394 0.000000
0.616627 0.539878 0.000000
0.649874 0.540371 0.000000
0.683220 0.540872 0.000000
0.716667 0.541382 0.000000
0.750213 0.541899 0.000000
0.783861 0.542424 0.000000
0.817610 0.542956 0.000000
0.851461 0.543495 0.000000
0.885414 0.544040 0.000000
0.919468 0.544590 0.000000
0.953624 0.545146 0.000000
0.987882 0.545707 0.000000
1.000000 0.546273 0.000000
1.000000 0.546842 0.000000
0.002892 0.564958 0.000000
0.034710 0.565268 0.000000
0.066595 0.565594 0.000000
0.098549 0.565935 0.000000
0.130575 0.566291 0.000000
0.162677 0.566662 0.000000
0.194855 0.567047 0.000000
0.227113 0.567445 0.000000
0.259453 0.567857 0.000000
0.291877 0.568281 0.000000
0.324387 0.568718 0.000000
0.356985 0.569167 0.000000
0.389673 0.569627 0.000000
0.422451 0.570098 0.000000
0.455323 0.570580 0.000000
0.488288 0.571072 0.000000
0.521348 0.571573 0.000000
0.554505 0.572084 0.000000
0.587759 0.572604 0.000000
0.621111 0.573132 0.000000
0.654562 0.573668 0.000000
0.688112 0.574212 0.000000
0.721762 0.574762 0.000000
0.755512 0.575320 0.000000
0.789363 0.575883 0.000000
0.823313 0.576453 0.000000
0.857364 0.577027 0.000000
0.891515 0.577607 0.000000
0.925766 0.578191 0.000000
0.960116 0.578780 0.000000
0.994565 0.579371 0.000000
1.000000 0.579966 0.000000
1.000000 0.580564 0.000000
0.004192 0.597418 0.000000
0.036156 0.597790 0.000000
0.068192 0.598177 0.000000
0.100303 0.598578 0.000000
0.132491 0.598993 0.000000
0.164758 0.599422 0.000000
0.197107 0.599864 0.000000
0.229540 0.600318 0.000000
0.262058 0.600784 0.000000
0.294664 0.601262 0.000000
0.327358 0.601751 0.000000
0.360144 0.602250 0.000000
0.393021 0.602760 0.000000
0.425991 0.603280 0.000000
0.459056 0.603810 0.000000
0.492217 0.604348 0.000000
0.525473 0.604894 0.000000
0.558827 0.605449 0.000000
0.592278 0.606012 0.000000
0.625828 0.606581 0.000000
0.659476 0.607157 0.000000
0.693223 0.607740 0.000000
0.727068 0.608328 0.000000
0.761013 0.608921 0.000000
0.795057 0.609520 0.000000
0.829199 0.610123 0.000000
0.863439 0.610730 0.000000
0.897777 0.611340 0.000000
0.932212 0.611954 0.000000
0.966743 0.612570 0.000000
1.000000 0.613188 0.000000
1.000000 0.613809 0.000000
1.000000 0.614430 0.000000
0.005689 0.630120 0.000000
0.037805 0.630552 0.000000
0.069997 0.630998 0.000000
0.102269 0.631457 0.000000
0.134623 0.631928 0.000000
0.167060 0.632412 0.000000
0.199582 0.632908 0.000000
0.232191 0.633415 0.000000
0.264888 0.633933 0.000000
0.297676 0.634461 0.000000
0.330555 0.635000 0.000000
0.363527 0.635548 0.000000
0.396592 0.636104 0.000000
0.429751 0.636670 0.000000
0.463007 0.637243 0.000000
0.496358 0.637824 0.000000
0.529806 0.638413 0.000000
0.563351 0.639008 0.000000
0.596993 0.639609 0.000000
0.630733 0.640216 0.000000
0.664571 0.640828 0.000000
0.698506 0.641446 0.000000
0.732539 0.642067 0.000000
0.766669 0.642693 0.000000
0.800895 0.643322 0.000000
0.835217 0.643954 0.000000
0.869635 0.644589 0.000000
0.904147 0.645226 0.000000
0.938752 0.645864 0.000000
0.973450 0.646504 0.000000
1.000000 0.647144 0.000000
1.000000 0.647785 0.000000
1.000000 0.648425 0.000000
0.007363 0.663061 0.000000
0.039636 0.663551 0.000000
0.071989 0.664052 0.000000
0.104426 0.664566 0.000000
0.136948 0.665091 0.000000
0.169556 0.665628 0.000000
0.202253 0.666175 0.000000
0.235039 0.666731 0.000000
0.267915 0.667298 0.000000
0.300884 0.667873 0.000000
0.333946 0.668458 0.000000
0.367101 0.669050 0.000000
0.400351 0.669650 0.000000
0.433696 0.670257 0.000000
0.467137 0.670871 0.000000
0.500674 0.671491 0.000000
0.534308 0.672117 0.000000
0.568037 0.672749 0.000000
0.601863 0.673385 0.000000
0.635786 0.674025 0.000000
0.669804 0.674670 0.000000
0.703918 0.675317 0.000000
0.738128 0.675968 0.000000
0.772431 0.676621 0.000000
0.806828 0.677276 0.000000
0.841318 0.677933 0.000000
0.875900 0.678591 0.000000
0.910572 0.679249 0.000000
0.945334 0.679908 0.000000
0.980183 0.680566 0.000000
1.000000 0.681223 0.000000
1.000000 0.681879 0.000000
1.000000 0.682533 0.000000
0.009196 0.696236 0.000000
0.041629 0.696780 0.000000
0.074146 0.697334 0.000000
0.106750 0.697900 0.000000
0.139441 0.698475 0.000000
0.172222 0.699061 0.000000
0.205093 0.699655 0.000000
0.238055 0.700258 0.000000
0.271109 0.700869 0.000000
0.304257 0.701488 0.000000
0.337498 0.702114 0.000000
0.370834 0.702747 0.000000
0.404265 0.703387 0.000000
0.437790 0.704032 0.000000
0.471411 0.704682 0.000000
0.505128 0.705337 0.000000
0.538939 0.705996 0.000000
0.572846 0.706659 0.000000
0.606847 0.707326 0.000000
0.640942 0.707995 0.000000
0.675132 0.708667 0.000000
0.709414 0.709340 0.000000
0.743788 0.710015 0.000000
0.778253 0.710691 0.000000
0.812808 0.711367 0.000000
0.847452 0.712043 0.000000
0.882183 0.712719 0.000000
0.917000 0.713393 0.000000
0.951902 0.714066 0.000000
0.986886 0.714737 0.000000
1.000000 0.715405 0.000000
1.000000 0.716071 0.000000
1.000000 0.716733 0.000000
0.011166 0.729637 0.000000
0.043762 0.730232 0.000000
0.076445 0.730836 0.000000
0.109217 0.731449 0.000000
0.142078 0.732071 0.000000
0.175031 0.732701 0.000000
0.208075 0.733339 0.000000
0.241211 0.733985 0.000000
0.274441 0.734637 0.000000
0.307764 0.735295 0.000000
0.341182 0.735959 0.000000
0.374693 0.736628 0.000000
0.408298 0.737302 0.000000
0.441998 0.737980 0.000000
0.475792 0.738662 0.000000
0.509680 0.739347 0.000000
0.543662 0.740035 0.000000
0.577736 0.740725 0.000000
0.611902 0.741417 0.000000
0.646160 0.742110 0.000000
0.680509 0.742804 0.000000
0.714947 0.743498 0.000000
0.749473 0.744192 0.000000
0.784086 0.744885 0.000000
0.818785 0.745576 0.000000
0.853568 0.746266 0.000000
0.888433 0.746954 0.000000
0.923379 0.747639 0.000000
0.958404 0.748320 0.000000
0.993504 0.748998 0.000000
1.000000 0.749672 0.000000
1.000000 0.750341 0.000000
1.000000 0.751004 0.000000
0.013256 0.763256 0.000000
0.046016 0.763897 0.000000
0.078865 0.764547 0.000000
0.111804 0.765204 0.000000
0.144835 0.765868 0.000000
0.177958 0.766539 0.000000
0.211173 0.767216 0.000000
0.244480 0.767899 0.000000
0.277881 0.768588 0.000000
0.311376 0.769280 0.000000
0.344963 0.769977 0.000000
0.378644 0.770678 0.000000
0.412418 0.771382 0.000000
0.446285 0.772088 0.000000
0.480244 0.772797 0.000000
0.514294 0.773507 0.000000
0.548436 0.774218 0.000000
0.582667 0.774930 0.000000
0.616988 0.775641 0.000000
0.651397 0.776353 0.000000
0.685892 0.777063 0.000000
0.720473 0.777772 0.000000
0.755137 0.778479 0.000000
0.789884 0.779183 0.000000
0.824711 0.779884 0.000000
0.859617 0.780582 0.000000
0.894599 0.781276 0.000000
0.929656 0.781965 0.000000
0.964785 0.782649 0.000000
0.999984 0.783328 0.000000
1.000000 0.784000 0.000000
1.000000 0.784666 0.000000
1.000000 0.785324 0.000000
0.015445 0.797081 0.000000
0.048369 0.797764 0.000000
0.081383 0.798455 0.000000
0.114489 0.799151 0.000000
0.147687 0.799853 0.000000
0.180977 0.800560 0.000000
0.214359 0.801272 0.000000
0.247834 0.801988 0.000000
0.281401 0.802707 0.000000
0.315061 0.803430 0.000000
0.348812 0.804155 0.000000
0.382655 0.804881 0.000000
0.416590 0.805610 0.000000
0.450615 0.806339 0.000000
0.484729 0.807069 0.000000
0.518932 0.807798 0.000000
0.553223 0.808527 0.000000
0.587600 0.809254 0.000000
0.622063 0.809980 0.000000
0.656609 0.810704 0.000000
0.691237 0.811425 0.000000
0.725946 0.812142 0.000000
0.760734 0.812856 0.000000
0.795598 0.813565 0.000000
0.830537 0.814270 0.000000
0.865548 0.814969 0.000000
0.900629 0.815662 0.000000
0.935778 0.816349 0.000000
0.970992 0.817029 0.000000
1.000000 0.817701 0.000000
1.000000 0.818365 0.000000
1.000000 0.819021 0.000000
1.000000 0.819668 0.000000
0.017713 0.831099 0.000000
0.050800 0.831820 0.000000
0.083978 0.832546 0.000000
0.117248 0.833277 0.000000
0.150609 0.834012 0.000000
0.184062 0.834750 0.000000
0.217607 0.835491 0.000000
0.251243 0.836234 0.000000
0.284970 0.836979 0.000000
0.318788 0.837726 0.000000
0.352696 0.838473 0.000000
0.386693 0.839220 0.000000
0.420779 0.839967 0.000000
0.454952 0.840714 0.000000
0.489211 0.841458 0.000000
0.523556 0.842201 0.000000
0.557984 0.842941 0.000000
0.592494 0.843679 0.000000
0.627085 0.844412 0.000000
0.661754 0.845142 0.000000
