ios/AIPhotoCoach/Resources/LUTs/hk_neon.cube
# Baseline LUT for FilterPreset 'hk_neon' (港风霓虹).
# Generated by scripts/luts/gen_baseline_luts.py — replace with a
# hand-graded / commercial LUT keeping the same filename to upgrade.
TITLE "hk_neon"
LUT_3D_SIZE 9
DOMAIN_MIN 0.0 0.0 0.0
DOMAIN_MAX 1.0 1.0 1.0
0.000000 0.000000 0.000000
0.050000 0.000000 0.000000
0.200000 0.000000 0.000000
0.350000 0.000000 0.000000
0.500000 0.000000 0.000000
0.650000 0.000000 0.000000
0.800000 0.000000 0.000000
0.950000 0.000000 0.000000
1.000000 0.000000 0.000000
0.000000 0.050000 0.000000
0.050000 0.050000 0.000000
0.200000 0.050000 0.000000
0.350000 0.050000 0.000000
0.500000 0.050000 0.000000
0.650000 0.050000 0.000000
0.800000 0.050000 0.000000
0.950000 0.050000 0.000000
1.000000 0.050000 0.000000
0.000000 0.200000 0.000000
0.050000 0.200000 0.000000
0.200000 0.200000 0.000000
0.350000 0.200000 0.000000
0.500000 0.200000 0.000000
0.650000 0.200000 0.000000
0.800000 0.200000 0.000000
0.950000 0.200000 0.000000
1.000000 0.200000 0.000000
0.000000 0.350000 0.000000
0.050000 0.350000 0.000000
0.200000 0.350000 0.000000
0.350000 0.350000 0.000000
0.500000 0.350000 0.000000
0.650000 0.350000 0.000000
0.800000 0.350000 0.000000
0.950000 0.350000 0.000000
1.000000 0.350000 0.000000
0.000000 0.500000 0.000000
0.050000 0.500000 0.000000
0.200000 0.500000 0.000000
0.350000 0.500000 0.000000
0.500000 0.500000 0.000000
0.650000 0.500000 0.000000
0.800000 0.500000 0.000000
0.950000 0.500000 0.000000
1.000000 0.500000 0.000000
0.000000 0.650000 0.000000
0.050000 0.650000 0.000000
0.200000 0.650000 0.000000
0.350000 0.650000 0.000000
0.500000 0.650000 0.000000
0.650000 0.650000 0.000000
0.800000 0.650000 0.000000
0.950000 0.650000 0.000000
1.000000 0.650000 0.000000
0.000000 0.800000 0.000000
0.050000 0.800000 0.000000
0.200000 0.800000 0.000000
0.350000 0.800000 0.000000
0.500000 0.800000 0.000000
0.650000 0.800000 0.000000
0.800000 0.800000 0.000000
0.950000 0.800000 0.000000
1.000000 0.800000 0.000000
0.000000 0.950000 0.000000
0.050000 0.950000 0.000000
0.200000 0.950000 0.000000
0.350000 0.950000 0.000000
0.500000 0.950000 0.000000
0.650000 0.950000 0.000000
0.800000 0.950000 0.000000
0.950000 0.950000 0.000000
1.000000 0.950000 0.000000
0.000000 1.000000 0.000000
0.050000 1.000000 0.000000
0.200000 1.000000 0.000000
0.350000 1.000000 0.000000
0.500000 1.000000 0.000000
0.650000 1.000000 0.000000
0.800000 1.000000 0.000000
0.950000 1.000000 0.000000
1.000000 1.000000 0.000000
0.004167 0.000000 0.050000
0.045833 0.000000 0.050000
0.200000 0.000000 0.050000
0.350000 0.000000 0.050000
0.500000 0.000000 0.050000
0.650000 0.000000 0.050000
0.800000 0.000000 0.050000
0.950000 0.000000 0.050000
1.000000 0.000000 0.050000
0.000000 0.045833 0.050000
0.050000 0.050000 0.050000
0.200000 0.005000 0.005000
0.350000 0.000000 0.000000
0.500000 0.000000 0.000000
0.650000 0.000000 0.000000
0.800000 0.000000 0.000000
0.950000 0.000000 0.000000
1.000000 0.000000 0.000000
0.000000 0.200000 0.050000
0.005000 0.200000 0.005000
0.200000 0.200000 0.005000
0.350000 0.175000 0.000000
0.500000 0.166667 0.000000
0.650000 0.162500 0.000000
0.800000 0.160000 0.000000
0.950000 0.158333 0.000000
1.000000 0.157895 0.000000
0.000000 0.350000 0.050000
0.000000 0.350000 0.000000
0.175000 0.350000 0.000000
0.350000 0.350000 0.000000
0.500000 0.333333 0.000000
0.650000 0.325000 0.000000
0.800000 0.320000 0.000000
0.950000 0.316667 0.000000
1.000000 0.315789 0.000000
0.000000 0.500000 0.050000
0.000000 0.500000 0.000000
0.166667 0.500000 0.000000
0.333333 0.500000 0.000000
0.500000 0.500000 0.000000
0.650000 0.487500 0.000000
0.800000 0.480000 0.000000
0.950000 0.475000 0.000000
1.000000 0.473684 0.000000
0.000000 0.650000 0.050000
0.000000 0.650000 0.000000
0.162500 0.650000 0.000000
0.325000 0.650000 0.000000
0.487500 0.650000 0.000000
0.650000 0.650000 0.000000
0.800000 0.640000 0.000000
0.950000 0.633333 0.000000
1.000000 0.631579 0.000000
0.000000 0.800000 0.050000
0.000000 0.800000 0.000000
0.160000 0.800000 0.000000
0.320000 0.800000 0.000000
0.480000 0.800000 0.000000
0.640000 0.800000 0.000000
0.800000 0.800000 0.000000
0.950000 0.791667 0.000000
1.000000 0.789474 0.000000
0.000000 0.950000 0.050000
0.000000 0.950000 0.000000
0.158333 0.950000 0.000000
0.316667 0.950000 0.000000
0.475000 0.950000 0.000000
0.633333 0.950000 0.000000
0.791667 0.950000 0.000000
0.950000 0.950000 0.000000
1.000000 0.947368 0.000000
0.000000 1.000000 0.050000
0.000000 1.000000 0.000000
0.157895 1.000000 0.000000
0.315789 1.000000 0.000000
0.473684 1.000000 0.000000
0.631579 1.000000 0.000000
0.789474 1.000000 0.000000
0.947368 1.000000 0.000000
1.000000 1.000000 0.000000
0.016667 0.000000 0.200000
0.050000 0.000000 0.200000
0.183333 0.000000 0.200000
0.350000 0.000000 0.229167
0.500000 0.000000 0.241667
0.650000 0.000000 0.200000
0.800000 0.000000 0.200000
0.950000 0.000000 0.200000
1.000000 0.000000 0.200000
0.000000 0.033333 0.200000
0.021250 0.005000 0.200000
0.183750 0.005000 0.200000
0.350000 0.000000 0.204167
0.500000 0.000000 0.208333
0.650000 0.000000 0.162500
0.800000 0.000000 0.160000
0.950000 0.000000 0.158333
1.000000 0.000000 0.157895
0.000000 0.183333 0.200000
0.005000 0.183750 0.200000
0.200000 0.200000 0.200000
0.350000 0.155000 0.155000
0.500000 0.110000 0.110000
0.650000 0.065000 0.065000
0.800000 0.020000 0.020000
0.950000 0.000000 0.000000
1.000000 0.000000 0.000000
0.000000 0.350000 0.200000
0.000000 0.350000 0.175000
0.155000 0.350000 0.155000
0.350000 0.350000 0.155000
0.500000 0.305000 0.110000
0.650000 0.260000 0.065000
0.800000 0.215000 0.020000
0.950000 0.190000 0.000000
1.000000 0.187500 0.000000
0.000000 0.500000 0.200000
0.000000 0.500000 0.166667
0.110000 0.500000 0.110000
0.305000 0.500000 0.110000
0.500000 0.500000 0.110000
0.650000 0.455000 0.065000
0.800000 0.410000 0.020000
0.950000 0.380000 0.000000
1.000000 0.375000 0.000000
0.000000 0.650000 0.200000
0.000000 0.650000 0.162500
0.065000 0.650000 0.065000
0.260000 0.650000 0.065000
0.455000 0.650000 0.065000
0.650000 0.650000 0.065000
0.800000 0.605000 0.020000
0.950000 0.570000 0.000000
1.000000 0.562500 0.000000
0.000000 0.800000 0.200000
0.000000 0.800000 0.160000
0.020000 0.800000 0.020000
0.215000 0.800000 0.020000
0.410000 0.800000 0.020000
0.605000 0.800000 0.020000
0.800000 0.800000 0.020000
0.950000 0.760000 0.000000
1.000000 0.750000 0.000000
0.000000 0.950000 0.200000
0.000000 0.950000 0.158333
0.000000 0.950000 0.000000
0.190000 0.950000 0.000000
0.380000 0.950000 0.000000
0.570000 0.950000 0.000000
0.760000 0.950000 0.000000
0.950000 0.950000 0.000000
1.000000 0.937500 0.000000
0.000000 1.000000 0.200000
0.000000 1.000000 0.157895
0.000000 1.000000 0.000000
0.187500 1.000000 0.000000
0.375000 1.000000 0.000000
0.562500 1.000000 0.000000
0.750000 1.000000 0.000000
0.937500 1.000000 0.000000
1.000000 1.000000 0.000000
0.029167 0.000000 0.350000
0.050000 0.000000 0.350000
0.200000 0.000000 0.350000
0.320833 0.000000 0.350000
0.500000 0.000000 0.391667
0.650000 0.000000 0.404167
0.800000 0.000000 0.416667
0.950000 0.000000 0.429167
1.000000 0.000000 0.433333
0.000000 0.020833 0.350000
0.029167 0.000000 0.350000
0.175000 0.000000 0.350000
0.320833 0.000000 0.350000
0.500000 0.000000 0.375000
0.650000 0.000000 0.379167
0.800000 0.000000 0.386667
0.950000 0.000000 0.395833
1.000000 0.000000 0.315789
0.000000 0.170833 0.350000
0.000000 0.145833 0.350000
0.171250 0.155000 0.350000
0.333750 0.155000 0.350000
0.500000 0.110000 0.337500
0.650000 0.065000 0.308750
0.800000 0.020000 0.215000
0.950000 0.000000 0.190000
1.000000 0.000000 0.187500
0.000000 0.320833 0.350000
0.000000 0.320833 0.350000
0.155000 0.333750 0.350000
0.350000 0.350000 0.350000
0.500000 0.305000 0.305000
0.650000 0.260000 0.260000
0.800000 0.215000 0.215000
0.950000 0.170000 0.170000
1.000000 0.155000 0.155000
0.000000 0.500000 0.350000
0.000000 0.500000 0.333333
0.110000 0.500000 0.305000
0.305000 0.500000 0.305000
0.500000 0.500000 0.305000
0.650000 0.455000 0.260000
0.800000 0.410000 0.215000
0.950000 0.365000 0.170000
1.000000 0.350000 0.155000
0.000000 0.650000 0.350000
0.000000 0.650000 0.325000
0.065000 0.650000 0.260000
0.260000 0.650000 0.260000
0.455000 0.650000 0.260000
0.650000 0.650000 0.260000
0.800000 0.605000 0.215000
0.950000 0.560000 0.170000
1.000000 0.545000 0.155000
0.000000 0.800000 0.350000
0.000000 0.800000 0.320000
0.020000 0.800000 0.215000
0.215000 0.800000 0.215000
0.410000 0.800000 0.215000
0.605000 0.800000 0.215000
0.800000 0.800000 0.215000
0.950000 0.755000 0.170000
1.000000 0.740000 0.155000
0.000000 0.950000 0.350000
0.000000 0.950000 0.316667
0.000000 0.950000 0.190000
0.170000 0.950000 0.170000
0.365000 0.950000 0.170000
0.560000 0.950000 0.170000
0.755000 0.950000 0.170000
0.950000 0.950000 0.170000
1.000000 0.935000 0.155000
0.000000 1.000000 0.350000
0.000000 1.000000 0.315789
0.000000 1.000000 0.187500
0.155000 1.000000 0.155000
0.350000 1.000000 0.155000
0.545000 1.000000 0.155000
0.740000 1.000000 0.155000
0.935000 1.000000 0.155000
1.000000 1.000000 0.155000
0.041667 0.000000 0.500000
0.050000 0.000000 0.500000
0.200000 0.000000 0.500000
0.308333 0.000000 0.500000
0.458333 0.000000 0.500000
0.650000 0.000000 0.554167
0.800000 0.000000 0.566667
0.950000 0.000000 0.579167
1.000000 0.000000 0.583333
0.000000 0.008333 0.500000
0.041667 0.000000 0.500000
0.166667 0.000000 0.500000
0.291667 0.000000 0.500000
0.458333 0.000000 0.500000
0.650000 0.000000 0.541667
0.800000 0.000000 0.546667
0.950000 0.000000 0.554167
1.000000 0.000000 0.557018
0.000000 0.158333 0.500000
0.000000 0.125000 0.500000
0.142500 0.110000 0.500000
0.305000 0.110000 0.500000
0.467500 0.110000 0.500000
0.650000 0.065000 0.503750
0.800000 0.020000 0.475000
0.950000 0.000000 0.459167
1.000000 0.000000 0.458333
0.000000 0.308333 0.500000
0.000000 0.291667 0.500000
0.110000 0.272500 0.500000
0.321250 0.305000 0.500000
0.483750 0.305000 0.500000
0.650000 0.260000 0.487500
0.800000 0.215000 0.458750
0.950000 0.170000 0.365000
1.000000 0.155000 0.350000
0.000000 0.458333 0.500000
0.000000 0.458333 0.500000
0.110000 0.467500 0.500000
0.305000 0.483750 0.500000
0.500000 0.500000 0.500000
0.650000 0.455000 0.455000
0.800000 0.410000 0.410000
0.950000 0.365000 0.365000
1.000000 0.350000 0.350000
0.000000 0.650000 0.500000
0.000000 0.650000 0.487500
0.065000 0.650000 0.455000
0.260000 0.650000 0.455000
0.455000 0.650000 0.455000
0.650000 0.650000 0.455000
0.800000 0.605000 0.410000
0.950000 0.560000 0.365000
1.000000 0.545000 0.350000
0.000000 0.800000 0.500000
0.000000 0.800000 0.480000
0.020000 0.800000 0.410000
0.215000 0.800000 0.410000
0.410000 0.800000 0.410000
0.605000 0.800000 0.410000
0.800000 0.800000 0.410000
0.950000 0.755000 0.365000
1.000000 0.740000 0.350000
0.000000 0.950000 0.500000
0.000000 0.950000 0.475000
0.000000 0.950000 0.380000
0.170000 0.950000 0.365000
0.365000 0.950000 0.365000
0.560000 0.950000 0.365000
0.755000 0.950000 0.365000
0.950000 0.950000 0.365000
1.000000 0.935000 0.350000
0.000000 1.000000 0.500000
0.000000 1.000000 0.473684
0.000000 1.000000 0.375000
0.155000 1.000000 0.350000
0.350000 1.000000 0.350000
0.545000 1.000000 0.350000
0.740000 1.000000 0.350000
0.935000 1.000000 0.350000
1.000000 1.000000 0.350000
0.054167 0.000000 0.650000
0.050000 0.000000 0.650000
0.200000 0.000000 0.650000
0.350000 0.000000 0.650000
0.445833 0.000000 0.650000
0.595833 0.000000 0.650000
0.800000 0.000000 0.716667
0.950000 0.000000 0.729167
1.000000 0.000000 0.733333
0.004167 0.000000 0.650000
0.054167 0.000000 0.650000
0.162500 0.000000 0.650000
0.325000 0.000000 0.650000
0.433333 0.000000 0.650000
0.595833 0.000000 0.650000
0.800000 0.000000 0.706667
0.950000 0.000000 0.712500
1.000000 0.000000 0.714912
0.000000 0.145833 0.650000
0.000000 0.108333 0.650000
0.113750 0.065000 0.650000
0.260000 0.065000 0.650000
0.406250 0.065000 0.650000
0.601250 0.065000 0.650000
0.800000 0.020000 0.670000
0.950000 0.000000 0.649167
1.000000 0.000000 0.645833
0.000000 0.295833 0.650000
0.000000 0.270833 0.650000
0.065000 0.211250 0.650000
0.292500 0.260000 0.650000
0.455000 0.260000 0.650000
0.617500 0.260000 0.650000
0.800000 0.215000 0.653750
0.950000 0.170000 0.625000
1.000000 0.155000 0.615417
0.000000 0.445833 0.650000
0.000000 0.433333 0.650000
0.065000 0.406250 0.650000
0.260000 0.422500 0.650000
0.471250 0.455000 0.650000
0.633750 0.455000 0.650000
0.800000 0.410000 0.637500
0.950000 0.365000 0.608750
1.000000 0.350000 0.545000
0.000000 0.595833 0.650000
0.000000 0.595833 0.650000
0.065000 0.601250 0.650000
0.260000 0.617500 0.650000
0.455000 0.633750 0.650000
0.650000 0.650000 0.650000
0.800000 0.605000 0.605000
0.950000 0.560000 0.560000
1.000000 0.545000 0.545000
0.000000 0.800000 0.650000
0.000000 0.800000 0.640000
0.020000 0.800000 0.605000
0.215000 0.800000 0.605000
0.410000 0.800000 0.605000
0.605000 0.800000 0.605000
0.800000 0.800000 0.605000
0.950000 0.755000 0.560000
1.000000 0.740000 0.545000
0.000000 0.950000 0.650000
0.000000 0.950000 0.633333
0.000000 0.950000 0.570000
0.170000 0.950000 0.560000
0.365000 0.950000 0.560000
0.560000 0.950000 0.560000
0.755000 0.950000 0.560000
0.950000 0.950000 0.560000
1.000000 0.935000 0.545000
0.000000 1.000000 0.650000
0.000000 1.000000 0.631579
0.000000 1.000000 0.562500
0.155000 1.000000 0.545000
0.350000 1.000000 0.545000
0.545000 1.000000 0.545000
0.740000 1.000000 0.545000
0.935000 1.000000 0.545000
1.000000 1.000000 0.545000
0.066667 0.000000 0.800000
0.050000 0.000000 0.800000
0.200000 0.000000 0.800000
0.350000 0.000000 0.800000
0.500000 0.000000 0.800000
0.583333 0.000000 0.800000
0.733333 0.000000 0.800000
0.950000 0.000000 0.879167
1.000000 0.000000 0.883333
0.016667 0.000000 0.800000
0.066667 0.000000 0.800000
0.160000 0.000000 0.800000
0.320000 0.000000 0.800000
0.480000 0.000000 0.800000
0.573333 0.000000 0.800000
0.733333 0.000000 0.800000
0.950000 0.000000 0.870833
1.000000 0.000000 0.872807
0.000000 0.133333 0.800000
0.000000 0.093333 0.800000
0.085000 0.020000 0.800000
0.215000 0.020000 0.800000
0.410000 0.020000 0.800000
0.540000 0.020000 0.800000
0.735000 0.020000 0.800000
0.950000 0.000000 0.839167
1.000000 0.000000 0.833333
0.000000 0.283333 0.800000
0.000000 0.253333 0.800000
0.020000 0.150000 0.800000
0.263750 0.215000 0.800000
0.410000 0.215000 0.800000
0.556250 0.215000 0.800000
0.751250 0.215000 0.800000
0.950000 0.170000 0.820000
1.000000 0.155000 0.810417
0.000000 0.433333 0.800000
0.000000 0.413333 0.800000
0.020000 0.345000 0.800000
0.215000 0.361250 0.800000
0.442500 0.410000 0.800000
0.605000 0.410000 0.800000
0.767500 0.410000 0.800000
0.950000 0.365000 0.803750
1.000000 0.350000 0.794167
0.000000 0.583333 0.800000
0.000000 0.573333 0.800000
0.020000 0.540000 0.800000
0.215000 0.556250 0.800000
0.410000 0.572500 0.800000
0.621250 0.605000 0.800000
0.783750 0.605000 0.800000
0.950000 0.560000 0.787500
1.000000 0.545000 0.777917
0.000000 0.733333 0.800000
0.000000 0.733333 0.800000
0.020000 0.735000 0.800000
0.215000 0.751250 0.800000
0.410000 0.767500 0.800000
0.605000 0.783750 0.800000
0.800000 0.800000 0.800000
0.950000 0.755000 0.755000
1.000000 0.740000 0.740000
0.000000 0.950000 0.800000
0.000000 0.950000 0.791667
0.000000 0.950000 0.760000
0.170000 0.950000 0.755000
0.365000 0.950000 0.755000
0.560000 0.950000 0.755000
0.755000 0.950000 0.755000
0.950000 0.950000 0.755000
1.000000 0.935000 0.740000
0.000000 1.000000 0.800000
0.000000 1.000000 0.789474
0.000000 1.000000 0.750000
0.155000 1.000000 0.740000
0.350000 1.000000 0.740000
0.545000 1.000000 0.740000
0.740000 1.000000 0.740000
0.935000 1.000000 0.740000
1.000000 1.000000 0.740000
0.079167 0.000000 0.950000
0.050000 0.000000 0.950000
0.200000 0.000000 0.950000
0.350000 0.000000 0.950000
0.500000 0.000000 0.950000
0.570833 0.000000 0.950000
0.720833 0.000000 0.950000
0.870833 0.000000 0.950000
0.966667 0.000000 1.000000
0.029167 0.000000 0.950000
0.079167 0.000000 0.950000
0.158333 0.000000 0.950000
0.316667 0.000000 0.950000
0.475000 0.000000 0.950000
0.554167 0.000000 0.950000
0.712500 0.000000 0.950000
0.870833 0.000000 0.950000
0.969298 0.000000 1.000000
0.000000 0.120833 0.950000
0.000000 0.079167 0.950000
0.079167 0.000000 0.950000
0.190000 0.000000 0.950000
0.380000 0.000000 0.950000
0.570000 0.000000 0.950000
0.680833 0.000000 0.950000
0.870833 0.000000 0.950000
0.979167 0.000000 1.000000
0.000000 0.270833 0.950000
0.000000 0.237500 0.950000
0.000000 0.110833 0.950000
0.235000 0.170000 0.950000
0.365000 0.170000 0.950000
0.560000 0.170000 0.950000
0.690000 0.170000 0.950000
0.885000 0.170000 0.950000
0.994583 0.155000 1.000000
0.000000 0.420833 0.950000
0.000000 0.395833 0.950000
0.000000 0.300833 0.950000
0.170000 0.300000 0.950000
0.413750 0.365000 0.950000
0.560000 0.365000 0.950000
0.706250 0.365000 0.950000
0.901250 0.365000 0.950000
1.000000 0.350000 0.989167
0.000000 0.570833 0.950000
0.000000 0.554167 0.950000
0.000000 0.490833 0.950000
0.170000 0.495000 0.950000
0.365000 0.511250 0.950000
0.592500 0.560000 0.950000
0.755000 0.560000 0.950000
0.917500 0.560000 0.950000
1.000000 0.545000 0.972917
0.000000 0.720833 0.950000
0.000000 0.712500 0.950000
0.000000 0.680833 0.950000
0.170000 0.690000 0.950000
0.365000 0.706250 0.950000
0.560000 0.722500 0.950000
0.771250 0.755000 0.950000
0.933750 0.755000 0.950000
1.000000 0.740000 0.956667
0.000000 0.870833 0.950000
0.000000 0.870833 0.950000
0.000000 0.870833 0.950000
0.170000 0.885000 0.950000
0.365000 0.901250 0.950000
0.560000 0.917500 0.950000
0.755000 0.933750 0.950000
0.950000 0.950000 0.950000
1.000000 0.935000 0.935000
0.000000 1.000000 0.950000
0.000000 1.000000 0.947368
0.000000 1.000000 0.937500
0.155000 1.000000 0.935000
0.350000 1.000000 0.935000
0.545000 1.000000 0.935000
0.740000 1.000000 0.935000
0.935000 1.000000 0.935000
1.000000 1.000000 0.935000
0.083333 0.000000 1.000000
0.050000 0.000000 1.000000
0.200000 0.000000 1.000000
0.350000 0.000000 1.000000
0.500000 0.000000 1.000000
0.650000 0.000000 1.000000
0.716667 0.000000 1.000000
0.866667 0.000000 1.000000
0.916667 0.000000 1.000000
0.033333 0.000000 1.000000
0.083333 0.000000 1.000000
0.157895 0.000000 1.000000
0.315789 0.000000 1.000000
0.473684 0.000000 1.000000
0.631579 0.000000 1.000000
0.706140 0.000000 1.000000
0.864035 0.000000 1.000000
0.916667 0.000000 1.000000
0.000000 0.116667 1.000000
0.000000 0.074561 1.000000
0.083333 0.000000 1.000000
0.187500 0.000000 1.000000
0.375000 0.000000 1.000000
0.562500 0.000000 1.000000
0.666667 0.000000 1.000000
0.854167 0.000000 1.000000
0.916667 0.000000 1.000000
0.000000 0.266667 1.000000
0.000000 0.232456 1.000000
0.000000 0.104167 1.000000
0.225417 0.155000 1.000000
0.350000 0.155000 1.000000
0.545000 0.155000 1.000000
0.669583 0.155000 1.000000
0.864583 0.155000 1.000000
0.929583 0.155000 1.000000
0.000000 0.416667 1.000000
0.000000 0.390351 1.000000
0.000000 0.291667 1.000000
0.155000 0.279583 1.000000
0.404167 0.350000 1.000000
0.545000 0.350000 1.000000
0.740000 0.350000 1.000000
0.880833 0.350000 1.000000
0.945833 0.350000 1.000000
0.000000 0.566667 1.000000
0.000000 0.548246 1.000000
0.000000 0.479167 1.000000
0.155000 0.474583 1.000000
0.350000 0.490833 1.000000
0.582917 0.545000 1.000000
0.740000 0.545000 1.000000
0.897083 0.545000 1.000000
0.962083 0.545000 1.000000
0.000000 0.716667 1.000000
0.000000 0.706140 1.000000
0.000000 0.666667 1.000000
0.155000 0.669583 1.000000
0.350000 0.685833 1.000000
0.545000 0.702083 1.000000
0.761667 0.740000 1.000000
0.913333 0.740000 1.000000
0.978333 0.740000 1.000000
0.000000 0.866667 1.000000
0.000000 0.864035 1.000000
0.000000 0.854167 1.000000
0.155000 0.864583 1.000000
0.350000 0.880833 1.000000
0.545000 0.897083 1.000000
0.740000 0.913333 1.000000
0.940417 0.935000 1.000000
0.994583 0.935000 1.000000
0.000000 0.916667 1.000000
0.000000 0.916667 1.000000
0.000000 0.916667 1.000000
0.155000 0.929583 1.000000
0.350000 0.945833 1.000000
0.545000 0.962083 1.000000
0.740000 0.978333 1.000000
0.935000 0.994583 1.000000
1.000000 1.000000 1.000000
