ios/AIPhotoCoach/Resources/LUTs/hk_neon.cube
# Baseline LUT for FilterPreset 'hk_neon' (港风霓虹).
# Generated by scripts/luts/gen_baseline_luts.py — replace with a
# hand-graded / commercial LUT keeping the same filename to upgrade.
TITLE "hk_neon"
LUT_3D_SIZE 17
DOMAIN_MIN 0.0 0.0 0.0
DOMAIN_MAX 1.0 1.0 1.0
0.000000 0.000000 0.000000
0.000000 0.000000 0.000000
0.050000 0.000000 0.000000
0.125000 0.000000 0.000000
0.200000 0.000000 0.000000
0.275000 0.000000 0.000000
0.350000 0.000000 0.000000
0.425000 0.000000 0.000000
0.500000 0.000000 0.000000
0.575000 0.000000 0.000000
0.650000 0.000000 0.000000
0.725000 0.000000 0.000000
0.800000 0.000000 0.000000
0.875000 0.000000 0.000000
0.950000 0.000000 0.000000
1.000000 0.000000 0.000000
1.000000 0.000000 0.000000
0.000000 0.000000 0.000000
0.000000 0.000000 0.000000
0.050000 0.000000 0.000000
0.125000 0.000000 0.000000
0.200000 0.000000 0.000000
0.275000 0.000000 0.000000
0.350000 0.000000 0.000000
0.425000 0.000000 0.000000
0.500000 0.000000 0.000000
0.575000 0.000000 0.000000
0.650000 0.000000 0.000000
0.725000 0.000000 0.000000
0.800000 0.000000 0.000000
0.875000 0.000000 0.000000
0.950000 0.000000 0.000000
1.000000 0.000000 0.000000
1.000000 0.000000 0.000000
0.000000 0.050000 0.000000
0.000000 0.050000 0.000000
0.050000 0.050000 0.000000
0.125000 0.050000 0.000000
0.200000 0.050000 0.000000
0.275000 0.050000 0.000000
0.350000 0.050000 0.000000
0.425000 0.050000 0.000000
0.500000 0.050000 0.000000
0.575000 0.050000 0.000000
0.650000 0.050000 0.000000
0.725000 0.050000 0.000000
0.800000 0.050000 0.000000
0.875000 0.050000 0.000000
0.950000 0.050000 0.000000
1.000000 0.050000 0.000000
1.000000 0.050000 0.000000
0.000000 0.125000 0.000000
0.000000 0.125000 0.000000
0.050000 0.125000 0.000000
0.125000 0.125000 0.000000
0.200000 0.125000 0.000000
0.275000 0.125000 0.000000
0.350000 0.125000 0.000000
0.425000 0.125000 0.000000
0.500000 0.125000 0.000000
0.575000 0.125000 0.000000
0.650000 0.125000 0.000000
0.725000 0.125000 0.000000
0.800000 0.125000 0.000000
0.875000 0.125000 0.000000
0.950000 0.125000 0.000000
1.000000 0.125000 0.000000
1.000000 0.125000 0.000000
0.000000 0.200000 0.000000
0.000000 0.200000 0.000000
0.050000 0.200000 0.000000
0.125000 0.200000 0.000000
0.200000 0.200000 0.000000
0.275000 0.200000 0.000000
0.350000 0.200000 0.000000
0.425000 0.200000 0.000000
0.500000 0.200000 0.000000
0.575000 0.200000 0.000000
0.650000 0.200000 0.000000
0.725000 0.200000 0.000000
0.800000 0.200000 0.000000
0.875000 0.200000 0.000000
0.950000 0.200000 0.000000
1.000000 0.200000 0.000000
1.000000 0.200000 0.000000
0.000000 0.275000 0.000000
0.000000 0.275000 0.000000
0.050000 0.275000 0.000000
0.125000 0.275000 0.000000
0.200000 0.275000 0.000000
0.275000 0.275000 0.000000
0.350000 0.275000 0.000000
0.425000 0.275000 0.000000
0.500000 0.275000 0.000000
0.575000 0.275000 0.000000
0.650000 0.275000 0.000000
0.725000 0.275000 0.000000
0.800000 0.275000 0.000000
0.875000 0.275000 0.000000
0.950000 0.275000 0.000000
1.000000 0.275000 0.000000
1.000000 0.275000 0.000000
0.000000 0.350000 0.000000
0.000000 0.350000 0.000000
0.050000 0.350000 0.000000
0.125000 0.350000 0.000000
0.200000 0.350000 0.000000
0.275000 0.350000 0.000000
0.350000 0.350000 0.000000
0.425000 0.350000 0.000000
0.500000 0.350000 0.000000
0.575000 0.350000 0.000000
0.650000 0.350000 0.000000
0.725000 0.350000 0.000000
0.800000 0.350000 0.000000
0.875000 0.350000 0.000000
0.950000 0.350000 0.000000
1.000000 0.350000 0.000000
1.000000 0.350000 0.000000
0.000000 0.425000 0.000000
0.000000 0.425000 0.000000
0.050000 0.425000 0.000000
0.125000 0.425000 0.000000
0.200000 0.425000 0.000000
0.275000 0.425000 0.000000
0.350000 0.425000 0.000000
0.425000 0.425000 0.000000
0.500000 0.425000 0.000000
0.575000 0.425000 0.000000
0.650000 0.425000 0.000000
0.725000 0.425000 0.000000
0.800000 0.425000 0.000000
0.875000 0.425000 0.000000
0.950000 0.425000 0.000000
1.000000 0.425000 0.000000
1.000000 0.425000 0.000000
0.000000 0.500000 0.000000
0.000000 0.500000 0.000000
0.050000 0.500000 0.000000
0.125000 0.500000 0.000000
0.200000 0.500000 0.000000
0.275000 0.500000 0.000000
0.350000 0.500000 0.000000
0.425000 0.500000 0.000000
0.500000 0.500000 0.000000
0.575000 0.500000 0.000000
0.650000 0.500000 0.000000
0.725000 0.500000 0.000000
0.800000 0.500000 0.000000
0.875000 0.500000 0.000000
0.950000 0.500000 0.000000
1.000000 0.500000 0.000000
1.000000 0.500000 0.000000
0.000000 0.575000 0.000000
0.000000 0.575000 0.000000
0.050000 0.575000 0.000000
0.125000 0.575000 0.000000
0.200000 0.575000 0.000000
0.275000 0.575000 0.000000
0.350000 0.575000 0.000000
0.425000 0.575000 0.000000
0.500000 0.575000 0.000000
0.575000 0.575000 0.000000
0.650000 0.575000 0.000000
0.725000 0.575000 0.000000
0.800000 0.575000 0.000000
0.875000 0.575000 0.000000
0.950000 0.575000 0.000000
1.000000 0.575000 0.000000
1.000000 0.575000 0.000000
0.000000 0.650000 0.000000
0.000000 0.650000 0.000000
0.050000 0.650000 0.000000
0.125000 0.650000 0.000000
0.200000 0.650000 0.000000
0.275000 0.650000 0.000000
0.350000 0.650000 0.000000
0.425000 0.650000 0.000000
0.500000 0.650000 0.000000
0.575000 0.650000 0.000000
0.650000 0.650000 0.000000
0.725000 0.650000 0.000000
0.800000 0.650000 0.000000
0.875000 0.650000 0.000000
0.950000 0.650000 0.000000
1.000000 0.650000 0.000000
1.000000 0.650000 0.000000
0.000000 0.725000 0.000000
0.000000 0.725000 0.000000
0.050000 0.725000 0.000000
0.125000 0.725000 0.000000
0.200000 0.725000 0.000000
0.275000 0.725000 0.000000
0.350000 0.725000 0.000000
0.425000 0.725000 0.000000
0.500000 0.725000 0.000000
0.575000 0.725000 0.000000
0.650000 0.725000 0.000000
0.725000 0.725000 0.000000
0.800000 0.725000 0.000000
0.875000 0.725000 0.000000
0.950000 0.725000 0.000000
1.000000 0.725000 0.000000
1.000000 0.725000 0.000000
0.000000 0.800000 0.000000
0.000000 0.800000 0.000000
0.050000 0.800000 0.000000
0.125000 0.800000 0.000000
0.200000 0.800000 0.000000
0.275000 0.800000 0.000000
0.350000 0.800000 0.000000
0.425000 0.800000 0.000000
0.500000 0.800000 0.000000
0.575000 0.800000 0.000000
0.650000 0.800000 0.000000
0.725000 0.800000 0.000000
0.800000 0.800000 0.000000
0.875000 0.800000 0.000000
0.950000 0.800000 0.000000
1.000000 0.800000 0.000000
1.000000 0.800000 0.000000
0.000000 0.875000 0.000000
0.000000 0.875000 0.000000
0.050000 0.875000 0.000000
0.125000 0.875000 0.000000
0.200000 0.875000 0.000000
0.275000 0.875000 0.000000
0.350000 0.875000 0.000000
0.425000 0.875000 0.000000
0.500000 0.875000 0.000000
0.575000 0.875000 0.000000
0.650000 0.875000 0.000000
0.725000 0.875000 0.000000
0.800000 0.875000 0.000000
0.875000 0.875000 0.000000
0.950000 0.875000 0.000000
1.000000 0.875000 0.000000
1.000000 0.875000 0.000000
0.000000 0.950000 0.000000
0.000000 0.950000 0.000000
0.050000 0.950000 0.000000
0.125000 0.950000 0.000000
0.200000 0.950000 0.000000
0.275000 0.950000 0.000000
0.350000 0.950000 0.000000
0.425000 0.950000 0.000000
0.500000 0.950000 0.000000
0.575000 0.950000 0.000000
0.650000 0.950000 0.000000
0.725000 0.950000 0.000000
0.800000 0.950000 0.000000
0.875000 0.950000 0.000000
0.950000 0.950000 0.000000
1.000000 0.950000 0.000000
1.000000 0.950000 0.000000
0.000000 1.000000 0.000000
0.000000 1.000000 0.000000
0.050000 1.000000 0.000000
0.125000 1.000000 0.000000
0.200000 1.000000 0.000000
0.275000 1.000000 0.000000
0.350000 1.000000 0.000000
0.425000 1.000000 0.000000
0.500000 1.000000 0.000000
0.575000 1.000000 0.000000
0.650000 1.000000 0.000000
0.725000 1.000000 0.000000
0.800000 1.000000 0.000000
0.875000 1.000000 0.000000
0.950000 1.000000 0.000000
1.000000 1.000000 0.000000
1.000000 1.000000 0.000000
0.000000 1.000000 0.000000
0.000000 1.000000 0.000000
0.050000 1.000000 0.000000
0.125000 1.000000 0.000000
0.200000 1.000000 0.000000
0.275000 1.000000 0.000000
0.350000 1.000000 0.000000
0.425000 1.000000 0.000000
0.500000 1.000000 0.000000
0.575000 1.000000 0.000000
0.650000 1.000000 0.000000
0.725000 1.000000 0.000000
0.800000 1.000000 0.000000
0.875000 1.000000 0.000000
0.950000 1.000000 0.000000
1.000000 1.000000 0.000000
1.000000 1.000000 0.000000
0.000000 0.000000 0.000000
0.000000 0.000000 0.000000
0.050000 0.000000 0.000000
0.125000 0.000000 0.000000
0.200000 0.000000 0.000000
0.275000 0.000000 0.000000
0.350000 0.000000 0.000000
0.425000 0.000000 0.000000
0.500000 0.000000 0.000000
0.575000 0.000000 0.000000
0.650000 0.000000 0.000000
0.725000 0.000000 0.000000
0.800000 0.000000 0.000000
0.875000 0.000000 0.000000
0.950000 0.000000 0.000000
1.000000 0.000000 0.000000
1.000000 0.000000 0.000000
0.000000 0.000000 0.000000
0.000000 0.000000 0.000000
0.050000 0.000000 0.000000
0.125000 0.000000 0.000000
0.200000 0.000000 0.000000
0.275000 0.000000 0.000000
0.350000 0.000000 0.000000
0.425000 0.000000 0.000000
0.500000 0.000000 0.000000
0.575000 0.000000 0.000000
0.650000 0.000000 0.000000
0.725000 0.000000 0.000000
0.800000 0.000000 0.000000
0.875000 0.000000 0.000000
0.950000 0.000000 0.000000
1.000000 0.000000 0.000000
1.000000 0.000000 0.000000
0.000000 0.050000 0.000000
0.000000 0.050000 0.000000
0.050000 0.050000 0.000000
0.125000 0.050000 0.000000
0.200000 0.050000 0.000000
0.275000 0.050000 0.000000
0.350000 0.050000 0.000000
0.425000 0.050000 0.000000
0.500000 0.050000 0.000000
0.575000 0.050000 0.000000
0.650000 0.050000 0.000000
0.725000 0.050000 0.000000
0.800000 0.050000 0.000000
0.875000 0.050000 0.000000
0.950000 0.050000 0.000000
1.000000 0.050000 0.000000
1.000000 0.050000 0.000000
0.000000 0.125000 0.000000
0.000000 0.125000 0.000000
0.050000 0.125000 0.000000
0.125000 0.125000 0.000000
0.200000 0.125000 0.000000
0.275000 0.125000 0.000000
0.350000 0.125000 0.000000
0.425000 0.125000 0.000000
0.500000 0.125000 0.000000
0.575000 0.125000 0.000000
0.650000 0.125000 0.000000
0.725000 0.125000 0.000000
0.800000 0.125000 0.000000
0.875000 0.125000 0.000000
0.950000 0.125000 0.000000
1.000000 0.125000 0.000000
1.000000 0.125000 0.000000
0.000000 0.200000 0.000000
0.000000 0.200000 0.000000
0.050000 0.200000 0.000000
0.125000 0.200000 0.000000
0.200000 0.200000 0.000000
0.275000 0.200000 0.000000
0.350000 0.200000 0.000000
0.425000 0.200000 0.000000
0.500000 0.200000 0.000000
0.575000 0.200000 0.000000
0.650000 0.200000 0.000000
0.725000 0.200000 0.000000
0.800000 0.200000 0.000000
0.875000 0.200000 0.000000
0.950000 0.200000 0.000000
1.000000 0.200000 0.000000
1.000000 0.200000 0.000000
0.000000 0.275000 0.000000
0.000000 0.275000 0.000000
0.050000 0.275000 0.000000
0.125000 0.275000 0.000000
0.200000 0.275000 0.000000
0.275000 0.275000 0.000000
0.350000 0.275000 0.000000
0.425000 0.275000 0.000000
0.500000 0.275000 0.000000
0.575000 0.275000 0.000000
0.650000 0.275000 0.000000
0.725000 0.275000 0.000000
0.800000 0.275000 0.000000
0.875000 0.275000 0.000000
0.950000 0.275000 0.000000
1.000000 0.275000 0.000000
1.000000 0.275000 0.000000
0.000000 0.350000 0.000000
0.000000 0.350000 0.000000
0.050000 0.350000 0.000000
0.125000 0.350000 0.000000
0.200000 0.350000 0.000000
0.275000 0.350000 0.000000
0.350000 0.350000 0.000000
0.425000 0.350000 0.000000
0.500000 0.350000 0.000000
0.575000 0.350000 0.000000
0.650000 0.350000 0.000000
0.725000 0.350000 0.000000
0.800000 0.350000 0.000000
0.875000 0.350000 0.000000
0.950000 0.350000 0.000000
1.000000 0.350000 0.000000
1.000000 0.350000 0.000000
0.000000 0.425000 0.000000
0.000000 0.425000 0.000000
0.050000 0.425000 0.000000
0.125000 0.425000 0.000000
0.200000 0.425000 0.000000
0.275000 0.425000 0.000000
0.350000 0.425000 0.000000
0.425000 0.425000 0.000000
0.500000 0.425000 0.000000
0.575000 0.425000 0.000000
0.650000 0.425000 0.000000
0.725000 0.425000 0.000000
0.800000 0.425000 0.000000
0.875000 0.425000 0.000000
0.950000 0.425000 0.000000
1.000000 0.425000 0.000000
1.000000 0.425000 0.000000
0.000000 0.500000 0.000000
0.000000 0.500000 0.000000
0.050000 0.500000 0.000000
0.125000 0.500000 0.000000
0.200000 0.500000 0.000000
0.275000 0.500000 0.000000
0.350000 0.500000 0.000000
0.425000 0.500000 0.000000
0.500000 0.500000 0.000000
0.575000 0.500000 0.000000
0.650000 0.500000 0.000000
0.725000 0.500000 0.000000
0.800000 0.500000 0.000000
0.875000 0.500000 0.000000
0.950000 0.500000 0.000000
1.000000 0.500000 0.000000
1.000000 0.500000 0.000000
0.000000 0.575000 0.000000
0.000000 0.575000 0.000000
0.050000 0.575000 0.000000
0.125000 0.575000 0.000000
0.200000 0.575000 0.000000
0.275000 0.575000 0.000000
0.350000 0.575000 0.000000
0.425000 0.575000 0.000000
0.500000 0.575000 0.000000
0.575000 0.575000 0.000000
0.650000 0.575000 0.000000
0.725000 0.575000 0.000000
0.800000 0.575000 0.000000
0.875000 0.575000 0.000000
0.950000 0.575000 0.000000
1.000000 0.575000 0.000000
1.000000 0.575000 0.000000
0.000000 0.650000 0.000000
0.000000 0.650000 0.000000
0.050000 0.650000 0.000000
0.125000 0.650000 0.000000
0.200000 0.650000 0.000000
0.275000 0.650000 0.000000
0.350000 0.650000 0.000000
0.425000 0.650000 0.000000
0.500000 0.650000 0.000000
0.575000 0.650000 0.000000
0.650000 0.650000 0.000000
0.725000 0.650000 0.000000
0.800000 0.650000 0.000000
0.875000 0.650000 0.000000
0.950000 0.650000 0.000000
1.000000 0.650000 0.000000
1.000000 0.650000 0.000000
0.000000 0.725000 0.000000
0.000000 0.725000 0.000000
0.050000 0.725000 0.000000
0.125000 0.725000 0.000000
0.200000 0.725000 0.000000
0.275000 0.725000 0.000000
0.350000 0.725000 0.000000
0.425000 0.725000 0.000000
0.500000 0.725000 0.000000
0.575000 0.725000 0.000000
0.650000 0.725000 0.000000
0.725000 0.725000 0.000000
0.800000 0.725000 0.000000
0.875000 0.725000 0.000000
0.950000 0.725000 0.000000
1.000000 0.725000 0.000000
1.000000 0.725000 0.000000
0.000000 0.800000 0.000000
0.000000 0.800000 0.000000
0.050000 0.800000 0.000000
0.125000 0.800000 0.000000
0.200000 0.800000 0.000000
0.275000 0.800000 0.000000
0.350000 0.800000 0.000000
0.425000 0.800000 0.000000
0.500000 0.800000 0.000000
0.575000 0.800000 0.000000
0.650000 0.800000 0.000000
0.725000 0.800000 0.000000
0.800000 0.800000 0.000000
0.875000 0.800000 0.000000
0.950000 0.800000 0.000000
1.000000 0.800000 0.000000
1.000000 0.800000 0.000000
0.000000 0.875000 0.000000
0.000000 0.875000 0.000000
0.050000 0.875000 0.000000
0.125000 0.875000 0.000000
0.200000 0.875000 0.000000
0.275000 0.875000 0.000000
0.350000 0.875000 0.000000
0.425000 0.875000 0.000000
0.500000 0.875000 0.000000
0.575000 0.875000 0.000000
0.650000 0.875000 0.000000
0.725000 0.875000 0.000000
0.800000 0.875000 0.000000
0.875000 0.875000 0.000000
0.950000 0.875000 0.000000
1.000000 0.875000 0.000000
1.000000 0.875000 0.000000
0.000000 0.950000 0.000000
0.000000 0.950000 0.000000
0.050000 0.950000 0.000000
0.125000 0.950000 0.000000
0.200000 0.950000 0.000000
0.275000 0.950000 0.000000
0.350000 0.950000 0.000000
0.425000 0.950000 0.000000
0.500000 0.950000 0.000000
0.575000 0.950000 0.000000
0.650000 0.950000 0.000000
0.725000 0.950000 0.000000
0.800000 0.950000 0.000000
0.875000 0.950000 0.000000
0.950000 0.950000 0.000000
1.000000 0.950000 0.000000
1.000000 0.950000 0.000000
0.000000 1.000000 0.000000
0.000000 1.000000 0.000000
0.050000 1.000000 0.000000
0.125000 1.000000 0.000000
0.200000 1.000000 0.000000
0.275000 1.000000 0.000000
0.350000 1.000000 0.000000
0.425000 1.000000 0.000000
0.500000 1.000000 0.000000
0.575000 1.000000 0.000000
0.650000 1.000000 0.000000
0.725000 1.000000 0.000000
0.800000 1.000000 0.000000
0.875000 1.000000 0.000000
0.950000 1.000000 0.000000
1.000000 1.000000 0.000000
1.000000 1.000000 0.000000
0.000000 1.000000 0.000000
0.000000 1.000000 0.000000
0.050000 1.000000 0.000000
0.125000 1.000000 0.000000
0.200000 1.000000 0.000000
0.275000 1.000000 0.000000
0.350000 1.000000 0.000000
0.425000 1.000000 0.000000
0.500000 1.000000 0.000000
0.575000 1.000000 0.000000
0.650000 1.000000 0.000000
0.725000 1.000000 0.000000
0.800000 1.000000 0.000000
0.875000 1.000000 0.000000
0.950000 1.000000 0.000000
1.000000 1.000000 0.000000
1.000000 1.000000 0.000000
0.004167 0.000000 0.050000
0.004167 0.000000 0.050000
0.045833 0.000000 0.050000
0.125000 0.000000 0.060417
0.200000 0.000000 0.050000
0.275000 0.000000 0.050000
0.350000 0.000000 0.050000
0.425000 0.000000 0.050000
0.500000 0.000000 0.050000
0.575000 0.000000 0.050000
0.650000 0.000000 0.050000
0.725000 0.000000 0.050000
0.800000 0.000000 0.050000
0.875000 0.000000 0.050000
0.950000 0.000000 0.050000
1.000000 0.000000 0.050000
1.000000 0.000000 0.050000
0.004167 0.000000 0.050000
0.004167 0.000000 0.050000
0.045833 0.000000 0.050000
0.125000 0.000000 0.060417
0.200000 0.000000 0.050000
0.275000 0.000000 0.050000
0.350000 0.000000 0.050000
0.425000 0.000000 0.050000
0.500000 0.000000 0.050000
0.575000 0.000000 0.050000
0.650000 0.000000 0.050000
0.725000 0.000000 0.050000
0.800000 0.000000 0.050000
0.875000 0.000000 0.050000
0.950000 0.000000 0.050000
1.000000 0.000000 0.050000
1.000000 0.000000 0.050000
0.000000 0.045833 0.050000
0.000000 0.045833 0.050000
0.050000 0.050000 0.050000
0.125000 0.027500 0.027500
0.200000 0.005000 0.005000
0.275000 0.000000 0.000000
0.350000 0.000000 0.000000
0.425000 0.000000 0.000000
0.500000 0.000000 0.000000
0.575000 0.000000 0.000000
0.650000 0.000000 0.000000
0.725000 0.000000 0.000000
0.800000 0.000000 0.000000
0.875000 0.000000 0.000000
0.950000 0.000000 0.000000
1.000000 0.000000 0.000000
1.000000 0.000000 0.000000
0.000000 0.125000 0.050000
0.000000 0.125000 0.050000
0.027500 0.125000 0.027500
0.125000 0.125000 0.027500
0.200000 0.102500 0.005000
0.275000 0.091667 0.000000
0.350000 0.087500 0.000000
0.425000 0.085000 0.000000
0.500000 0.083333 0.000000
0.575000 0.082143 0.000000
0.650000 0.081250 0.000000
0.725000 0.080556 0.000000
0.800000 0.080000 0.000000
0.875000 0.079545 0.000000
0.950000 0.079167 0.000000
1.000000 0.078947 0.000000
1.000000 0.078947 0.000000
0.000000 0.200000 0.050000
0.000000 0.200000 0.050000
0.005000 0.200000 0.005000
0.102500 0.200000 0.005000
0.200000 0.200000 0.005000
0.275000 0.183333 0.000000
0.350000 0.175000 0.000000
0.425000 0.170000 0.000000
0.500000 0.166667 0.000000
0.575000 0.164286 0.000000
0.650000 0.162500 0.000000
0.725000 0.161111 0.000000
0.800000 0.160000 0.000000
0.875000 0.159091 0.000000
0.950000 0.158333 0.000000
1.000000 0.157895 0.000000
1.000000 0.157895 0.000000
0.000000 0.275000 0.050000
0.000000 0.275000 0.050000
0.000000 0.275000 0.000000
0.091667 0.275000 0.000000
0.183333 0.275000 0.000000
0.275000 0.275000 0.000000
0.350000 0.262500 0.000000
0.425000 0.255000 0.000000
0.500000 0.250000 0.000000
0.575000 0.246429 0.000000
0.650000 0.243750 0.000000
0.725000 0.241667 0.000000
0.800000 0.240000 0.000000
0.875000 0.238636 0.000000
0.950000 0.237500 0.000000
1.000000 0.236842 0.000000
1.000000 0.236842 0.000000
0.000000 0.350000 0.050000
0.000000 0.350000 0.050000
0.000000 0.350000 0.000000
0.087500 0.350000 0.000000
0.175000 0.350000 0.000000
0.262500 0.350000 0.000000
0.350000 0.350000 0.000000
0.425000 0.340000 0.000000
0.500000 0.333333 0.000000
0.575000 0.328571 0.000000
0.650000 0.325000 0.000000
0.725000 0.322222 0.000000
0.800000 0.320000 0.000000
0.875000 0.318182 0.000000
0.950000 0.316667 0.000000
1.000000 0.315789 0.000000
1.000000 0.315789 0.000000
0.000000 0.425000 0.050000
0.000000 0.425000 0.050000
0.000000 0.425000 0.000000
0.085000 0.425000 0.000000
0.170000 0.425000 0.000000
0.255000 0.425000 0.000000
0.340000 0.425000 0.000000
0.425000 0.425000 0.000000
0.500000 0.416667 0.000000
0.575000 0.410714 0.000000
0.650000 0.406250 0.000000
0.725000 0.402778 0.000000
0.800000 0.400000 0.000000
0.875000 0.397727 0.000000
0.950000 0.395833 0.000000
1.000000 0.394737 0.000000
1.000000 0.394737 0.000000
0.000000 0.500000 0.050000
0.000000 0.500000 0.050000
0.000000 0.500000 0.000000
0.083333 0.500000 0.000000
0.166667 0.500000 0.000000
0.250000 0.500000 0.000000
0.333333 0.500000 0.000000
0.416667 0.500000 0.000000
0.500000 0.500000 0.000000
0.575000 0.492857 0.000000
0.650000 0.487500 0.000000
0.725000 0.483333 0.000000
0.800000 0.480000 0.000000
0.875000 0.477273 0.000000
0.950000 0.475000 0.000000
1.000000 0.473684 0.000000
1.000000 0.473684 0.000000
0.000000 0.575000 0.050000
0.000000 0.575000 0.050000
0.000000 0.575000 0.000000
0.082143 0.575000 0.000000
0.164286 0.575000 0.000000
0.246429 0.575000 0.000000
0.328571 0.575000 0.000000
0.410714 0.575000 0.000000
0.492857 0.575000 0.000000
0.575000 0.575000 0.000000
0.650000 0.568750 0.000000
0.725000 0.563889 0.000000
0.800000 0.560000 0.000000
0.875000 0.556818 0.000000
0.950000 0.554167 0.000000
1.000000 0.552632 0.000000
1.000000 0.552632 0.000000
0.000000 0.650000 0.050000
0.000000 0.650000 0.050000
0.000000 0.650000 0.000000
0.081250 0.650000 0.000000
0.162500 0.650000 0.000000
0.243750 0.650000 0.000000
0.325000 0.650000 0.000000
0.406250 0.650000 0.000000
0.487500 0.650000 0.000000
0.568750 0.650000 0.000000
0.650000 0.650000 0.000000
0.725000 0.644444 0.000000
0.800000 0.640000 0.000000
0.875000 0.636364 0.000000
0.950000 0.633333 0.000000
1.000000 0.631579 0.000000
1.000000 0.631579 0.000000
0.000000 0.725000 0.050000
0.000000 0.725000 0.050000
0.000000 0.725000 0.000000
0.080556 0.725000 0.000000
0.161111 0.725000 0.000000
0.241667 0.725000 0.000000
0.322222 0.725000 0.000000
0.402778 0.725000 0.000000
0.483333 0.725000 0.000000
0.563889 0.725000 0.000000
0.644444 0.725000 0.000000
0.725000 0.725000 0.000000
0.800000 0.720000 0.000000
0.875000 0.715909 0.000000
0.950000 0.712500 0.000000
1.000000 0.710526 0.000000
1.000000 0.710526 0.000000
0.000000 0.800000 0.050000
0.000000 0.800000 0.050000
0.000000 0.800000 0.000000
0.080000 0.800000 0.000000
0.160000 0.800000 0.000000
0.240000 0.800000 0.000000
0.320000 0.800000 0.000000
0.400000 0.800000 0.000000
0.480000 0.800000 0.000000
0.560000 0.800000 0.000000
0.640000 0.800000 0.000000
0.720000 0.800000 0.000000
0.800000 0.800000 0.000000
0.875000 0.795455 0.000000
0.950000 0.791667 0.000000
1.000000 0.789474 0.000000
1.000000 0.789474 0.000000
0.000000 0.875000 0.050000
0.000000 0.875000 0.050000
0.000000 0.875000 0.000000
0.079545 0.875000 0.000000
0.159091 0.875000 0.000000
0.238636 0.875000 0.000000
0.318182 0.875000 0.000000
0.397727 0.875000 0.000000
0.477273 0.875000 0.000000
0.556818 0.875000 0.000000
0.636364 0.875000 0.000000
0.715909 0.875000 0.000000
0.795455 0.875000 0.000000
0.875000 0.875000 0.000000
0.950000 0.870833 0.000000
1.000000 0.868421 0.000000
1.000000 0.868421 0.000000
0.000000 0.950000 0.050000
0.000000 0.950000 0.050000
0.000000 0.950000 0.000000
0.079167 0.950000 0.000000
0.158333 0.950000 0.000000
0.237500 0.950000 0.000000
0.316667 0.950000 0.000000
0.395833 0.950000 0.000000
0.475000 0.950000 0.000000
0.554167 0.950000 0.000000
0.633333 0.950000 0.000000
0.712500 0.950000 0.000000
0.791667 0.950000 0.000000
0.870833 0.950000 0.000000
0.950000 0.950000 0.000000
1.000000 0.947368 0.000000
1.000000 0.947368 0.000000
0.000000 1.000000 0.050000
0.000000 1.000000 0.050000
0.000000 1.000000 0.000000
0.078947 1.000000 0.000000
0.157895 1.000000 0.000000
0.236842 1.000000 0.000000
0.315789 1.000000 0.000000
0.394737 1.000000 0.000000
0.473684 1.000000 0.000000
0.552632 1.000000 0.000000
0.631579 1.000000 0.000000
0.710526 1.000000 0.000000
0.789474 1.000000 0.000000
0.868421 1.000000 0.000000
0.947368 1.000000 0.000000
1.000000 1.000000 0.000000
1.000000 1.000000 0.000000
0.000000 1.000000 0.050000
0.000000 1.000000 0.050000
0.000000 1.000000 0.000000
0.078947 1.000000 0.000000
0.157895 1.000000 0.000000
0.236842 1.000000 0.000000
0.315789 1.000000 0.000000
0.394737 1.000000 0.000000
0.473684 1.000000 0.000000
0.552632 1.000000 0.000000
0.631579 1.000000 0.000000
0.710526 1.000000 0.000000
0.789474 1.000000 0.000000
0.868421 1.000000 0.000000
0.947368 1.000000 0.000000
1.000000 1.000000 0.000000
1.000000 1.000000 0.000000
0.010417 0.000000 0.125000
0.010417 0.000000 0.125000
0.050000 0.000000 0.125000
0.114583 0.000000 0.125000
0.200000 0.000000 0.141667
0.275000 0.000000 0.147917
0.350000 0.000000 0.154167
0.425000 0.000000 0.125000
0.500000 0.000000 0.125000
0.575000 0.000000 0.125000
0.650000 0.000000 0.125000
0.725000 0.000000 0.125000
