ios/AIPhotoCoach/Resources/LUTs/hk_neon.cube
# Baseline LUT for FilterPreset 'hk_neon' (港风霓虹).
# Generated by scripts/luts/gen_baseline_luts.py — replace with a
# hand-graded / commercial LUT keeping the same filename to upgrade.
TITLE "hk_neon"
LUT_3D_SIZE 5
DOMAIN_MIN 0.0 0.0 0.0
DOMAIN_MAX 1.0 1.0 1.0
0.000000 0.000000 0.000000
0.200000 0.000000 0.000000
0.500000 0.000000 0.000000
0.800000 0.000000 0.000000
1.000000 0.000000 0.000000
0.000000 0.200000 0.000000
0.200000 0.200000 0.000000
0.500000 0.200000 0.000000
0.800000 0.200000 0.000000
1.000000 0.200000 0.000000
0.000000 0.500000 0.000000
0.200000 0.500000 0.000000
0.500000 0.500000 0.000000
0.800000 0.500000 0.000000
1.000000 0.500000 0.000000
0.000000 0.800000 0.000000
0.200000 0.800000 0.000000
0.500000 0.800000 0.000000
0.800000 0.800000 0.000000
1.000000 0.800000 0.000000
0.000000 1.000000 0.000000
0.200000 1.000000 0.000000
0.500000 1.000000 0.000000
0.800000 1.000000 0.000000
1.000000 1.000000 0.000000
0.016667 0.000000 0.200000
0.183333 0.000000 0.200000
0.500000 0.000000 0.241667
0.800000 0.000000 0.200000
1.000000 0.000000 0.200000
0.000000 0.183333 0.200000
0.200000 0.200000 0.200000
0.500000 0.110000 0.110000
0.800000 0.020000 0.020000
1.000000 0.000000 0.000000
0.000000 0.500000 0.200000
0.110000 0.500000 0.110000
0.500000 0.500000 0.110000
0.800000 0.410000 0.020000
1.000000 0.375000 0.000000
0.000000 0.800000 0.200000
0.020000 0.800000 0.020000
0.410000 0.800000 0.020000
0.800000 0.800000 0.020000
1.000000 0.750000 0.000000
0.000000 1.000000 0.200000
0.000000 1.000000 0.000000
0.375000 1.000000 0.000000
0.750000 1.000000 0.000000
1.000000 1.000000 0.000000
0.041667 0.000000 0.500000
0.200000 0.000000 0.500000
0.458333 0.000000 0.500000
0.800000 0.000000 0.566667
1.000000 0.000000 0.583333
0.000000 0.158333 0.500000
0.142500 0.110000 0.500000
0.467500 0.110000 0.500000
0.800000 0.020000 0.475000
1.000000 0.000000 0.458333
0.000000 0.458333 0.500000
0.110000 0.467500 0.500000
0.500000 0.500000 0.500000
0.800000 0.410000 0.410000
1.000000 0.350000 0.350000
0.000000 0.800000 0.500000
0.020000 0.800000 0.410000
0.410000 0.800000 0.410000
0.800000 0.800000 0.410000
1.000000 0.740000 0.350000
0.000000 1.000000 0.500000
0.000000 1.000000 0.375000
0.350000 1.000000 0.350000
0.740000 1.000000 0.350000
1.000000 1.000000 0.350000
0.066667 0.000000 0.800000
0.200000 0.000000 0.800000
0.500000 0.000000 0.800000
0.733333 0.000000 0.800000
1.000000 0.000000 0.883333
0.000000 0.133333 0.800000
0.085000 0.020000 0.800000
0.410000 0.020000 0.800000
0.735000 0.020000 0.800000
1.000000 0.000000 0.833333
0.000000 0.433333 0.800000
0.020000 0.345000 0.800000
0.442500 0.410000 0.800000
0.767500 0.410000 0.800000
1.000000 0.350000 0.794167
0.000000 0.733333 0.800000
0.020000 0.735000 0.800000
0.410000 0.767500 0.800000
0.800000 0.800000 0.800000
1.000000 0.740000 0.740000
0.000000 1.000000 0.800000
0.000000 1.000000 0.750000
0.350000 1.000000 0.740000
0.740000 1.000000 0.740000
1.000000 1.000000 0.740000
0.083333 0.000000 1.000000
0.200000 0.000000 1.000000
0.500000 0.000000 1.000000
0.716667 0.000000 1.000000
0.916667 0.000000 1.000000
0.000000 0.116667 1.000000
0.083333 0.000000 1.000000
0.375000 0.000000 1.000000
0.666667 0.000000 1.000000
0.916667 0.000000 1.000000
0.000000 0.416667 1.000000
0.000000 0.291667 1.000000
0.404167 0.350000 1.000000
0.740000 0.350000 1.000000
0.945833 0.350000 1.000000
0.000000 0.716667 1.000000
0.000000 0.666667 1.000000
0.350000 0.685833 1.000000
0.761667 0.740000 1.000000
0.978333 0.740000 1.000000
0.000000 0.916667 1.000000
0.000000 0.916667 1.000000
0.350000 0.945833 1.000000
0.740000 0.978333 1.000000
1.000000 1.000000 1.000000
