ios/AIPhotoCoach/Resources/LUTs/japanese_clean.cube
# Baseline LUT for FilterPreset 'japanese_clean' (日系清新).
# Generated by scripts/luts/gen_baseline_luts.py — replace with a
# hand-graded / commercial LUT keeping the same filename to upgrade.
TITLE "japanese_clean"
LUT_3D_SIZE 33
DOMAIN_MIN 0.0 0.0 0.0
DOMAIN_MAX 1.0 1.0 1.0
0.090000 0.105000 0.120000
0.111094 0.105000 0.120000
0.136250 0.109063 0.124062
0.164375 0.116094 0.131094
0.192500 0.123125 0.138125
0.220625 0.130156 0.145156
0.248750 0.137188 0.152187
0.276875 0.144219 0.159219
0.305000 0.151250 0.166250
0.333125 0.158281 0.173281
0.361250 0.165313 0.180313
0.389375 0.172344 0.187344
0.417500 0.179375 0.194375
0.445625 0.186406 0.201406
0.473750 0.193437 0.208437
0.501875 0.200469 0.215469
0.530000 0.207500 0.222500
0.558125 0.214531 0.229531
0.586250 0.221562 0.236563
0.614375 0.228594 0.243594
0.642500 0.235625 0.250625
0.670625 0.242656 0.257656
0.698750 0.249687 0.264687
0.726875 0.256719 0.271719
0.755000 0.263750 0.278750
0.783125 0.270781 0.285781
0.811250 0.277813 0.292812
0.839375 0.284844 0.299844
0.867500 0.291875 0.306875
0.895625 0.298906 0.313906
0.923750 0.305937 0.320937
0.951875 0.312969 0.327969
0.980000 0.320000 0.335000
0.092031 0.128125 0.122031
0.113125 0.128125 0.122031
0.136250 0.130156 0.124062
0.164375 0.137188 0.131094
0.192500 0.144219 0.138125
0.220625 0.151250 0.145156
0.248750 0.158281 0.152188
0.276875 0.165313 0.159219
0.305000 0.172344 0.166250
0.333125 0.179375 0.173281
0.361250 0.186406 0.180313
0.389375 0.193438 0.187344
0.417500 0.200469 0.194375
0.445625 0.207500 0.201406
0.473750 0.214531 0.208437
0.501875 0.221562 0.215469
0.530000 0.228594 0.222500
0.558125 0.235625 0.229531
0.586250 0.242656 0.236563
0.614375 0.249688 0.243594
0.642500 0.256719 0.250625
0.670625 0.263750 0.257656
0.698750 0.270781 0.264687
0.726875 0.277813 0.271719
0.755000 0.284844 0.278750
0.783125 0.291875 0.285781
0.811250 0.298906 0.292813
0.839375 0.305937 0.299844
0.867500 0.312969 0.306875
0.895625 0.320000 0.313906
0.923750 0.327031 0.320938
0.951875 0.334063 0.327969
0.980000 0.341094 0.335000
0.099062 0.156250 0.129062
0.120156 0.156250 0.129062
0.141250 0.156250 0.129062
0.164375 0.158281 0.131094
0.192500 0.165313 0.138125
0.220625 0.172344 0.145156
0.248750 0.179375 0.152188
0.276875 0.186406 0.159219
0.305000 0.193437 0.166250
0.333125 0.200469 0.173281
0.361250 0.207500 0.180313
0.389375 0.214531 0.187344
0.417500 0.221562 0.194375
0.445625 0.228594 0.201406
0.473750 0.235625 0.208437
0.501875 0.242656 0.215469
0.530000 0.249687 0.222500
0.558125 0.256719 0.229531
0.586250 0.263750 0.236563
0.614375 0.270781 0.243594
0.642500 0.277812 0.250625
0.670625 0.284844 0.257656
0.698750 0.291875 0.264687
0.726875 0.298906 0.271719
0.755000 0.305938 0.278750
0.783125 0.312969 0.285781
0.811250 0.320000 0.292813
0.839375 0.327031 0.299844
0.867500 0.334062 0.306875
0.895625 0.341094 0.313906
0.923750 0.348125 0.320938
0.951875 0.355156 0.327969
0.980000 0.362187 0.335000
0.106094 0.184375 0.136094
0.127188 0.184375 0.136094
0.148281 0.184375 0.136094
0.169375 0.184375 0.136094
0.192500 0.186406 0.138125
0.220625 0.193437 0.145156
0.248750 0.200469 0.152188
0.276875 0.207500 0.159219
0.305000 0.214531 0.166250
0.333125 0.221562 0.173281
0.361250 0.228594 0.180313
0.389375 0.235625 0.187344
0.417500 0.242656 0.194375
0.445625 0.249688 0.201406
0.473750 0.256719 0.208437
0.501875 0.263750 0.215469
0.530000 0.270781 0.222500
0.558125 0.277813 0.229531
0.586250 0.284844 0.236563
0.614375 0.291875 0.243594
0.642500 0.298906 0.250625
0.670625 0.305938 0.257656
0.698750 0.312969 0.264687
0.726875 0.320000 0.271719
0.755000 0.327031 0.278750
0.783125 0.334062 0.285781
0.811250 0.341094 0.292813
0.839375 0.348125 0.299844
0.867500 0.355156 0.306875
0.895625 0.362188 0.313906
0.923750 0.369219 0.320938
0.951875 0.376250 0.327969
0.980000 0.383281 0.335000
0.113125 0.212500 0.143125
0.134219 0.212500 0.143125
0.155313 0.212500 0.143125
0.176406 0.212500 0.143125
0.197500 0.212500 0.143125
0.220625 0.214531 0.145156
0.248750 0.221563 0.152188
0.276875 0.228594 0.159219
0.305000 0.235625 0.166250
0.333125 0.242656 0.173281
0.361250 0.249688 0.180313
0.389375 0.256719 0.187344
0.417500 0.263750 0.194375
0.445625 0.270781 0.201406
0.473750 0.277813 0.208437
0.501875 0.284844 0.215469
0.530000 0.291875 0.222500
0.558125 0.298906 0.229531
0.586250 0.305938 0.236563
0.614375 0.312969 0.243594
0.642500 0.320000 0.250625
0.670625 0.327031 0.257656
0.698750 0.334062 0.264687
0.726875 0.341094 0.271719
0.755000 0.348125 0.278750
0.783125 0.355156 0.285781
0.811250 0.362188 0.292813
0.839375 0.369219 0.299844
0.867500 0.376250 0.306875
0.895625 0.383281 0.313906
0.923750 0.390313 0.320938
0.951875 0.397344 0.327969
0.980000 0.404375 0.335000
0.120156 0.240625 0.150156
0.141250 0.240625 0.150156
0.162344 0.240625 0.150156
0.183438 0.240625 0.150156
0.204531 0.240625 0.150156
0.225625 0.240625 0.150156
0.248750 0.242656 0.152188
0.276875 0.249688 0.159219
0.305000 0.256719 0.166250
0.333125 0.263750 0.173281
0.361250 0.270781 0.180313
0.389375 0.277813 0.187344
0.417500 0.284844 0.194375
0.445625 0.291875 0.201406
0.473750 0.298906 0.208437
0.501875 0.305937 0.215469
0.530000 0.312969 0.222500
0.558125 0.320000 0.229531
0.586250 0.327031 0.236563
0.614375 0.334062 0.243594
0.642500 0.341094 0.250625
0.670625 0.348125 0.257656
0.698750 0.355156 0.264687
0.726875 0.362188 0.271719
0.755000 0.369219 0.278750
0.783125 0.376250 0.285781
0.811250 0.383281 0.292813
0.839375 0.390312 0.299844
0.867500 0.397344 0.306875
0.895625 0.404375 0.313906
0.923750 0.411406 0.320938
0.951875 0.418438 0.327969
0.980000 0.425469 0.335000
0.127188 0.268750 0.157187
0.148281 0.268750 0.157188
0.169375 0.268750 0.157187
0.190469 0.268750 0.157187
0.211562 0.268750 0.157187
0.232656 0.268750 0.157187
0.253750 0.268750 0.157187
0.276875 0.270781 0.159219
0.305000 0.277813 0.166250
0.333125 0.284844 0.173281
0.361250 0.291875 0.180313
0.389375 0.298906 0.187344
0.417500 0.305938 0.194375
0.445625 0.312969 0.201406
0.473750 0.320000 0.208437
0.501875 0.327031 0.215469
0.530000 0.334063 0.222500
0.558125 0.341094 0.229531
0.586250 0.348125 0.236563
0.614375 0.355156 0.243594
0.642500 0.362187 0.250625
0.670625 0.369219 0.257656
0.698750 0.376250 0.264687
0.726875 0.383281 0.271719
0.755000 0.390313 0.278750
0.783125 0.397344 0.285781
0.811250 0.404375 0.292813
0.839375 0.411406 0.299844
0.867500 0.418438 0.306875
0.895625 0.425469 0.313906
0.923750 0.432500 0.320938
0.951875 0.439531 0.327969
0.980000 0.446563 0.335000
0.134219 0.296875 0.164219
0.155312 0.296875 0.164219
0.176406 0.296875 0.164219
0.197500 0.296875 0.164219
0.218594 0.296875 0.164219
0.239687 0.296875 0.164219
0.260781 0.296875 0.164219
0.281875 0.296875 0.164219
0.305000 0.298906 0.166250
0.333125 0.305937 0.173281
0.361250 0.312969 0.180313
0.389375 0.320000 0.187344
0.417500 0.327031 0.194375
0.445625 0.334063 0.201406
0.473750 0.341094 0.208437
0.501875 0.348125 0.215469
0.530000 0.355156 0.222500
0.558125 0.362187 0.229531
0.586250 0.369219 0.236563
0.614375 0.376250 0.243594
0.642500 0.383281 0.250625
0.670625 0.390313 0.257656
0.698750 0.397344 0.264687
0.726875 0.404375 0.271719
0.755000 0.411406 0.278750
0.783125 0.418438 0.285781
0.811250 0.425469 0.292813
0.839375 0.432500 0.299844
0.867500 0.439531 0.306875
0.895625 0.446563 0.313906
0.923750 0.453594 0.320938
0.951875 0.460625 0.327969
0.980000 0.467656 0.335000
0.141250 0.325000 0.171250
0.162344 0.325000 0.171250
0.183438 0.325000 0.171250
0.204531 0.325000 0.171250
0.225625 0.325000 0.171250
0.246719 0.325000 0.171250
0.267813 0.325000 0.171250
0.288906 0.325000 0.171250
0.310000 0.325000 0.171250
0.333125 0.327031 0.173281
0.361250 0.334063 0.180313
0.389375 0.341094 0.187344
0.417500 0.348125 0.194375
0.445625 0.355156 0.201406
0.473750 0.362187 0.208437
0.501875 0.369219 0.215469
0.530000 0.376250 0.222500
0.558125 0.383281 0.229531
0.586250 0.390313 0.236563
0.614375 0.397344 0.243594
0.642500 0.404375 0.250625
0.670625 0.411406 0.257656
0.698750 0.418438 0.264687
0.726875 0.425469 0.271719
0.755000 0.432500 0.278750
0.783125 0.439531 0.285781
0.811250 0.446563 0.292813
0.839375 0.453594 0.299844
0.867500 0.460625 0.306875
0.895625 0.467656 0.313906
0.923750 0.474688 0.320938
0.951875 0.481719 0.327969
0.980000 0.488750 0.335000
0.148281 0.353125 0.178281
0.169375 0.353125 0.178281
0.190469 0.353125 0.178281
0.211562 0.353125 0.178281
0.232656 0.353125 0.178281
0.253750 0.353125 0.178281
0.274844 0.353125 0.178281
0.295937 0.353125 0.178281
0.317031 0.353125 0.178281
0.338125 0.353125 0.178281
0.361250 0.355156 0.180313
0.389375 0.362187 0.187344
0.417500 0.369219 0.194375
0.445625 0.376250 0.201406
0.473750 0.383281 0.208437
0.501875 0.390312 0.215469
0.530000 0.397344 0.222500
0.558125 0.404375 0.229531
0.586250 0.411406 0.236563
0.614375 0.418438 0.243594
0.642500 0.425469 0.250625
0.670625 0.432500 0.257656
0.698750 0.439531 0.264687
0.726875 0.446563 0.271719
0.755000 0.453594 0.278750
0.783125 0.460625 0.285781
0.811250 0.467656 0.292813
0.839375 0.474688 0.299844
0.867500 0.481719 0.306875
0.895625 0.488750 0.313906
0.923750 0.495781 0.320938
0.951875 0.502813 0.327969
0.980000 0.509844 0.335000
0.155313 0.381250 0.185313
0.176406 0.381250 0.185313
0.197500 0.381250 0.185312
0.218594 0.381250 0.185312
0.239687 0.381250 0.185312
0.260781 0.381250 0.185312
0.281875 0.381250 0.185312
0.302969 0.381250 0.185312
0.324063 0.381250 0.185312
0.345156 0.381250 0.185312
0.366250 0.381250 0.185312
0.389375 0.383281 0.187344
0.417500 0.390312 0.194375
0.445625 0.397344 0.201406
0.473750 0.404375 0.208437
0.501875 0.411406 0.215469
0.530000 0.418438 0.222500
0.558125 0.425469 0.229531
0.586250 0.432500 0.236563
0.614375 0.439531 0.243594
0.642500 0.446562 0.250625
0.670625 0.453594 0.257656
0.698750 0.460625 0.264687
0.726875 0.467656 0.271719
0.755000 0.474688 0.278750
0.783125 0.481719 0.285781
0.811250 0.488750 0.292813
0.839375 0.495781 0.299844
0.867500 0.502812 0.306875
0.895625 0.509844 0.313906
0.923750 0.516875 0.320938
0.951875 0.523906 0.327969
0.980000 0.530937 0.335000
0.162344 0.409375 0.192344
0.183438 0.409375 0.192344
0.204531 0.409375 0.192344
0.225625 0.409375 0.192344
0.246719 0.409375 0.192344
0.267813 0.409375 0.192344
0.288906 0.409375 0.192344
0.310000 0.409375 0.192344
0.331094 0.409375 0.192344
0.352187 0.409375 0.192344
0.373281 0.409375 0.192344
0.394375 0.409375 0.192344
0.417500 0.411406 0.194375
0.445625 0.418438 0.201406
0.473750 0.425469 0.208437
0.501875 0.432500 0.215469
0.530000 0.439531 0.222500
0.558125 0.446563 0.229531
0.586250 0.453594 0.236563
0.614375 0.460625 0.243594
0.642500 0.467656 0.250625
0.670625 0.474688 0.257656
0.698750 0.481719 0.264687
0.726875 0.488750 0.271719
0.755000 0.495781 0.278750
0.783125 0.502812 0.285781
0.811250 0.509844 0.292813
0.839375 0.516875 0.299844
0.867500 0.523906 0.306875
0.895625 0.530938 0.313906
0.923750 0.537969 0.320938
0.951875 0.545000 0.327969
0.980000 0.552031 0.335000
0.169375 0.437500 0.199375
0.190469 0.437500 0.199375
0.211563 0.437500 0.199375
0.232656 0.437500 0.199375
0.253750 0.437500 0.199375
0.274844 0.437500 0.199375
0.295938 0.437500 0.199375
0.317031 0.437500 0.199375
0.338125 0.437500 0.199375
0.359219 0.437500 0.199375
0.380312 0.437500 0.199375
0.401406 0.437500 0.199375
0.422500 0.437500 0.199375
0.445625 0.439531 0.201406
0.473750 0.446562 0.208437
0.501875 0.453594 0.215469
0.530000 0.460625 0.222500
0.558125 0.467656 0.229531
0.586250 0.474688 0.236563
0.614375 0.481719 0.243594
0.642500 0.488750 0.250625
0.670625 0.495781 0.257656
0.698750 0.502812 0.264687
0.726875 0.509844 0.271719
0.755000 0.516875 0.278750
0.783125 0.523906 0.285781
0.811250 0.530938 0.292813
0.839375 0.537969 0.299844
0.867500 0.545000 0.306875
0.895625 0.552031 0.313906
0.923750 0.559063 0.320938
0.951875 0.566094 0.327969
0.980000 0.573125 0.335000
0.176406 0.465625 0.206406
0.197500 0.465625 0.206406
0.218594 0.465625 0.206406
0.239688 0.465625 0.206406
0.260781 0.465625 0.206406
0.281875 0.465625 0.206406
0.302969 0.465625 0.206406
0.324063 0.465625 0.206406
0.345156 0.465625 0.206406
0.366250 0.465625 0.206406
0.387344 0.465625 0.206406
0.408438 0.465625 0.206406
0.429531 0.465625 0.206406
0.450625 0.465625 0.206406
0.473750 0.467656 0.208437
0.501875 0.474688 0.215469
0.530000 0.481719 0.222500
0.558125 0.488750 0.229531
0.586250 0.495781 0.236563
0.614375 0.502813 0.243594
0.642500 0.509844 0.250625
0.670625 0.516875 0.257656
0.698750 0.523906 0.264687
0.726875 0.530938 0.271719
0.755000 0.537969 0.278750
0.783125 0.545000 0.285781
0.811250 0.552031 0.292813
0.839375 0.559063 0.299844
0.867500 0.566094 0.306875
0.895625 0.573125 0.313906
0.923750 0.580156 0.320938
0.951875 0.587187 0.327969
0.980000 0.594219 0.335000
0.183437 0.493750 0.213438
0.204531 0.493750 0.213438
0.225625 0.493750 0.213438
0.246719 0.493750 0.213438
0.267813 0.493750 0.213438
0.288906 0.493750 0.213438
0.310000 0.493750 0.213438
0.331094 0.493750 0.213438
0.352187 0.493750 0.213438
0.373281 0.493750 0.213438
0.394375 0.493750 0.213438
0.415469 0.493750 0.213438
0.436562 0.493750 0.213438
0.457656 0.493750 0.213438
0.478750 0.493750 0.213438
0.501875 0.495781 0.215469
0.530000 0.502813 0.222500
0.558125 0.509844 0.229531
0.586250 0.516875 0.236563
0.614375 0.523906 0.243594
0.642500 0.530938 0.250625
0.670625 0.537969 0.257656
0.698750 0.545000 0.264687
0.726875 0.552031 0.271719
0.755000 0.559063 0.278750
0.783125 0.566094 0.285781
0.811250 0.573125 0.292813
0.839375 0.580156 0.299844
0.867500 0.587187 0.306875
0.895625 0.594219 0.313906
0.923750 0.601250 0.320938
0.951875 0.608281 0.327969
0.980000 0.615312 0.335000
0.190469 0.521875 0.220469
0.211563 0.521875 0.220469
0.232656 0.521875 0.220469
0.253750 0.521875 0.220469
0.274844 0.521875 0.220469
0.295938 0.521875 0.220469
0.317031 0.521875 0.220469
0.338125 0.521875 0.220469
0.359219 0.521875 0.220469
0.380312 0.521875 0.220469
0.401406 0.521875 0.220469
0.422500 0.521875 0.220469
0.443594 0.521875 0.220469
0.464688 0.521875 0.220469
0.485781 0.521875 0.220469
0.506875 0.521875 0.220469
0.530000 0.523906 0.222500
0.558125 0.530938 0.229531
0.586250 0.537969 0.236563
0.614375 0.545000 0.243594
0.642500 0.552031 0.250625
0.670625 0.559063 0.257656
0.698750 0.566094 0.264687
0.726875 0.573125 0.271719
0.755000 0.580156 0.278750
0.783125 0.587187 0.285781
0.811250 0.594219 0.292813
0.839375 0.601250 0.299844
0.867500 0.608281 0.306875
0.895625 0.615312 0.313906
0.923750 0.622344 0.320938
0.951875 0.629375 0.327969
0.980000 0.636406 0.335000
0.197500 0.550000 0.227500
0.218594 0.550000 0.227500
0.239687 0.550000 0.227500
0.260781 0.550000 0.227500
0.281875 0.550000 0.227500
0.302969 0.550000 0.227500
0.324063 0.550000 0.227500
0.345156 0.550000 0.227500
0.366250 0.550000 0.227500
0.387344 0.550000 0.227500
0.408438 0.550000 0.227500
0.429531 0.550000 0.227500
0.450625 0.550000 0.227500
0.471719 0.550000 0.227500
0.492812 0.550000 0.227500
0.513906 0.550000 0.227500
0.535000 0.550000 0.227500
0.558125 0.552031 0.229531
0.586250 0.559063 0.236563
0.614375 0.566094 0.243594
0.642500 0.573125 0.250625
0.670625 0.580156 0.257656
0.698750 0.587187 0.264687
0.726875 0.594219 0.271719
0.755000 0.601250 0.278750
0.783125 0.608281 0.285781
0.811250 0.615313 0.292813
0.839375 0.622344 0.299844
0.867500 0.629375 0.306875
0.895625 0.636406 0.313906
0.923750 0.643438 0.320938
0.951875 0.650469 0.327969
0.980000 0.657500 0.335000
0.204531 0.578125 0.234531
0.225625 0.578125 0.234531
0.246719 0.578125 0.234531
0.267812 0.578125 0.234531
0.288906 0.578125 0.234531
0.310000 0.578125 0.234531
0.331094 0.578125 0.234531
0.352187 0.578125 0.234531
0.373281 0.578125 0.234531
0.394375 0.578125 0.234531
0.415469 0.578125 0.234531
0.436562 0.578125 0.234531
0.457656 0.578125 0.234531
0.478750 0.578125 0.234531
0.499844 0.578125 0.234531
0.520938 0.578125 0.234531
0.542031 0.578125 0.234531
0.563125 0.578125 0.234531
0.586250 0.580156 0.236563
0.614375 0.587187 0.243594
0.642500 0.594219 0.250625
0.670625 0.601250 0.257656
0.698750 0.608281 0.264687
0.726875 0.615312 0.271719
0.755000 0.622344 0.278750
0.783125 0.629375 0.285781
0.811250 0.636406 0.292813
0.839375 0.643437 0.299844
0.867500 0.650469 0.306875
0.895625 0.657500 0.313906
0.923750 0.664531 0.320938
0.951875 0.671563 0.327969
0.980000 0.678594 0.335000
0.211562 0.606250 0.241562
0.232656 0.606250 0.241562
0.253750 0.606250 0.241562
0.274844 0.606250 0.241562
0.295937 0.606250 0.241562
0.317031 0.606250 0.241562
0.338125 0.606250 0.241562
0.359219 0.606250 0.241562
0.380312 0.606250 0.241562
0.401406 0.606250 0.241562
0.422500 0.606250 0.241562
0.443594 0.606250 0.241562
0.464687 0.606250 0.241562
0.485781 0.606250 0.241562
0.506875 0.606250 0.241562
0.527969 0.606250 0.241562
0.549063 0.606250 0.241562
0.570156 0.606250 0.241562
0.591250 0.606250 0.241562
0.614375 0.608281 0.243594
0.642500 0.615312 0.250625
0.670625 0.622344 0.257656
0.698750 0.629375 0.264687
0.726875 0.636406 0.271719
0.755000 0.643437 0.278750
0.783125 0.650469 0.285781
0.811250 0.657500 0.292813
0.839375 0.664531 0.299844
0.867500 0.671562 0.306875
0.895625 0.678594 0.313906
0.923750 0.685625 0.320938
0.951875 0.692656 0.327969
0.980000 0.699688 0.335000
0.218594 0.634375 0.248594
0.239687 0.634375 0.248594
0.260781 0.634375 0.248594
0.281875 0.634375 0.248594
0.302969 0.634375 0.248594
0.324062 0.634375 0.248594
0.345156 0.634375 0.248594
0.366250 0.634375 0.248594
0.387344 0.634375 0.248594
0.408437 0.634375 0.248594
0.429531 0.634375 0.248594
0.450625 0.634375 0.248594
0.471719 0.634375 0.248594
0.492813 0.634375 0.248594
0.513906 0.634375 0.248594
0.535000 0.634375 0.248594
0.556094 0.634375 0.248594
0.577187 0.634375 0.248594
0.598281 0.634375 0.248594
0.619375 0.634375 0.248594
0.642500 0.636406 0.250625
0.670625 0.643437 0.257656
0.698750 0.650469 0.264687
0.726875 0.657500 0.271719
0.755000 0.664531 0.278750
0.783125 0.671563 0.285781
0.811250 0.678594 0.292813
0.839375 0.685625 0.299844
0.867500 0.692656 0.306875
0.895625 0.699688 0.313906
0.923750 0.706719 0.320938
0.951875 0.713750 0.327969
0.980000 0.720781 0.335000
0.225625 0.662500 0.255625
0.246719 0.662500 0.255625
0.267813 0.662500 0.255625
0.288906 0.662500 0.255625
0.310000 0.662500 0.255625
0.331094 0.662500 0.255625
0.352188 0.662500 0.255625
0.373281 0.662500 0.255625
0.394375 0.662500 0.255625
0.415469 0.662500 0.255625
0.436562 0.662500 0.255625
0.457656 0.662500 0.255625
0.478750 0.662500 0.255625
0.499844 0.662500 0.255625
0.520938 0.662500 0.255625
0.542031 0.662500 0.255625
0.563125 0.662500 0.255625
0.584219 0.662500 0.255625
0.605312 0.662500 0.255625
0.626406 0.662500 0.255625
0.647500 0.662500 0.255625
0.670625 0.664531 0.257656
0.698750 0.671562 0.264687
0.726875 0.678594 0.271719
0.755000 0.685625 0.278750
0.783125 0.692656 0.285781
0.811250 0.699688 0.292813
0.839375 0.706719 0.299844
0.867500 0.713750 0.306875
0.895625 0.720781 0.313906
0.923750 0.727812 0.320938
0.951875 0.734844 0.327969
0.980000 0.741875 0.335000
0.232656 0.690625 0.262656
0.253750 0.690625 0.262656
0.274844 0.690625 0.262656
0.295937 0.690625 0.262656
0.317031 0.690625 0.262656
0.338125 0.690625 0.262656
0.359219 0.690625 0.262656
0.380312 0.690625 0.262656
0.401406 0.690625 0.262656
0.422500 0.690625 0.262656
0.443594 0.690625 0.262656
0.464688 0.690625 0.262656
0.485781 0.690625 0.262656
0.506875 0.690625 0.262656
0.527969 0.690625 0.262656
0.549063 0.690625 0.262656
0.570156 0.690625 0.262656
0.591250 0.690625 0.262656
0.612344 0.690625 0.262656
0.633437 0.690625 0.262656
0.654531 0.690625 0.262656
0.675625 0.690625 0.262656
0.698750 0.692656 0.264687
0.726875 0.699688 0.271719
0.755000 0.706719 0.278750
0.783125 0.713750 0.285781
0.811250 0.720781 0.292813
0.839375 0.727812 0.299844
0.867500 0.734844 0.306875
0.895625 0.741875 0.313906
0.923750 0.748906 0.320938
0.951875 0.755938 0.327969
0.980000 0.762969 0.335000
0.239687 0.718750 0.269687
0.260781 0.718750 0.269688
0.281875 0.718750 0.269688
0.302969 0.718750 0.269688
0.324062 0.718750 0.269688
0.345156 0.718750 0.269688
0.366250 0.718750 0.269688
0.387344 0.718750 0.269688
0.408438 0.718750 0.269688
0.429531 0.718750 0.269688
0.450625 0.718750 0.269688
0.471719 0.718750 0.269688
0.492812 0.718750 0.269688
0.513906 0.718750 0.269688
0.535000 0.718750 0.269688
0.556094 0.718750 0.269688
0.577187 0.718750 0.269688
0.598281 0.718750 0.269688
0.619375 0.718750 0.269688
0.640469 0.718750 0.269688
0.661562 0.718750 0.269688
0.682656 0.718750 0.269688
0.703750 0.718750 0.269688
0.726875 0.720781 0.271719
0.755000 0.727812 0.278750
0.783125 0.734844 0.285781
0.811250 0.741875 0.292813
0.839375 0.748906 0.299844
0.867500 0.755937 0.306875
0.895625 0.762969 0.313906
0.923750 0.770000 0.320938
0.951875 0.777031 0.327969
0.980000 0.784062 0.335000
0.246719 0.746875 0.276719
0.267813 0.746875 0.276719
0.288906 0.746875 0.276719
0.310000 0.746875 0.276719
0.331094 0.746875 0.276719
0.352187 0.746875 0.276719
0.373281 0.746875 0.276719
0.394375 0.746875 0.276719
0.415469 0.746875 0.276719
0.436562 0.746875 0.276719
0.457656 0.746875 0.276719
0.478750 0.746875 0.276719
0.499844 0.746875 0.276719
0.520938 0.746875 0.276719
0.542031 0.746875 0.276719
0.563125 0.746875 0.276719
0.584219 0.746875 0.276719
0.605312 0.746875 0.276719
0.626406 0.746875 0.276719
0.647500 0.746875 0.276719
0.668594 0.746875 0.276719
0.689688 0.746875 0.276719
0.710781 0.746875 0.276719
0.731875 0.746875 0.276719
0.755000 0.748906 0.278750
0.783125 0.755937 0.285781
0.811250 0.762969 0.292813
0.839375 0.770000 0.299844
0.867500 0.777031 0.306875
0.895625 0.784062 0.313906
0.923750 0.791094 0.320938
0.951875 0.798125 0.327969
0.980000 0.805156 0.335000
0.253750 0.775000 0.283750
0.274844 0.775000 0.283750
0.295937 0.775000 0.283750
0.317031 0.775000 0.283750
0.338125 0.775000 0.283750
0.359219 0.775000 0.283750
0.380312 0.775000 0.283750
0.401406 0.775000 0.283750
0.422500 0.775000 0.283750
0.443594 0.775000 0.283750
0.464688 0.775000 0.283750
0.485781 0.775000 0.283750
0.506875 0.775000 0.283750
0.527969 0.775000 0.283750
0.549063 0.775000 0.283750
0.570156 0.775000 0.283750
0.591250 0.775000 0.283750
0.612344 0.775000 0.283750
0.633438 0.775000 0.283750
0.654531 0.775000 0.283750
0.675625 0.775000 0.283750
0.696719 0.775000 0.283750
0.717812 0.775000 0.283750
0.738906 0.775000 0.283750
0.760000 0.775000 0.283750
0.783125 0.777031 0.285781
0.811250 0.784063 0.292813
0.839375 0.791094 0.299844
0.867500 0.798125 0.306875
0.895625 0.805156 0.313906
0.923750 0.812188 0.320938
0.951875 0.819219 0.327969
0.980000 0.826250 0.335000
0.260781 0.803125 0.290781
0.281875 0.803125 0.290781
0.302969 0.803125 0.290781
0.324063 0.803125 0.290781
0.345156 0.803125 0.290781
0.366250 0.803125 0.290781
0.387344 0.803125 0.290781
0.408437 0.803125 0.290781
0.429531 0.803125 0.290781
0.450625 0.803125 0.290781
0.471719 0.803125 0.290781
0.492812 0.803125 0.290781
0.513906 0.803125 0.290781
0.535000 0.803125 0.290781
0.556094 0.803125 0.290781
0.577187 0.803125 0.290781
0.598281 0.803125 0.290781
0.619375 0.803125 0.290781
0.640469 0.803125 0.290781
0.661562 0.803125 0.290781
0.682656 0.803125 0.290781
0.703750 0.803125 0.290781
0.724844 0.803125 0.290781
0.745937 0.803125 0.290781
0.767031 0.803125 0.290781
0.788125 0.803125 0.290781
0.811250 0.805156 0.292813
0.839375 0.812187 0.299844
0.867500 0.819219 0.306875
0.895625 0.826250 0.313906
0.923750 0.833281 0.320938
0.951875 0.840313 0.327969
0.980000 0.847344 0.335000
0.267812 0.831250 0.297812
0.288906 0.831250 0.297813
0.310000 0.831250 0.297813
0.331094 0.831250 0.297813
0.352187 0.831250 0.297813
0.373281 0.831250 0.297813
0.394375 0.831250 0.297813
0.415469 0.831250 0.297813
0.436562 0.831250 0.297813
0.457656 0.831250 0.297813
0.478750 0.831250 0.297813
0.499844 0.831250 0.297813
0.520938 0.831250 0.297813
0.542031 0.831250 0.297813
0.563125 0.831250 0.297813
0.584219 0.831250 0.297813
0.605313 0.831250 0.297813
0.626406 0.831250 0.297813
0.647500 0.831250 0.297813
0.668594 0.831250 0.297813
