ios/AIPhotoCoach/Resources/LUTs/japanese_clean.cube
# Baseline LUT for FilterPreset 'japanese_clean' (日系清新).
# Generated by scripts/luts/gen_baseline_luts.py — replace with a
# hand-graded / commercial LUT keeping the same filename to upgrade.
TITLE "japanese_clean"
LUT_3D_SIZE 9
DOMAIN_MIN 0.0 0.0 0.0
DOMAIN_MAX 1.0 1.0 1.0
0.090000 0.105000 0.120000
0.192500 0.123125 0.138125
0.305000 0.151250 0.166250
0.417500 0.179375 0.194375
0.530000 0.207500 0.222500
0.642500 0.235625 0.250625
0.755000 0.263750 0.278750
0.867500 0.291875 0.306875
0.980000 0.320000 0.335000
0.113125 0.212500 0.143125
0.197500 0.212500 0.143125
0.305000 0.235625 0.166250
0.417500 0.263750 0.194375
0.530000 0.291875 0.222500
0.642500 0.320000 0.250625
0.755000 0.348125 0.278750
0.867500 0.376250 0.306875
0.980000 0.404375 0.335000
0.141250 0.325000 0.171250
0.225625 0.325000 0.171250
0.310000 0.325000 0.171250
0.417500 0.348125 0.194375
0.530000 0.376250 0.222500
0.642500 0.404375 0.250625
0.755000 0.432500 0.278750
0.867500 0.460625 0.306875
0.980000 0.488750 0.335000
0.169375 0.437500 0.199375
0.253750 0.437500 0.199375
0.338125 0.437500 0.199375
0.422500 0.437500 0.199375
0.530000 0.460625 0.222500
0.642500 0.488750 0.250625
0.755000 0.516875 0.278750
0.867500 0.545000 0.306875
0.980000 0.573125 0.335000
0.197500 0.550000 0.227500
0.281875 0.550000 0.227500
0.366250 0.550000 0.227500
0.450625 0.550000 0.227500
0.535000 0.550000 0.227500
0.642500 0.573125 0.250625
0.755000 0.601250 0.278750
0.867500 0.629375 0.306875
0.980000 0.657500 0.335000
0.225625 0.662500 0.255625
0.310000 0.662500 0.255625
0.394375 0.662500 0.255625
0.478750 0.662500 0.255625
0.563125 0.662500 0.255625
0.647500 0.662500 0.255625
0.755000 0.685625 0.278750
0.867500 0.713750 0.306875
0.980000 0.741875 0.335000
0.253750 0.775000 0.283750
0.338125 0.775000 0.283750
0.422500 0.775000 0.283750
0.506875 0.775000 0.283750
0.591250 0.775000 0.283750
0.675625 0.775000 0.283750
0.760000 0.775000 0.283750
0.867500 0.798125 0.306875
0.980000 0.826250 0.335000
0.281875 0.887500 0.311875
0.366250 0.887500 0.311875
0.450625 0.887500 0.311875
0.535000 0.887500 0.311875
0.619375 0.887500 0.311875
0.703750 0.887500 0.311875
0.788125 0.887500 0.311875
0.872500 0.887500 0.311875
0.980000 0.910625 0.335000
0.310000 1.000000 0.340000
0.394375 1.000000 0.340000
0.478750 1.000000 0.340000
0.563125 1.000000 0.340000
0.647500 1.000000 0.340000
0.731875 1.000000 0.340000
0.816250 1.000000 0.340000
0.900625 1.000000 0.340000
0.985000 1.000000 0.340000
0.118125 0.133125 0.232500
0.202500 0.133125 0.232500
0.305000 0.151250 0.250625
0.417500 0.179375 0.278750
0.530000 0.207500 0.306875
0.642500 0.235625 0.335000
0.755000 0.263750 0.363125
0.867500 0.291875 0.391250
0.980000 0.320000 0.419375
0.118125 0.217500 0.232500
0.202500 0.217500 0.232500
0.305000 0.235625 0.250625
0.417500 0.263750 0.278750
0.530000 0.291875 0.306875
0.642500 0.320000 0.335000
0.755000 0.348125 0.363125
0.867500 0.376250 0.391250
0.980000 0.404375 0.419375
0.141250 0.325000 0.255625
0.225625 0.325000 0.255625
0.310000 0.325000 0.255625
0.417500 0.348125 0.278750
0.530000 0.376250 0.306875
0.642500 0.404375 0.335000
0.755000 0.432500 0.363125
0.867500 0.460625 0.391250
0.980000 0.488750 0.419375
0.169375 0.437500 0.283750
0.253750 0.437500 0.283750
0.338125 0.437500 0.283750
0.422500 0.437500 0.283750
0.530000 0.460625 0.306875
0.642500 0.488750 0.335000
0.755000 0.516875 0.363125
0.867500 0.545000 0.391250
0.980000 0.573125 0.419375
0.197500 0.550000 0.311875
0.281875 0.550000 0.311875
0.366250 0.550000 0.311875
0.450625 0.550000 0.311875
0.535000 0.550000 0.311875
0.642500 0.573125 0.335000
0.755000 0.601250 0.363125
0.867500 0.629375 0.391250
0.980000 0.657500 0.419375
0.225625 0.662500 0.340000
0.310000 0.662500 0.340000
0.394375 0.662500 0.340000
0.478750 0.662500 0.340000
0.563125 0.662500 0.340000
0.647500 0.662500 0.340000
0.755000 0.685625 0.363125
0.867500 0.713750 0.391250
0.980000 0.741875 0.419375
0.253750 0.775000 0.368125
0.338125 0.775000 0.368125
0.422500 0.775000 0.368125
0.506875 0.775000 0.368125
0.591250 0.775000 0.368125
0.675625 0.775000 0.368125
0.760000 0.775000 0.368125
0.867500 0.798125 0.391250
0.980000 0.826250 0.419375
0.281875 0.887500 0.396250
0.366250 0.887500 0.396250
0.450625 0.887500 0.396250
0.535000 0.887500 0.396250
0.619375 0.887500 0.396250
0.703750 0.887500 0.396250
0.788125 0.887500 0.396250
0.872500 0.887500 0.396250
0.980000 0.910625 0.419375
0.310000 1.000000 0.424375
0.394375 1.000000 0.424375
0.478750 1.000000 0.424375
0.563125 1.000000 0.424375
0.647500 1.000000 0.424375
0.731875 1.000000 0.424375
0.816250 1.000000 0.424375
0.900625 1.000000 0.424375
0.985000 1.000000 0.424375
0.146250 0.161250 0.345000
0.230625 0.161250 0.345000
0.315000 0.161250 0.345000
0.417500 0.179375 0.363125
0.530000 0.207500 0.391250
0.642500 0.235625 0.419375
0.755000 0.263750 0.447500
0.867500 0.291875 0.475625
0.980000 0.320000 0.503750
0.146250 0.245625 0.345000
0.230625 0.245625 0.345000
0.315000 0.245625 0.345000
0.417500 0.263750 0.363125
0.530000 0.291875 0.391250
0.642500 0.320000 0.419375
0.755000 0.348125 0.447500
0.867500 0.376250 0.475625
0.980000 0.404375 0.503750
0.146250 0.330000 0.345000
0.230625 0.330000 0.345000
0.315000 0.330000 0.345000
0.417500 0.348125 0.363125
0.530000 0.376250 0.391250
0.642500 0.404375 0.419375
0.755000 0.432500 0.447500
0.867500 0.460625 0.475625
0.980000 0.488750 0.503750
0.169375 0.437500 0.368125
0.253750 0.437500 0.368125
0.338125 0.437500 0.368125
0.422500 0.437500 0.368125
0.530000 0.460625 0.391250
0.642500 0.488750 0.419375
0.755000 0.516875 0.447500
0.867500 0.545000 0.475625
0.980000 0.573125 0.503750
0.197500 0.550000 0.396250
0.281875 0.550000 0.396250
0.366250 0.550000 0.396250
0.450625 0.550000 0.396250
0.535000 0.550000 0.396250
0.642500 0.573125 0.419375
0.755000 0.601250 0.447500
0.867500 0.629375 0.475625
0.980000 0.657500 0.503750
0.225625 0.662500 0.424375
0.310000 0.662500 0.424375
0.394375 0.662500 0.424375
0.478750 0.662500 0.424375
0.563125 0.662500 0.424375
0.647500 0.662500 0.424375
0.755000 0.685625 0.447500
0.867500 0.713750 0.475625
0.980000 0.741875 0.503750
0.253750 0.775000 0.452500
0.338125 0.775000 0.452500
0.422500 0.775000 0.452500
0.506875 0.775000 0.452500
0.591250 0.775000 0.452500
0.675625 0.775000 0.452500
0.760000 0.775000 0.452500
0.867500 0.798125 0.475625
0.980000 0.826250 0.503750
0.281875 0.887500 0.480625
0.366250 0.887500 0.480625
0.450625 0.887500 0.480625
0.535000 0.887500 0.480625
0.619375 0.887500 0.480625
0.703750 0.887500 0.480625
0.788125 0.887500 0.480625
0.872500 0.887500 0.480625
0.980000 0.910625 0.503750
0.310000 1.000000 0.508750
0.394375 1.000000 0.508750
0.478750 1.000000 0.508750
0.563125 1.000000 0.508750
0.647500 1.000000 0.508750
0.731875 1.000000 0.508750
0.816250 1.000000 0.508750
0.900625 1.000000 0.508750
0.985000 1.000000 0.508750
0.174375 0.189375 0.457500
0.258750 0.189375 0.457500
0.343125 0.189375 0.457500
0.427500 0.189375 0.457500
0.530000 0.207500 0.475625
0.642500 0.235625 0.503750
0.755000 0.263750 0.531875
0.867500 0.291875 0.560000
0.980000 0.320000 0.588125
0.174375 0.273750 0.457500
0.258750 0.273750 0.457500
0.343125 0.273750 0.457500
0.427500 0.273750 0.457500
0.530000 0.291875 0.475625
0.642500 0.320000 0.503750
0.755000 0.348125 0.531875
0.867500 0.376250 0.560000
0.980000 0.404375 0.588125
0.174375 0.358125 0.457500
0.258750 0.358125 0.457500
0.343125 0.358125 0.457500
0.427500 0.358125 0.457500
0.530000 0.376250 0.475625
0.642500 0.404375 0.503750
0.755000 0.432500 0.531875
0.867500 0.460625 0.560000
0.980000 0.488750 0.588125
0.174375 0.442500 0.457500
0.258750 0.442500 0.457500
0.343125 0.442500 0.457500
0.427500 0.442500 0.457500
0.530000 0.460625 0.475625
0.642500 0.488750 0.503750
0.755000 0.516875 0.531875
0.867500 0.545000 0.560000
0.980000 0.573125 0.588125
0.197500 0.550000 0.480625
0.281875 0.550000 0.480625
0.366250 0.550000 0.480625
0.450625 0.550000 0.480625
0.535000 0.550000 0.480625
0.642500 0.573125 0.503750
0.755000 0.601250 0.531875
0.867500 0.629375 0.560000
0.980000 0.657500 0.588125
0.225625 0.662500 0.508750
0.310000 0.662500 0.508750
0.394375 0.662500 0.508750
0.478750 0.662500 0.508750
0.563125 0.662500 0.508750
0.647500 0.662500 0.508750
0.755000 0.685625 0.531875
0.867500 0.713750 0.560000
0.980000 0.741875 0.588125
0.253750 0.775000 0.536875
0.338125 0.775000 0.536875
0.422500 0.775000 0.536875
0.506875 0.775000 0.536875
0.591250 0.775000 0.536875
0.675625 0.775000 0.536875
0.760000 0.775000 0.536875
0.867500 0.798125 0.560000
0.980000 0.826250 0.588125
0.281875 0.887500 0.565000
0.366250 0.887500 0.565000
0.450625 0.887500 0.565000
0.535000 0.887500 0.565000
0.619375 0.887500 0.565000
0.703750 0.887500 0.565000
0.788125 0.887500 0.565000
0.872500 0.887500 0.565000
0.980000 0.910625 0.588125
0.310000 1.000000 0.593125
0.394375 1.000000 0.593125
0.478750 1.000000 0.593125
0.563125 1.000000 0.593125
0.647500 1.000000 0.593125
0.731875 1.000000 0.593125
0.816250 1.000000 0.593125
0.900625 1.000000 0.593125
0.985000 1.000000 0.593125
0.202500 0.217500 0.570000
0.286875 0.217500 0.570000
0.371250 0.217500 0.570000
0.455625 0.217500 0.570000
0.540000 0.217500 0.570000
0.642500 0.235625 0.588125
0.755000 0.263750 0.616250
0.867500 0.291875 0.644375
0.980000 0.320000 0.672500
0.202500 0.301875 0.570000
0.286875 0.301875 0.570000
0.371250 0.301875 0.570000
0.455625 0.301875 0.570000
0.540000 0.301875 0.570000
0.642500 0.320000 0.588125
0.755000 0.348125 0.616250
0.867500 0.376250 0.644375
0.980000 0.404375 0.672500
0.202500 0.386250 0.570000
0.286875 0.386250 0.570000
0.371250 0.386250 0.570000
0.455625 0.386250 0.570000
0.540000 0.386250 0.570000
0.642500 0.404375 0.588125
0.755000 0.432500 0.616250
0.867500 0.460625 0.644375
0.980000 0.488750 0.672500
0.202500 0.470625 0.570000
0.286875 0.470625 0.570000
0.371250 0.470625 0.570000
0.455625 0.470625 0.570000
0.540000 0.470625 0.570000
0.642500 0.488750 0.588125
0.755000 0.516875 0.616250
0.867500 0.545000 0.644375
0.980000 0.573125 0.672500
0.202500 0.555000 0.570000
0.286875 0.555000 0.570000
0.371250 0.555000 0.570000
0.455625 0.555000 0.570000
0.540000 0.555000 0.570000
0.642500 0.573125 0.588125
0.755000 0.601250 0.616250
0.867500 0.629375 0.644375
0.980000 0.657500 0.672500
0.225625 0.662500 0.593125
0.310000 0.662500 0.593125
0.394375 0.662500 0.593125
0.478750 0.662500 0.593125
0.563125 0.662500 0.593125
0.647500 0.662500 0.593125
0.755000 0.685625 0.616250
0.867500 0.713750 0.644375
0.980000 0.741875 0.672500
0.253750 0.775000 0.621250
0.338125 0.775000 0.621250
0.422500 0.775000 0.621250
0.506875 0.775000 0.621250
0.591250 0.775000 0.621250
0.675625 0.775000 0.621250
0.760000 0.775000 0.621250
0.867500 0.798125 0.644375
0.980000 0.826250 0.672500
0.281875 0.887500 0.649375
0.366250 0.887500 0.649375
0.450625 0.887500 0.649375
0.535000 0.887500 0.649375
0.619375 0.887500 0.649375
0.703750 0.887500 0.649375
0.788125 0.887500 0.649375
0.872500 0.887500 0.649375
0.980000 0.910625 0.672500
0.310000 1.000000 0.677500
0.394375 1.000000 0.677500
0.478750 1.000000 0.677500
0.563125 1.000000 0.677500
0.647500 1.000000 0.677500
0.731875 1.000000 0.677500
0.816250 1.000000 0.677500
0.900625 1.000000 0.677500
0.985000 1.000000 0.677500
0.230625 0.245625 0.682500
0.315000 0.245625 0.682500
0.399375 0.245625 0.682500
0.483750 0.245625 0.682500
0.568125 0.245625 0.682500
0.652500 0.245625 0.682500
0.755000 0.263750 0.700625
0.867500 0.291875 0.728750
0.980000 0.320000 0.756875
0.230625 0.330000 0.682500
0.315000 0.330000 0.682500
0.399375 0.330000 0.682500
0.483750 0.330000 0.682500
0.568125 0.330000 0.682500
0.652500 0.330000 0.682500
0.755000 0.348125 0.700625
0.867500 0.376250 0.728750
0.980000 0.404375 0.756875
0.230625 0.414375 0.682500
0.315000 0.414375 0.682500
0.399375 0.414375 0.682500
0.483750 0.414375 0.682500
0.568125 0.414375 0.682500
0.652500 0.414375 0.682500
0.755000 0.432500 0.700625
0.867500 0.460625 0.728750
0.980000 0.488750 0.756875
0.230625 0.498750 0.682500
0.315000 0.498750 0.682500
0.399375 0.498750 0.682500
0.483750 0.498750 0.682500
0.568125 0.498750 0.682500
0.652500 0.498750 0.682500
0.755000 0.516875 0.700625
0.867500 0.545000 0.728750
0.980000 0.573125 0.756875
0.230625 0.583125 0.682500
0.315000 0.583125 0.682500
0.399375 0.583125 0.682500
0.483750 0.583125 0.682500
0.568125 0.583125 0.682500
0.652500 0.583125 0.682500
0.755000 0.601250 0.700625
0.867500 0.629375 0.728750
0.980000 0.657500 0.756875
0.230625 0.667500 0.682500
0.315000 0.667500 0.682500
0.399375 0.667500 0.682500
0.483750 0.667500 0.682500
0.568125 0.667500 0.682500
0.652500 0.667500 0.682500
0.755000 0.685625 0.700625
0.867500 0.713750 0.728750
0.980000 0.741875 0.756875
0.253750 0.775000 0.705625
0.338125 0.775000 0.705625
0.422500 0.775000 0.705625
0.506875 0.775000 0.705625
0.591250 0.775000 0.705625
0.675625 0.775000 0.705625
0.760000 0.775000 0.705625
0.867500 0.798125 0.728750
0.980000 0.826250 0.756875
0.281875 0.887500 0.733750
0.366250 0.887500 0.733750
0.450625 0.887500 0.733750
0.535000 0.887500 0.733750
0.619375 0.887500 0.733750
0.703750 0.887500 0.733750
0.788125 0.887500 0.733750
0.872500 0.887500 0.733750
0.980000 0.910625 0.756875
0.310000 1.000000 0.761875
0.394375 1.000000 0.761875
0.478750 1.000000 0.761875
0.563125 1.000000 0.761875
0.647500 1.000000 0.761875
0.731875 1.000000 0.761875
0.816250 1.000000 0.761875
0.900625 1.000000 0.761875
0.985000 1.000000 0.761875
0.258750 0.273750 0.795000
0.343125 0.273750 0.795000
0.427500 0.273750 0.795000
0.511875 0.273750 0.795000
0.596250 0.273750 0.795000
0.680625 0.273750 0.795000
0.765000 0.273750 0.795000
0.867500 0.291875 0.813125
0.980000 0.320000 0.841250
0.258750 0.358125 0.795000
0.343125 0.358125 0.795000
0.427500 0.358125 0.795000
0.511875 0.358125 0.795000
0.596250 0.358125 0.795000
0.680625 0.358125 0.795000
0.765000 0.358125 0.795000
0.867500 0.376250 0.813125
0.980000 0.404375 0.841250
0.258750 0.442500 0.795000
0.343125 0.442500 0.795000
0.427500 0.442500 0.795000
0.511875 0.442500 0.795000
0.596250 0.442500 0.795000
0.680625 0.442500 0.795000
0.765000 0.442500 0.795000
0.867500 0.460625 0.813125
0.980000 0.488750 0.841250
0.258750 0.526875 0.795000
0.343125 0.526875 0.795000
0.427500 0.526875 0.795000
0.511875 0.526875 0.795000
0.596250 0.526875 0.795000
0.680625 0.526875 0.795000
0.765000 0.526875 0.795000
0.867500 0.545000 0.813125
0.980000 0.573125 0.841250
0.258750 0.611250 0.795000
0.343125 0.611250 0.795000
0.427500 0.611250 0.795000
0.511875 0.611250 0.795000
0.596250 0.611250 0.795000
0.680625 0.611250 0.795000
0.765000 0.611250 0.795000
0.867500 0.629375 0.813125
0.980000 0.657500 0.841250
0.258750 0.695625 0.795000
0.343125 0.695625 0.795000
0.427500 0.695625 0.795000
0.511875 0.695625 0.795000
0.596250 0.695625 0.795000
0.680625 0.695625 0.795000
0.765000 0.695625 0.795000
0.867500 0.713750 0.813125
0.980000 0.741875 0.841250
0.258750 0.780000 0.795000
0.343125 0.780000 0.795000
0.427500 0.780000 0.795000
0.511875 0.780000 0.795000
0.596250 0.780000 0.795000
0.680625 0.780000 0.795000
0.765000 0.780000 0.795000
0.867500 0.798125 0.813125
0.980000 0.826250 0.841250
0.281875 0.887500 0.818125
0.366250 0.887500 0.818125
0.450625 0.887500 0.818125
0.535000 0.887500 0.818125
0.619375 0.887500 0.818125
0.703750 0.887500 0.818125
0.788125 0.887500 0.818125
0.872500 0.887500 0.818125
0.980000 0.910625 0.841250
0.310000 1.000000 0.846250
0.394375 1.000000 0.846250
0.478750 1.000000 0.846250
0.563125 1.000000 0.846250
0.647500 1.000000 0.846250
0.731875 1.000000 0.846250
0.816250 1.000000 0.846250
0.900625 1.000000 0.846250
0.985000 1.000000 0.846250
0.286875 0.301875 0.907500
0.371250 0.301875 0.907500
0.455625 0.301875 0.907500
0.540000 0.301875 0.907500
0.624375 0.301875 0.907500
0.708750 0.301875 0.907500
0.793125 0.301875 0.907500
0.877500 0.301875 0.907500
0.980000 0.320000 0.925625
0.286875 0.386250 0.907500
0.371250 0.386250 0.907500
0.455625 0.386250 0.907500
0.540000 0.386250 0.907500
0.624375 0.386250 0.907500
0.708750 0.386250 0.907500
0.793125 0.386250 0.907500
0.877500 0.386250 0.907500
0.980000 0.404375 0.925625
0.286875 0.470625 0.907500
0.371250 0.470625 0.907500
0.455625 0.470625 0.907500
0.540000 0.470625 0.907500
0.624375 0.470625 0.907500
0.708750 0.470625 0.907500
0.793125 0.470625 0.907500
0.877500 0.470625 0.907500
0.980000 0.488750 0.925625
0.286875 0.555000 0.907500
0.371250 0.555000 0.907500
0.455625 0.555000 0.907500
0.540000 0.555000 0.907500
0.624375 0.555000 0.907500
0.708750 0.555000 0.907500
0.793125 0.555000 0.907500
0.877500 0.555000 0.907500
0.980000 0.573125 0.925625
0.286875 0.639375 0.907500
0.371250 0.639375 0.907500
0.455625 0.639375 0.907500
0.540000 0.639375 0.907500
0.624375 0.639375 0.907500
0.708750 0.639375 0.907500
0.793125 0.639375 0.907500
0.877500 0.639375 0.907500
0.980000 0.657500 0.925625
0.286875 0.723750 0.907500
0.371250 0.723750 0.907500
0.455625 0.723750 0.907500
0.540000 0.723750 0.907500
0.624375 0.723750 0.907500
0.708750 0.723750 0.907500
0.793125 0.723750 0.907500
0.877500 0.723750 0.907500
0.980000 0.741875 0.925625
0.286875 0.808125 0.907500
0.371250 0.808125 0.907500
0.455625 0.808125 0.907500
0.540000 0.808125 0.907500
0.624375 0.808125 0.907500
0.708750 0.808125 0.907500
0.793125 0.808125 0.907500
0.877500 0.808125 0.907500
0.980000 0.826250 0.925625
0.286875 0.892500 0.907500
0.371250 0.892500 0.907500
0.455625 0.892500 0.907500
0.540000 0.892500 0.907500
0.624375 0.892500 0.907500
0.708750 0.892500 0.907500
0.793125 0.892500 0.907500
0.877500 0.892500 0.907500
0.980000 0.910625 0.925625
0.310000 1.000000 0.930625
0.394375 1.000000 0.930625
0.478750 1.000000 0.930625
0.563125 1.000000 0.930625
0.647500 1.000000 0.930625
0.731875 1.000000 0.930625
0.816250 1.000000 0.930625
0.900625 1.000000 0.930625
0.985000 1.000000 0.930625
0.310000 0.325000 1.000000
0.394375 0.325000 1.000000
0.478750 0.325000 1.000000
0.563125 0.325000 1.000000
0.647500 0.325000 1.000000
0.731875 0.325000 1.000000
0.816250 0.325000 1.000000
0.900625 0.325000 1.000000
0.985000 0.325000 1.000000
0.310000 0.409375 1.000000
0.394375 0.409375 1.000000
0.478750 0.409375 1.000000
0.563125 0.409375 1.000000
0.647500 0.409375 1.000000
0.731875 0.409375 1.000000
0.816250 0.409375 1.000000
0.900625 0.409375 1.000000
0.985000 0.409375 1.000000
0.310000 0.493750 1.000000
0.394375 0.493750 1.000000
0.478750 0.493750 1.000000
0.563125 0.493750 1.000000
0.647500 0.493750 1.000000
0.731875 0.493750 1.000000
0.816250 0.493750 1.000000
0.900625 0.493750 1.000000
0.985000 0.493750 1.000000
0.310000 0.578125 1.000000
0.394375 0.578125 1.000000
0.478750 0.578125 1.000000
0.563125 0.578125 1.000000
0.647500 0.578125 1.000000
0.731875 0.578125 1.000000
0.816250 0.578125 1.000000
0.900625 0.578125 1.000000
0.985000 0.578125 1.000000
0.310000 0.662500 1.000000
0.394375 0.662500 1.000000
0.478750 0.662500 1.000000
0.563125 0.662500 1.000000
0.647500 0.662500 1.000000
0.731875 0.662500 1.000000
0.816250 0.662500 1.000000
0.900625 0.662500 1.000000
0.985000 0.662500 1.000000
0.310000 0.746875 1.000000
0.394375 0.746875 1.000000
0.478750 0.746875 1.000000
0.563125 0.746875 1.000000
0.647500 0.746875 1.000000
0.731875 0.746875 1.000000
0.816250 0.746875 1.000000
0.900625 0.746875 1.000000
0.985000 0.746875 1.000000
0.310000 0.831250 1.000000
0.394375 0.831250 1.000000
0.478750 0.831250 1.000000
0.563125 0.831250 1.000000
0.647500 0.831250 1.000000
0.731875 0.831250 1.000000
0.816250 0.831250 1.000000
0.900625 0.831250 1.000000
0.985000 0.831250 1.000000
0.310000 0.915625 1.000000
0.394375 0.915625 1.000000
0.478750 0.915625 1.000000
0.563125 0.915625 1.000000
0.647500 0.915625 1.000000
0.731875 0.915625 1.000000
0.816250 0.915625 1.000000
0.900625 0.915625 1.000000
0.985000 0.915625 1.000000
0.310000 1.000000 1.000000
0.394375 1.000000 1.000000
0.478750 1.000000 1.000000
0.563125 1.000000 1.000000
0.647500 1.000000 1.000000
0.731875 1.000000 1.000000
0.816250 1.000000 1.000000
0.900625 1.000000 1.000000
0.985000 1.000000 1.000000
