ios/AIPhotoCoach/Resources/LUTs/japanese_clean.cube
# Baseline LUT for FilterPreset 'japanese_clean' (日系清新).
# Generated by scripts/luts/gen_baseline_luts.py — replace with a
# hand-graded / commercial LUT keeping the same filename to upgrade.
TITLE "japanese_clean"
LUT_3D_SIZE 5
DOMAIN_MIN 0.0 0.0 0.0
DOMAIN_MAX 1.0 1.0 1.0
0.090000 0.105000 0.120000
0.305000 0.151250 0.166250
0.530000 0.207500 0.222500
0.755000 0.263750 0.278750
0.980000 0.320000 0.335000
0.141250 0.325000 0.171250
0.310000 0.325000 0.171250
0.530000 0.376250 0.222500
0.755000 0.432500 0.278750
0.980000 0.488750 0.335000
0.197500 0.550000 0.227500
0.366250 0.550000 0.227500
0.535000 0.550000 0.227500
0.755000 0.601250 0.278750
0.980000 0.657500 0.335000
0.253750 0.775000 0.283750
0.422500 0.775000 0.283750
0.591250 0.775000 0.283750
0.760000 0.775000 0.283750
0.980000 0.826250 0.335000
0.310000 1.000000 0.340000
0.478750 1.000000 0.340000
0.647500 1.000000 0.340000
0.816250 1.000000 0.340000
0.985000 1.000000 0.340000
0.146250 0.161250 0.345000
0.315000 0.161250 0.345000
0.530000 0.207500 0.391250
0.755000 0.263750 0.447500
0.980000 0.320000 0.503750
0.146250 0.330000 0.345000
0.315000 0.330000 0.345000
0.530000 0.376250 0.391250
0.755000 0.432500 0.447500
0.980000 0.488750 0.503750
0.197500 0.550000 0.396250
0.366250 0.550000 0.396250
0.535000 0.550000 0.396250
0.755000 0.601250 0.447500
0.980000 0.657500 0.503750
0.253750 0.775000 0.452500
0.422500 0.775000 0.452500
0.591250 0.775000 0.452500
0.760000 0.775000 0.452500
0.980000 0.826250 0.503750
0.310000 1.000000 0.508750
0.478750 1.000000 0.508750
0.647500 1.000000 0.508750
0.816250 1.000000 0.508750
0.985000 1.000000 0.508750
0.202500 0.217500 0.570000
0.371250 0.217500 0.570000
0.540000 0.217500 0.570000
0.755000 0.263750 0.616250
0.980000 0.320000 0.672500
0.202500 0.386250 0.570000
0.371250 0.386250 0.570000
0.540000 0.386250 0.570000
0.755000 0.432500 0.616250
0.980000 0.488750 0.672500
0.202500 0.555000 0.570000
0.371250 0.555000 0.570000
0.540000 0.555000 0.570000
0.755000 0.601250 0.616250
0.980000 0.657500 0.672500
0.253750 0.775000 0.621250
0.422500 0.775000 0.621250
0.591250 0.775000 0.621250
0.760000 0.775000 0.621250
0.980000 0.826250 0.672500
0.310000 1.000000 0.677500
0.478750 1.000000 0.677500
0.647500 1.000000 0.677500
0.816250 1.000000 0.677500
0.985000 1.000000 0.677500
0.258750 0.273750 0.795000
0.427500 0.273750 0.795000
0.596250 0.273750 0.795000
0.765000 0.273750 0.795000
0.980000 0.320000 0.841250
0.258750 0.442500 0.795000
0.427500 0.442500 0.795000
0.596250 0.442500 0.795000
0.765000 0.442500 0.795000
0.980000 0.488750 0.841250
0.258750 0.611250 0.795000
0.427500 0.611250 0.795000
0.596250 0.611250 0.795000
0.765000 0.611250 0.795000
0.980000 0.657500 0.841250
0.258750 0.780000 0.795000
0.427500 0.780000 0.795000
0.596250 0.780000 0.795000
0.765000 0.780000 0.795000
0.980000 0.826250 0.841250
0.310000 1.000000 0.846250
0.478750 1.000000 0.846250
0.647500 1.000000 0.846250
0.816250 1.000000 0.846250
0.985000 1.000000 0.846250
0.310000 0.325000 1.000000
0.478750 0.325000 1.000000
0.647500 0.325000 1.000000
0.816250 0.325000 1.000000
0.985000 0.325000 1.000000
0.310000 0.493750 1.000000
0.478750 0.493750 1.000000
0.647500 0.493750 1.000000
0.816250 0.493750 1.000000
0.985000 0.493750 1.000000
0.310000 0.662500 1.000000
0.478750 0.662500 1.000000
0.647500 0.662500 1.000000
0.816250 0.662500 1.000000
0.985000 0.662500 1.000000
0.310000 0.831250 1.000000
0.478750 0.831250 1.000000
0.647500 0.831250 1.000000
0.816250 0.831250 1.000000
0.985000 0.831250 1.000000
0.310000 1.000000 1.000000
0.478750 1.000000 1.000000
0.647500 1.000000 1.000000
0.816250 1.000000 1.000000
0.985000 1.000000 1.000000
