ios/AIPhotoCoach/Resources/LUTs/mono.cube
# Baseline LUT for FilterPreset 'mono' (单色).
# Generated by scripts/luts/gen_baseline_luts.py — replace with a
# hand-graded / commercial LUT keeping the same filename to upgrade.
TITLE "mono"
LUT_3D_SIZE 9
DOMAIN_MIN 0.0 0.0 0.0
DOMAIN_MAX 1.0 1.0 1.0
0.000000 0.000000 0.000000
0.000000 0.000000 0.000000
0.000037 0.000037 0.000037
0.003200 0.003200 0.003200
0.011250 0.011250 0.011250
0.023876 0.023876 0.023876
0.040771 0.040771 0.040771
0.061624 0.061624 0.061624
0.086127 0.086127 0.086127
0.005582 0.005582 0.005582
0.015333 0.015333 0.015333
0.029549 0.029549 0.029549
0.047921 0.047921 0.047921
0.070138 0.070138 0.070138
0.095894 0.095894 0.095894
0.124878 0.124878 0.124878
0.156782 0.156782 0.156782
0.191296 0.191296 0.191296
0.055580 0.055580 0.055580
0.079122 0.079122 0.079122
0.106088 0.106088 0.106088
0.136171 0.136171 0.136171
0.169061 0.169061 0.169061
0.204449 0.204449 0.204449
0.242027 0.242027 0.242027
0.281485 0.281485 0.281485
0.322514 0.322514 0.322514
0.147836 0.147836 0.147836
0.181672 0.181672 0.181672
0.217893 0.217893 0.217893
0.256191 0.256191 0.256191
0.296256 0.296256 0.296256
0.337781 0.337781 0.337781
0.380456 0.380456 0.380456
0.423971 0.423971 0.423971
0.468019 0.468019 0.468019
0.270589 0.270589 0.270589
0.311221 0.311221 0.311221
0.353200 0.353200 0.353200
0.396217 0.396217 0.396217
0.439962 0.439962 0.439962
0.484127 0.484127 0.484127
0.528403 0.528403 0.528403
0.572481 0.572481 0.572481
0.616051 0.616051 0.616051
0.412075 0.412075 0.412075
0.456009 0.456009 0.456009
0.500250 0.500250 0.500250
0.544489 0.544489 0.544489
0.588418 0.588418 0.588418
0.631727 0.631727 0.631727
0.674107 0.674107 0.674107
0.715250 0.715250 0.715250
0.754847 0.754847 0.754847
0.560534 0.560534 0.560534
0.604273 0.604273 0.604273
0.647280 0.647280 0.647280
0.689246 0.689246 0.689246
0.729861 0.729861 0.729861
0.768818 0.768818 0.768818
0.805807 0.805807 0.805807
0.840519 0.840519 0.840519
0.872645 0.872645 0.872645
0.704205 0.704205 0.704205
0.744252 0.744252 0.744252
0.782528 0.782528 0.782528
0.818724 0.818724 0.818724
0.852531 0.852531 0.852531
0.883639 0.883639 0.883639
0.911740 0.911740 0.911740
0.936525 0.936525 0.936525
0.957685 0.957685 0.957685
0.831325 0.831325 0.831325
0.864185 0.864185 0.864185
0.894234 0.894234 0.894234
0.921164 0.921164 0.921164
0.944665 0.944665 0.944665
0.964428 0.964428 0.964428
0.980145 0.980145 0.980145
0.991507 0.991507 0.991507
0.998205 0.998205 0.998205
0.000000 0.000000 0.000000
0.000000 0.000000 0.000000
0.000544 0.000544 0.000544
0.005402 0.005402 0.005402
0.015040 0.015040 0.015040
0.029151 0.029151 0.029151
0.047424 0.047424 0.047424
0.069552 0.069552 0.069552
0.095224 0.095224 0.095224
0.008374 0.008374 0.008374
0.019676 0.019676 0.019676
0.035338 0.035338 0.035338
0.055050 0.055050 0.055050
0.078504 0.078504 0.078504
0.105390 0.105390 0.105390
0.135401 0.135401 0.135401
0.168226 0.168226 0.168226
0.203556 0.203556 0.203556
0.063172 0.063172 0.063172
0.087911 0.087911 0.087911
0.115971 0.115971 0.115971
0.147041 0.147041 0.147041
0.180814 0.180814 0.180814
0.216981 0.216981 0.216981
0.255231 0.255231 0.255231
0.295258 0.295258 0.295258
0.336750 0.336750 0.336750
0.159040 0.159040 0.159040
0.193720 0.193720 0.193720
0.230681 0.230681 0.230681
0.269614 0.269614 0.269614
0.310210 0.310210 0.310210
0.352160 0.352160 0.352160
0.395155 0.395155 0.395155
0.438886 0.438886 0.438886
0.483045 0.483045 0.483045
0.284218 0.284218 0.284218
0.325342 0.325342 0.325342
0.367708 0.367708 0.367708
0.411007 0.411007 0.411007
0.454929 0.454929 0.454929
0.499167 0.499167 0.499167
0.543410 0.543410 0.543410
0.587350 0.587350 0.587350
0.630677 0.630677 0.630677
0.426942 0.426942 0.426942
0.471014 0.471014 0.471014
0.515290 0.515290 0.515290
0.559458 0.559458 0.559458
0.603211 0.603211 0.603211
0.646239 0.646239 0.646239
0.688234 0.688234 0.688234
0.728886 0.728886 0.728886
0.767887 0.767887 0.767887
0.575451 0.575451 0.575451
0.618976 0.618976 0.618976
0.661664 0.661664 0.661664
0.703206 0.703206 0.703206
0.743293 0.743293 0.743293
0.781616 0.781616 0.781616
0.817866 0.817866 0.817866
0.851735 0.851735 0.851735
0.882913 0.882913 0.882913
0.717985 0.717985 0.717985
0.757465 0.757465 0.757465
0.795069 0.795069 0.795069
0.830488 0.830488 0.830488
0.863413 0.863413 0.863413
0.893535 0.893535 0.893535
0.920545 0.920545 0.920545
0.944133 0.944133 0.944133
0.963992 0.963992 0.963992
0.842780 0.842780 0.842780
0.874720 0.874720 0.874720
0.903745 0.903745 0.903745
0.929545 0.929545 0.929545
0.951811 0.951811 0.951811
0.970235 0.970235 0.970235
0.984508 0.984508 0.984508
0.994320 0.994320 0.994320
0.999363 0.999363 0.999363
0.000000 0.000000 0.000000
0.000000 0.000000 0.000000
0.001638 0.001638 0.001638
0.008154 0.008154 0.008154
0.019346 0.019346 0.019346
0.034905 0.034905 0.034905
0.054522 0.054522 0.054522
0.077888 0.077888 0.077888
0.104694 0.104694 0.104694
0.011704 0.011704 0.011704
0.024521 0.024521 0.024521
0.041593 0.041593 0.041593
0.062611 0.062611 0.062611
0.087265 0.087265 0.087265
0.115247 0.115247 0.115247
0.146248 0.146248 0.146248
0.179959 0.179959 0.179959
0.216070 0.216070 0.216070
0.071182 0.071182 0.071182
0.097084 0.097084 0.097084
0.126200 0.126200 0.126200
0.158223 0.158223 0.158223
0.192844 0.192844 0.192844
0.229753 0.229753 0.229753
0.268641 0.268641 0.268641
0.309200 0.309200 0.309200
0.351120 0.351120 0.351120
0.170543 0.170543 0.170543
0.206032 0.206032 0.206032
0.243698 0.243698 0.243698
0.283230 0.283230 0.283230
0.324320 0.324320 0.324320
0.366660 0.366660 0.366660
0.409939 0.409939 0.409939
0.453850 0.453850 0.453850
0.498083 0.498083 0.498083
0.298025 0.298025 0.298025
0.339606 0.339606 0.339606
0.382324 0.382324 0.382324
0.425869 0.425869 0.425869
0.469933 0.469933 0.469933
0.514207 0.514207 0.514207
0.558381 0.558381 0.558381
0.602148 0.602148 0.602148
0.645198 0.645198 0.645198
0.441867 0.441867 0.441867
0.486043 0.486043 0.486043
0.530317 0.530317 0.530317
0.574379 0.574379 0.574379
0.617920 0.617920 0.617920
0.660632 0.660632 0.660632
0.702206 0.702206 0.702206
0.742332 0.742332 0.742332
0.780702 0.780702 0.780702
0.590307 0.590307 0.590307
0.633582 0.633582 0.633582
0.675916 0.675916 0.675916
0.716998 0.716998 0.716998
0.756521 0.756521 0.756521
0.794174 0.794174 0.794174
0.829651 0.829651 0.829651
0.862640 0.862640 0.862640
0.892834 0.892834 0.892834
0.731584 0.731584 0.731584
0.770462 0.770462 0.770462
0.807358 0.807358 0.807358
0.841965 0.841965 0.841965
0.873973 0.873973 0.873973
0.903072 0.903072 0.903072
0.928954 0.928954 0.928954
0.951311 0.951311 0.951311
0.969833 0.969833 0.969833
0.853935 0.853935 0.853935
0.884919 0.884919 0.884919
0.912884 0.912884 0.912884
0.937518 0.937518 0.937518
0.958514 0.958514 0.958514
0.975563 0.975563 0.975563
0.988356 0.988356 0.988356
0.996583 0.996583 0.996583
0.999936 0.999936 0.999936
0.000000 0.000000 0.000000
0.000049 0.000049 0.000049
0.003308 0.003308 0.003308
0.011446 0.011446 0.011446
0.024156 0.024156 0.024156
0.041127 0.041127 0.041127
0.062052 0.062052 0.062052
0.086621 0.086621 0.086621
0.114526 0.114526 0.114526
0.015560 0.015560 0.015560
0.029857 0.029857 0.029857
0.048304 0.048304 0.048304
0.070591 0.070591 0.070591
0.096410 0.096410 0.096410
0.125452 0.125452 0.125452
0.157408 0.157408 0.157408
0.191968 0.191968 0.191968
0.228825 0.228825 0.228825
0.079599 0.079599 0.079599
0.106627 0.106627 0.106627
0.136765 0.136765 0.136765
0.169705 0.169705 0.169705
0.205137 0.205137 0.205137
0.242753 0.242753 0.242753
0.282243 0.282243 0.282243
0.323299 0.323299 0.323299
0.365612 0.365612 0.365612
0.182332 0.182332 0.182332
0.218595 0.218595 0.218595
0.256929 0.256929 0.256929
0.297025 0.297025 0.297025
0.338574 0.338574 0.338574
0.381268 0.381268 0.381268
0.424796 0.424796 0.424796
0.468851 0.468851 0.468851
0.513124 0.513124 0.513124
0.312000 0.312000 0.312000
0.354001 0.354001 0.354001
0.397034 0.397034 0.397034
0.440790 0.440790 0.440790
0.484960 0.484960 0.484960
0.529235 0.529235 0.529235
0.573306 0.573306 0.573306
0.616864 0.616864 0.616864
0.659600 0.659600 0.659600
0.456839 0.456839 0.456839
0.501083 0.501083 0.501083
0.545320 0.545320 0.545320
0.589239 0.589239 0.589239
0.632534 0.632534 0.632534
0.674894 0.674894 0.674894
0.716011 0.716011 0.716011
0.755575 0.755575 0.755575
0.793278 0.793278 0.793278
0.605090 0.605090 0.605090
0.648080 0.648080 0.648080
0.690023 0.690023 0.690023
0.730610 0.730610 0.730610
0.769533 0.769533 0.769533
0.806482 0.806482 0.806482
0.841148 0.841148 0.841148
0.873223 0.873223 0.873223
0.902397 0.902397 0.902397
0.744990 0.744990 0.744990
0.783230 0.783230 0.783230
0.819383 0.819383 0.819383
0.853142 0.853142 0.853142
0.884196 0.884196 0.884196
0.912238 0.912238 0.912238
0.936958 0.936958 0.936958
0.958047 0.958047 0.958047
0.975196 0.975196 0.975196
0.864777 0.864777 0.864777
0.894770 0.894770 0.894770
0.921638 0.921638 0.921638
0.945072 0.945072 0.945072
0.964762 0.964762 0.964762
0.980400 0.980400 0.980400
0.991677 0.991677 0.991677
0.998284 0.998284 0.998284
1.000000 1.000000 1.000000
0.000000 0.000000 0.000000
0.000589 0.000589 0.000589
0.005540 0.005540 0.005540
0.015265 0.015265 0.015265
0.029457 0.029457 0.029457
0.047806 0.047806 0.047806
0.070003 0.070003 0.070003
0.095739 0.095739 0.095739
0.124706 0.124706 0.124706
0.019931 0.019931 0.019931
0.035672 0.035672 0.035672
0.055458 0.055458 0.055458
0.078979 0.078979 0.078979
0.105927 0.105927 0.105927
0.135993 0.135993 0.135993
0.168868 0.168868 0.168868
0.204243 0.204243 0.204243
0.241809 0.241809 0.241809
0.088409 0.088409 0.088409
0.116528 0.116528 0.116528
0.147653 0.147653 0.147653
0.181474 0.181474 0.181474
0.217682 0.217682 0.217682
0.255969 0.255969 0.255969
0.296026 0.296026 0.296026
0.337543 0.337543 0.337543
0.380212 0.380212 0.380212
0.194396 0.194396 0.194396
0.231397 0.231397 0.231397
0.270364 0.270364 0.270364
0.310988 0.310988 0.310988
0.352960 0.352960 0.352960
0.395972 0.395972 0.395972
0.439714 0.439714 0.439714
0.483877 0.483877 0.483877
0.528153 0.528153 0.528153
0.326129 0.326129 0.326129
0.368515 0.368515 0.368515
0.411829 0.411829 0.411829
0.455760 0.455760 0.455760
0.500000 0.500000 0.500000
0.544240 0.544240 0.544240
0.588171 0.588171 0.588171
0.631485 0.631485 0.631485
0.673871 0.673871 0.673871
0.471847 0.471847 0.471847
0.516123 0.516123 0.516123
0.560286 0.560286 0.560286
0.604028 0.604028 0.604028
0.647040 0.647040 0.647040
0.689012 0.689012 0.689012
0.729636 0.729636 0.729636
0.768603 0.768603 0.768603
0.805604 0.805604 0.805604
0.619788 0.619788 0.619788
0.662457 0.662457 0.662457
0.703974 0.703974 0.703974
0.744031 0.744031 0.744031
0.782318 0.782318 0.782318
0.818526 0.818526 0.818526
0.852347 0.852347 0.852347
0.883472 0.883472 0.883472
0.911591 0.911591 0.911591
0.758191 0.758191 0.758191
0.795757 0.795757 0.795757
0.831132 0.831132 0.831132
0.864007 0.864007 0.864007
0.894073 0.894073 0.894073
0.921021 0.921021 0.921021
0.944542 0.944542 0.944542
0.964328 0.964328 0.964328
0.980069 0.980069 0.980069
0.875294 0.875294 0.875294
0.904261 0.904261 0.904261
0.929997 0.929997 0.929997
0.952194 0.952194 0.952194
0.970543 0.970543 0.970543
0.984735 0.984735 0.984735
0.994460 0.994460 0.994460
0.999411 0.999411 0.999411
1.000000 1.000000 1.000000
0.000000 0.000000 0.000000
0.001716 0.001716 0.001716
0.008323 0.008323 0.008323
0.019600 0.019600 0.019600
0.035238 0.035238 0.035238
0.054928 0.054928 0.054928
0.078362 0.078362 0.078362
0.105230 0.105230 0.105230
0.135223 0.135223 0.135223
0.024804 0.024804 0.024804
0.041953 0.041953 0.041953
0.063042 0.063042 0.063042
0.087762 0.087762 0.087762
0.115804 0.115804 0.115804
0.146858 0.146858 0.146858
0.180617 0.180617 0.180617
0.216770 0.216770 0.216770
0.255010 0.255010 0.255010
0.097603 0.097603 0.097603
0.126777 0.126777 0.126777
0.158852 0.158852 0.158852
0.193518 0.193518 0.193518
0.230467 0.230467 0.230467
0.269390 0.269390 0.269390
0.309977 0.309977 0.309977
0.351920 0.351920 0.351920
0.394910 0.394910 0.394910
0.206722 0.206722 0.206722
0.244425 0.244425 0.244425
0.283989 0.283989 0.283989
0.325106 0.325106 0.325106
0.367466 0.367466 0.367466
0.410761 0.410761 0.410761
0.454680 0.454680 0.454680
0.498917 0.498917 0.498917
0.543161 0.543161 0.543161
0.340400 0.340400 0.340400
0.383136 0.383136 0.383136
0.426694 0.426694 0.426694
0.470765 0.470765 0.470765
0.515040 0.515040 0.515040
0.559210 0.559210 0.559210
0.602966 0.602966 0.602966
0.645999 0.645999 0.645999
0.688000 0.688000 0.688000
0.486876 0.486876 0.486876
0.531149 0.531149 0.531149
0.575204 0.575204 0.575204
0.618732 0.618732 0.618732
0.661426 0.661426 0.661426
0.702975 0.702975 0.702975
0.743071 0.743071 0.743071
0.781405 0.781405 0.781405
0.817668 0.817668 0.817668
0.634388 0.634388 0.634388
0.676701 0.676701 0.676701
0.717757 0.717757 0.717757
0.757247 0.757247 0.757247
0.794863 0.794863 0.794863
0.830295 0.830295 0.830295
0.863235 0.863235 0.863235
0.893373 0.893373 0.893373
0.920401 0.920401 0.920401
0.771175 0.771175 0.771175
0.808032 0.808032 0.808032
0.842592 0.842592 0.842592
0.874548 0.874548 0.874548
0.903590 0.903590 0.903590
0.929409 0.929409 0.929409
0.951696 0.951696 0.951696
0.970143 0.970143 0.970143
0.984440 0.984440 0.984440
0.885474 0.885474 0.885474
0.913379 0.913379 0.913379
0.937948 0.937948 0.937948
0.958873 0.958873 0.958873
0.975844 0.975844 0.975844
0.988554 0.988554 0.988554
0.996692 0.996692 0.996692
0.999951 0.999951 0.999951
1.000000 1.000000 1.000000
0.000064 0.000064 0.000064
0.003417 0.003417 0.003417
0.011644 0.011644 0.011644
0.024437 0.024437 0.024437
0.041486 0.041486 0.041486
0.062482 0.062482 0.062482
0.087116 0.087116 0.087116
0.115081 0.115081 0.115081
0.146065 0.146065 0.146065
0.030167 0.030167 0.030167
0.048689 0.048689 0.048689
0.071046 0.071046 0.071046
0.096928 0.096928 0.096928
0.126027 0.126027 0.126027
0.158035 0.158035 0.158035
0.192642 0.192642 0.192642
0.229538 0.229538 0.229538
0.268416 0.268416 0.268416
0.107166 0.107166 0.107166
0.137360 0.137360 0.137360
0.170349 0.170349 0.170349
0.205826 0.205826 0.205826
0.243479 0.243479 0.243479
0.283002 0.283002 0.283002
0.324084 0.324084 0.324084
0.366418 0.366418 0.366418
0.409693 0.409693 0.409693
0.219298 0.219298 0.219298
0.257668 0.257668 0.257668
0.297794 0.297794 0.297794
0.339368 0.339368 0.339368
0.382080 0.382080 0.382080
0.425621 0.425621 0.425621
0.469683 0.469683 0.469683
0.513957 0.513957 0.513957
0.558133 0.558133 0.558133
0.354802 0.354802 0.354802
0.397852 0.397852 0.397852
0.441619 0.441619 0.441619
0.485793 0.485793 0.485793
0.530067 0.530067 0.530067
0.574131 0.574131 0.574131
0.617676 0.617676 0.617676
0.660394 0.660394 0.660394
0.701975 0.701975 0.701975
0.501917 0.501917 0.501917
0.546150 0.546150 0.546150
0.590061 0.590061 0.590061
0.633340 0.633340 0.633340
0.675680 0.675680 0.675680
0.716770 0.716770 0.716770
0.756302 0.756302 0.756302
0.793968 0.793968 0.793968
0.829457 0.829457 0.829457
0.648880 0.648880 0.648880
0.690800 0.690800 0.690800
0.731359 0.731359 0.731359
0.770247 0.770247 0.770247
0.807156 0.807156 0.807156
0.841777 0.841777 0.841777
0.873800 0.873800 0.873800
0.902916 0.902916 0.902916
0.928818 0.928818 0.928818
0.783930 0.783930 0.783930
0.820041 0.820041 0.820041
0.853752 0.853752 0.853752
0.884753 0.884753 0.884753
0.912735 0.912735 0.912735
0.937389 0.937389 0.937389
0.958407 0.958407 0.958407
0.975479 0.975479 0.975479
0.988296 0.988296 0.988296
0.895306 0.895306 0.895306
0.922112 0.922112 0.922112
0.945478 0.945478 0.945478
0.965095 0.965095 0.965095
0.980654 0.980654 0.980654
0.991846 0.991846 0.991846
0.998362 0.998362 0.998362
1.000000 1.000000 1.000000
1.000000 1.000000 1.000000
0.000637 0.000637 0.000637
0.005680 0.005680 0.005680
0.015492 0.015492 0.015492
0.029765 0.029765 0.029765
0.048189 0.048189 0.048189
0.070455 0.070455 0.070455
0.096255 0.096255 0.096255
0.125280 0.125280 0.125280
0.157220 0.157220 0.157220
0.036008 0.036008 0.036008
0.055867 0.055867 0.055867
0.079455 0.079455 0.079455
0.106465 0.106465 0.106465
0.136587 0.136587 0.136587
0.169512 0.169512 0.169512
0.204931 0.204931 0.204931
0.242535 0.242535 0.242535
0.282015 0.282015 0.282015
0.117087 0.117087 0.117087
0.148265 0.148265 0.148265
0.182134 0.182134 0.182134
0.218384 0.218384 0.218384
0.256707 0.256707 0.256707
0.296794 0.296794 0.296794
0.338336 0.338336 0.338336
0.381024 0.381024 0.381024
0.424549 0.424549 0.424549
0.232113 0.232113 0.232113
0.271114 0.271114 0.271114
0.311766 0.311766 0.311766
0.353761 0.353761 0.353761
0.396789 0.396789 0.396789
0.440542 0.440542 0.440542
0.484710 0.484710 0.484710
0.528986 0.528986 0.528986
0.573058 0.573058 0.573058
0.369323 0.369323 0.369323
0.412650 0.412650 0.412650
0.456590 0.456590 0.456590
0.500833 0.500833 0.500833
0.545071 0.545071 0.545071
0.588993 0.588993 0.588993
0.632292 0.632292 0.632292
0.674658 0.674658 0.674658
0.715782 0.715782 0.715782
0.516955 0.516955 0.516955
0.561114 0.561114 0.561114
0.604845 0.604845 0.604845
0.647840 0.647840 0.647840
0.689790 0.689790 0.689790
0.730386 0.730386 0.730386
0.769319 0.769319 0.769319
0.806280 0.806280 0.806280
0.840960 0.840960 0.840960
0.663250 0.663250 0.663250
0.704742 0.704742 0.704742
0.744769 0.744769 0.744769
0.783019 0.783019 0.783019
0.819186 0.819186 0.819186
0.852959 0.852959 0.852959
0.884029 0.884029 0.884029
0.912089 0.912089 0.912089
0.936828 0.936828 0.936828
0.796444 0.796444 0.796444
0.831774 0.831774 0.831774
0.864599 0.864599 0.864599
0.894610 0.894610 0.894610
0.921496 0.921496 0.921496
0.944950 0.944950 0.944950
0.964662 0.964662 0.964662
0.980324 0.980324 0.980324
0.991626 0.991626 0.991626
0.904776 0.904776 0.904776
0.930448 0.930448 0.930448
0.952576 0.952576 0.952576
0.970849 0.970849 0.970849
0.984960 0.984960 0.984960
0.994598 0.994598 0.994598
0.999456 0.999456 0.999456
1.000000 1.000000 1.000000
1.000000 1.000000 1.000000
0.001795 0.001795 0.001795
0.008493 0.008493 0.008493
0.019855 0.019855 0.019855
0.035572 0.035572 0.035572
0.055335 0.055335 0.055335
0.078836 0.078836 0.078836
0.105766 0.105766 0.105766
0.135815 0.135815 0.135815
0.168675 0.168675 0.168675
0.042315 0.042315 0.042315
0.063475 0.063475 0.063475
0.088260 0.088260 0.088260
0.116361 0.116361 0.116361
0.147469 0.147469 0.147469
0.181276 0.181276 0.181276
0.217472 0.217472 0.217472
0.255748 0.255748 0.255748
0.295795 0.295795 0.295795
0.127355 0.127355 0.127355
0.159481 0.159481 0.159481
0.194193 0.194193 0.194193
0.231182 0.231182 0.231182
0.270139 0.270139 0.270139
0.310754 0.310754 0.310754
0.352720 0.352720 0.352720
0.395727 0.395727 0.395727
0.439466 0.439466 0.439466
0.245153 0.245153 0.245153
0.284750 0.284750 0.284750
0.325893 0.325893 0.325893
0.368273 0.368273 0.368273
0.411582 0.411582 0.411582
0.455511 0.455511 0.455511
0.499750 0.499750 0.499750
0.543991 0.543991 0.543991
0.587925 0.587925 0.587925
0.383949 0.383949 0.383949
0.427519 0.427519 0.427519
0.471597 0.471597 0.471597
0.515873 0.515873 0.515873
0.560038 0.560038 0.560038
0.603783 0.603783 0.603783
0.646800 0.646800 0.646800
0.688779 0.688779 0.688779
0.729411 0.729411 0.729411
0.531981 0.531981 0.531981
0.576029 0.576029 0.576029
0.619544 0.619544 0.619544
0.662219 0.662219 0.662219
0.703744 0.703744 0.703744
0.743809 0.743809 0.743809
0.782107 0.782107 0.782107
0.818328 0.818328 0.818328
0.852164 0.852164 0.852164
0.677486 0.677486 0.677486
0.718515 0.718515 0.718515
0.757973 0.757973 0.757973
0.795551 0.795551 0.795551
0.830939 0.830939 0.830939
0.863829 0.863829 0.863829
0.893912 0.893912 0.893912
0.920878 0.920878 0.920878
0.944420 0.944420 0.944420
0.808704 0.808704 0.808704
0.843218 0.843218 0.843218
0.875122 0.875122 0.875122
0.904106 0.904106 0.904106
0.929862 0.929862 0.929862
0.952079 0.952079 0.952079
0.970451 0.970451 0.970451
0.984667 0.984667 0.984667
0.994418 0.994418 0.994418
0.913873 0.913873 0.913873
0.938376 0.938376 0.938376
0.959229 0.959229 0.959229
0.976124 0.976124 0.976124
0.988750 0.988750 0.988750
0.996800 0.996800 0.996800
0.999963 0.999963 0.999963
1.000000 1.000000 1.000000
1.000000 1.000000 1.000000
