ios/AIPhotoCoach/Resources/LUTs/mono.cube
# Baseline LUT for FilterPreset 'mono' (单色).
# Generated by scripts/luts/gen_baseline_luts.py — replace with a
# hand-graded / commercial LUT keeping the same filename to upgrade.
TITLE "mono"
LUT_3D_SIZE 17
DOMAIN_MIN 0.0 0.0 0.0
DOMAIN_MAX 1.0 1.0 1.0
0.000000 0.000000 0.000000
0.000000 0.000000 0.000000
0.000000 0.000000 0.000000
0.000000 0.000000 0.000000
0.000037 0.000037 0.000037
0.000989 0.000989 0.000989
0.003200 0.003200 0.003200
0.006634 0.006634 0.006634
0.011250 0.011250 0.011250
0.017010 0.017010 0.017010
0.023876 0.023876 0.023876
0.031809 0.031809 0.031809
0.040771 0.040771 0.040771
0.050722 0.050722 0.050722
0.061624 0.061624 0.061624
0.073439 0.073439 0.073439
0.086127 0.086127 0.086127
0.000000 0.000000 0.000000
0.000235 0.000235 0.000235
0.001650 0.001650 0.001650
0.004311 0.004311 0.004311
0.008180 0.008180 0.008180
0.013217 0.013217 0.013217
0.019384 0.019384 0.019384
0.026643 0.026643 0.026643
0.034955 0.034955 0.034955
0.044281 0.044281 0.044281
0.054583 0.054583 0.054583
0.065822 0.065822 0.065822
0.077959 0.077959 0.077959
0.090956 0.090956 0.090956
0.104775 0.104775 0.104775
0.119375 0.119375 0.119375
0.134720 0.134720 0.134720
0.005582 0.005582 0.005582
0.009880 0.009880 0.009880
0.015333 0.015333 0.015333
0.021903 0.021903 0.021903
0.029549 0.029549 0.029549
0.038235 0.038235 0.038235
0.047921 0.047921 0.047921
0.058568 0.058568 0.058568
0.070138 0.070138 0.070138
0.082593 0.082593 0.082593
0.095894 0.095894 0.095894
0.110002 0.110002 0.110002
0.124878 0.124878 0.124878
0.140484 0.140484 0.140484
0.156782 0.156782 0.156782
0.173732 0.173732 0.173732
0.191296 0.191296 0.191296
0.024564 0.024564 0.024564
0.032593 0.032593 0.032593
0.041647 0.041647 0.041647
0.051688 0.051688 0.051688
0.062676 0.062676 0.062676
0.074572 0.074572 0.074572
0.087340 0.087340 0.087340
0.100939 0.100939 0.100939
0.115331 0.115331 0.115331
0.130477 0.130477 0.130477
0.146339 0.146339 0.146339
0.162879 0.162879 0.162879
0.180057 0.180057 0.180057
0.197835 0.197835 0.197835
0.216175 0.216175 0.216175
0.235037 0.235037 0.235037
0.254384 0.254384 0.254384
0.055580 0.055580 0.055580
0.066904 0.066904 0.066904
0.079122 0.079122 0.079122
0.092196 0.092196 0.092196
0.106088 0.106088 0.106088
0.120760 0.120760 0.120760
0.136171 0.136171 0.136171
0.152285 0.152285 0.152285
0.169061 0.169061 0.169061
0.186462 0.186462 0.186462
0.204449 0.204449 0.204449
0.222984 0.222984 0.222984
0.242027 0.242027 0.242027
0.261540 0.261540 0.261540
0.281485 0.281485 0.281485
0.301822 0.301822 0.301822
0.322514 0.322514 0.322514
0.097161 0.097161 0.097161
0.111342 0.111342 0.111342
0.126287 0.126287 0.126287
0.141958 0.141958 0.141958
0.158318 0.158318 0.158318
0.175326 0.175326 0.175326
0.192945 0.192945 0.192945
0.211136 0.211136 0.211136
0.229860 0.229860 0.229860
0.249078 0.249078 0.249078
0.268753 0.268753 0.268753
0.288845 0.288845 0.288845
0.309316 0.309316 0.309316
0.330127 0.330127 0.330127
0.351240 0.351240 0.351240
0.372616 0.372616 0.372616
0.394216 0.394216 0.394216
0.147836 0.147836 0.147836
0.164437 0.164437 0.164437
0.181672 0.181672 0.181672
0.199503 0.199503 0.199503
0.217893 0.217893 0.217893
0.236801 0.236801 0.236801
0.256191 0.256191 0.256191
0.276022 0.276022 0.276022
0.296256 0.296256 0.296256
0.316856 0.316856 0.316856
0.337781 0.337781 0.337781
0.358994 0.358994 0.358994
0.380456 0.380456 0.380456
0.402128 0.402128 0.402128
0.423971 0.423971 0.423971
0.445948 0.445948 0.445948
0.468019 0.468019 0.468019
0.206136 0.206136 0.206136
0.224719 0.224719 0.224719
0.243807 0.243807 0.243807
0.263361 0.263361 0.263361
0.283344 0.283344 0.283344
0.303716 0.303716 0.303716
0.324438 0.324438 0.324438
0.345473 0.345473 0.345473
0.366781 0.366781 0.366781
0.388323 0.388323 0.388323
0.410062 0.410062 0.410062
0.431959 0.431959 0.431959
0.453975 0.453975 0.453975
0.476071 0.476071 0.476071
0.498208 0.498208 0.498208
0.520349 0.520349 0.520349
0.542455 0.542455 0.542455
0.270589 0.270589 0.270589
0.290717 0.290717 0.290717
0.311221 0.311221 0.311221
0.332062 0.332062 0.332062
0.353200 0.353200 0.353200
0.374598 0.374598 0.374598
0.396217 0.396217 0.396217
0.418018 0.418018 0.418018
0.439962 0.439962 0.439962
0.462012 0.462012 0.462012
0.484127 0.484127 0.484127
0.506271 0.506271 0.506271
0.528403 0.528403 0.528403
0.550486 0.550486 0.550486
0.572481 0.572481 0.572481
0.594348 0.594348 0.594348
0.616051 0.616051 0.616051
0.339725 0.339725 0.339725
0.360963 0.360963 0.360963
0.382445 0.382445 0.382445
0.404135 0.404135 0.404135
0.425993 0.425993 0.425993
0.447980 0.447980 0.447980
0.470058 0.470058 0.470058
0.492188 0.492188 0.492188
0.514332 0.514332 0.514332
0.536450 0.536450 0.536450
0.558506 0.558506 0.558506
0.580459 0.580459 0.580459
0.602271 0.602271 0.602271
0.623903 0.623903 0.623903
0.645318 0.645318 0.645318
0.666476 0.666476 0.666476
0.687338 0.687338 0.687338
0.412075 0.412075 0.412075
0.433984 0.433984 0.433984
0.456009 0.456009 0.456009
0.478110 0.478110 0.478110
0.500250 0.500250 0.500250
0.522389 0.522389 0.522389
0.544489 0.544489 0.544489
0.566512 0.566512 0.566512
0.588418 0.588418 0.588418
0.610169 0.610169 0.610169
0.631727 0.631727 0.631727
0.653053 0.653053 0.653053
0.674107 0.674107 0.674107
0.694853 0.694853 0.694853
0.715250 0.715250 0.715250
0.735261 0.735261 0.735261
0.754847 0.754847 0.754847
0.486168 0.486168 0.486168
0.508312 0.508312 0.508312
0.530442 0.530442 0.530442
0.552518 0.552518 0.552518
0.574502 0.574502 0.574502
0.596357 0.596357 0.596357
0.618042 0.618042 0.618042
0.639520 0.639520 0.639520
0.660751 0.660751 0.660751
0.681698 0.681698 0.681698
0.702321 0.702321 0.702321
0.722582 0.722582 0.722582
0.742443 0.742443 0.742443
0.761864 0.761864 0.761864
0.780807 0.780807 0.780807
0.799234 0.799234 0.799234
0.817106 0.817106 0.817106
0.560534 0.560534 0.560534
0.582476 0.582476 0.582476
0.604273 0.604273 0.604273
0.625887 0.625887 0.625887
0.647280 0.647280 0.647280
0.668412 0.668412 0.668412
0.689246 0.689246 0.689246
0.709741 0.709741 0.709741
0.729861 0.729861 0.729861
0.749566 0.749566 0.749566
0.768818 0.768818 0.768818
0.787578 0.787578 0.787578
0.805807 0.805807 0.805807
0.823467 0.823467 0.823467
0.840519 0.840519 0.840519
0.856925 0.856925 0.856925
0.872645 0.872645 0.872645
0.633703 0.633703 0.633703
0.655006 0.655006 0.655006
0.676033 0.676033 0.676033
0.696748 0.696748 0.696748
0.717112 0.717112 0.717112
0.737085 0.737085 0.737085
0.756630 0.756630 0.756630
0.775707 0.775707 0.775707
0.794278 0.794278 0.794278
0.812304 0.812304 0.812304
0.829747 0.829747 0.829747
0.846569 0.846569 0.846569
0.862729 0.862729 0.862729
0.878191 0.878191 0.878191
0.892915 0.892915 0.892915
0.906863 0.906863 0.906863
0.919995 0.919995 0.919995
0.704205 0.704205 0.704205
0.724431 0.724431 0.724431
0.744252 0.744252 0.744252
0.763631 0.763631 0.763631
0.782528 0.782528 0.782528
0.800906 0.800906 0.800906
0.818724 0.818724 0.818724
0.835945 0.835945 0.835945
0.852531 0.852531 0.852531
0.868441 0.868441 0.868441
0.883639 0.883639 0.883639
0.898085 0.898085 0.898085
0.911740 0.911740 0.911740
0.924566 0.924566 0.924566
0.936525 0.936525 0.936525
0.947578 0.947578 0.947578
0.957685 0.957685 0.957685
0.770569 0.770569 0.770569
0.789281 0.789281 0.789281
0.807459 0.807459 0.807459
0.825065 0.825065 0.825065
0.842059 0.842059 0.842059
0.858403 0.858403 0.858403
0.874059 0.874059 0.874059
0.888987 0.888987 0.888987
0.903150 0.903150 0.903150
0.916508 0.916508 0.916508
0.929023 0.929023 0.929023
0.940656 0.940656 0.940656
0.951369 0.951369 0.951369
0.961123 0.961123 0.961123
0.969879 0.969879 0.969879
0.977600 0.977600 0.977600
0.984245 0.984245 0.984245
0.831325 0.831325 0.831325
0.848087 0.848087 0.848087
0.864185 0.864185 0.864185
0.879580 0.879580 0.879580
0.894234 0.894234 0.894234
0.908108 0.908108 0.908108
0.921164 0.921164 0.921164
0.933362 0.933362 0.933362
0.944665 0.944665 0.944665
0.955033 0.955033 0.955033
0.964428 0.964428 0.964428
0.972812 0.972812 0.972812
0.980145 0.980145 0.980145
0.986390 0.986390 0.986390
0.991507 0.991507 0.991507
0.995458 0.995458 0.995458
0.998205 0.998205 0.998205
0.000000 0.000000 0.000000
0.000000 0.000000 0.000000
0.000000 0.000000 0.000000
0.000000 0.000000 0.000000
0.000216 0.000216 0.000216
0.001600 0.001600 0.001600
0.004231 0.004231 0.004231
0.008071 0.008071 0.008071
0.013080 0.013080 0.013080
0.019220 0.019220 0.019220
0.026453 0.026453 0.026453
0.034739 0.034739 0.034739
0.044041 0.044041 0.044041
0.054319 0.054319 0.054319
0.065536 0.065536 0.065536
0.077652 0.077652 0.077652
0.090628 0.090628 0.090628
0.000000 0.000000 0.000000
0.000573 0.000573 0.000573
0.002416 0.002416 0.002416
0.005491 0.005491 0.005491
0.009761 0.009761 0.009761
0.015186 0.015186 0.015186
0.021729 0.021729 0.021729
0.029350 0.029350 0.029350
0.038010 0.038010 0.038010
0.047672 0.047672 0.047672
0.058296 0.058296 0.058296
0.069845 0.069845 0.069845
0.082278 0.082278 0.082278
0.095559 0.095559 0.095559
0.109647 0.109647 0.109647
0.124505 0.124505 0.124505
0.140094 0.140094 0.140094
0.006910 0.006910 0.006910
0.011604 0.011604 0.011604
0.017441 0.017441 0.017441
0.024380 0.024380 0.024380
0.032384 0.032384 0.032384
0.041414 0.041414 0.041414
0.051431 0.051431 0.051431
0.062396 0.062396 0.062396
0.074271 0.074271 0.074271
0.087017 0.087017 0.087017
0.100596 0.100596 0.100596
0.114969 0.114969 0.114969
0.130098 0.130098 0.130098
0.145943 0.145943 0.145943
0.162467 0.162467 0.162467
0.179630 0.179630 0.179630
0.197394 0.197394 0.197394
0.027173 0.027173 0.027173
0.035555 0.035555 0.035555
0.044948 0.044948 0.044948
0.055315 0.055315 0.055315
0.066616 0.066616 0.066616
0.078813 0.078813 0.078813
0.091867 0.091867 0.091867
0.105739 0.105739 0.105739
0.120392 0.120392 0.120392
0.135786 0.135786 0.135786
0.151882 0.151882 0.151882
0.168643 0.168643 0.168643
0.186029 0.186029 0.186029
0.204003 0.204003 0.204003
0.222524 0.222524 0.222524
0.241555 0.241555 0.241555
0.261057 0.261057 0.261057
0.059323 0.059323 0.059323
0.070955 0.070955 0.070955
0.083468 0.083468 0.083468
0.096824 0.096824 0.096824
0.110985 0.110985 0.110985
0.125912 0.125912 0.125912
0.141567 0.141567 0.141567
0.157909 0.157909 0.157909
0.174902 0.174902 0.174902
0.192507 0.192507 0.192507
0.210684 0.210684 0.210684
0.229396 0.229396 0.229396
0.248603 0.248603 0.248603
0.268267 0.268267 0.268267
0.288349 0.288349 0.288349
0.308811 0.308811 0.308811
0.329615 0.329615 0.329615
0.101889 0.101889 0.101889
0.116333 0.116333 0.116333
0.131529 0.131529 0.131529
0.147439 0.147439 0.147439
0.164023 0.164023 0.164023
0.181243 0.181243 0.181243
0.199060 0.199060 0.199060
0.217437 0.217437 0.217437
0.236333 0.236333 0.236333
0.255711 0.255711 0.255711
0.275532 0.275532 0.275532
0.295757 0.295757 0.295757
0.316348 0.316348 0.316348
0.337266 0.337266 0.337266
0.358472 0.358472 0.358472
0.379928 0.379928 0.379928
0.401595 0.401595 0.401595
0.153400 0.153400 0.153400
0.170220 0.170220 0.170220
0.187662 0.187662 0.187662
0.205688 0.205688 0.205688
0.224258 0.224258 0.224258
0.243334 0.243334 0.243334
0.262878 0.262878 0.262878
0.282850 0.282850 0.282850
0.303213 0.303213 0.303213
0.323927 0.323927 0.323927
0.344955 0.344955 0.344955
0.366256 0.366256 0.366256
0.387794 0.387794 0.387794
0.409529 0.409529 0.409529
0.431422 0.431422 0.431422
0.453435 0.453435 0.453435
0.475530 0.475530 0.475530
0.212387 0.212387 0.212387
0.231146 0.231146 0.231146
0.250397 0.250397 0.250397
0.270101 0.270101 0.270101
0.290220 0.290220 0.290220
0.310716 0.310716 0.310716
0.331548 0.331548 0.331548
0.352680 0.352680 0.352680
0.374072 0.374072 0.374072
0.395686 0.395686 0.395686
0.417483 0.417483 0.417483
0.439424 0.439424 0.439424
0.461471 0.461471 0.461471
0.483586 0.483586 0.483586
0.505729 0.505729 0.505729
0.527862 0.527862 0.527862
0.549947 0.549947 0.549947
0.277380 0.277380 0.277380
0.297640 0.297640 0.297640
0.318263 0.318263 0.318263
0.339209 0.339209 0.339209
0.360440 0.360440 0.360440
0.381917 0.381917 0.381917
0.403602 0.403602 0.403602
0.425456 0.425456 0.425456
0.447441 0.447441 0.447441
0.469517 0.469517 0.469517
0.491646 0.491646 0.491646
0.513790 0.513790 0.513790
0.535910 0.535910 0.535910
0.557967 0.557967 0.557967
0.579923 0.579923 0.579923
0.601739 0.601739 0.601739
0.623377 0.623377 0.623377
0.346908 0.346908 0.346908
0.368233 0.368233 0.368233
0.389790 0.389790 0.389790
0.411541 0.411541 0.411541
0.433447 0.433447 0.433447
0.455469 0.455469 0.455469
0.477569 0.477569 0.477569
0.499708 0.499708 0.499708
0.521848 0.521848 0.521848
0.543950 0.543950 0.543950
0.565974 0.565974 0.565974
0.587884 0.587884 0.587884
0.609639 0.609639 0.609639
0.631202 0.631202 0.631202
0.652534 0.652534 0.652534
0.673596 0.673596 0.673596
0.694349 0.694349 0.694349
0.419500 0.419500 0.419500
0.441453 0.441453 0.441453
0.463508 0.463508 0.463508
0.485627 0.485627 0.485627
0.507771 0.507771 0.507771
0.529901 0.529901 0.529901
0.551979 0.551979 0.551979
0.573966 0.573966 0.573966
0.595824 0.595824 0.595824
0.617514 0.617514 0.617514
0.638997 0.638997 0.638997
0.660235 0.660235 0.660235
0.681189 0.681189 0.681189
0.701821 0.701821 0.701821
0.722091 0.722091 0.722091
0.741962 0.741962 0.741962
0.761395 0.761395 0.761395
0.493688 0.493688 0.493688
0.515831 0.515831 0.515831
0.537947 0.537947 0.537947
0.559996 0.559996 0.559996
0.581941 0.581941 0.581941
0.603742 0.603742 0.603742
0.625361 0.625361 0.625361
0.646760 0.646760 0.646760
0.667899 0.667899 0.667899
0.688740 0.688740 0.688740
0.709244 0.709244 0.709244
0.729374 0.729374 0.729374
0.749090 0.749090 0.749090
0.768353 0.768353 0.768353
0.787125 0.787125 0.787125
0.805368 0.805368 0.805368
0.823042 0.823042 0.823042
0.568000 0.568000 0.568000
0.589897 0.589897 0.589897
0.611636 0.611636 0.611636
0.633179 0.633179 0.633179
0.654488 0.654488 0.654488
0.675523 0.675523 0.675523
0.696246 0.696246 0.696246
0.716618 0.716618 0.716618
0.736602 0.736602 0.736602
0.756157 0.756157 0.756157
0.775246 0.775246 0.775246
0.793830 0.793830 0.793830
0.811870 0.811870 0.811870
0.829328 0.829328 0.829328
0.846165 0.846165 0.846165
0.862342 0.862342 0.862342
0.877822 0.877822 0.877822
0.640966 0.640966 0.640966
0.662179 0.662179 0.662179
0.683105 0.683105 0.683105
0.703705 0.703705 0.703705
0.723941 0.723941 0.723941
0.743773 0.743773 0.743773
0.763163 0.763163 0.763163
0.782072 0.782072 0.782072
0.800463 0.800463 0.800463
0.818295 0.818295 0.818295
0.835532 0.835532 0.835532
0.852133 0.852133 0.852133
0.868061 0.868061 0.868061
0.883276 0.883276 0.883276
0.897741 0.897741 0.897741
0.911416 0.911416 0.911416
0.924263 0.924263 0.924263
0.711116 0.711116 0.711116
0.731209 0.731209 0.731209
0.750885 0.750885 0.750885
0.770105 0.770105 0.770105
0.788830 0.788830 0.788830
0.807021 0.807021 0.807021
0.824641 0.824641 0.824641
0.841651 0.841651 0.841651
0.858012 0.858012 0.858012
0.873684 0.873684 0.873684
0.888631 0.888631 0.888631
0.902813 0.902813 0.902813
0.916191 0.916191 0.916191
0.928727 0.928727 0.928727
0.940382 0.940382 0.940382
0.951118 0.951118 0.951118
0.960896 0.960896 0.960896
0.776981 0.776981 0.776981
0.795516 0.795516 0.795516
0.813504 0.813504 0.813504
0.830907 0.830907 0.830907
0.847685 0.847685 0.847685
0.863799 0.863799 0.863799
0.879212 0.879212 0.879212
0.893885 0.893885 0.893885
0.907778 0.907778 0.907778
0.920854 0.920854 0.920854
0.933074 0.933074 0.933074
0.944399 0.944399 0.944399
0.954791 0.954791 0.954791
0.964210 0.964210 0.964210
0.972619 0.972619 0.972619
0.979979 0.979979 0.979979
0.986251 0.986251 0.986251
0.837089 0.837089 0.837089
0.853630 0.853630 0.853630
0.869494 0.869494 0.869494
0.884642 0.884642 0.884642
0.899035 0.899035 0.899035
0.912636 0.912636 0.912636
0.925404 0.925404 0.925404
0.937303 0.937303 0.937303
0.948293 0.948293 0.948293
0.958335 0.958335 0.958335
0.967391 0.967391 0.967391
0.975422 0.975422 0.975422
0.982390 0.982390 0.982390
0.988256 0.988256 0.988256
0.992982 0.992982 0.992982
0.996528 0.996528 0.996528
0.998856 0.998856 0.998856
0.000000 0.000000 0.000000
0.000000 0.000000 0.000000
0.000000 0.000000 0.000000
0.000000 0.000000 0.000000
0.000544 0.000544 0.000544
0.002356 0.002356 0.002356
0.005402 0.005402 0.005402
0.009643 0.009643 0.009643
0.015040 0.015040 0.015040
0.021556 0.021556 0.021556
0.029151 0.029151 0.029151
0.037786 0.037786 0.037786
0.047424 0.047424 0.047424
0.058025 0.058025 0.058025
0.069552 0.069552 0.069552
0.081964 0.081964 0.081964
0.095224 0.095224 0.095224
0.000051 0.000051 0.000051
0.001058 0.001058 0.001058
0.003324 0.003324 0.003324
0.006809 0.006809 0.006809
0.011476 0.011476 0.011476
0.017285 0.017285 0.017285
0.024198 0.024198 0.024198
0.032176 0.032176 0.032176
0.041181 0.041181 0.041181
0.051174 0.051174 0.051174
0.062117 0.062117 0.062117
0.073970 0.073970 0.073970
0.086695 0.086695 0.086695
0.100255 0.100255 0.100255
0.114609 0.114609 0.114609
0.129719 0.129719 0.129719
0.145547 0.145547 0.145547
0.008374 0.008374 0.008374
0.013461 0.013461 0.013461
0.019676 0.019676 0.019676
0.026981 0.026981 0.026981
0.035338 0.035338 0.035338
0.044707 0.044707 0.044707
0.055050 0.055050 0.055050
0.066329 0.066329 0.066329
0.078504 0.078504 0.078504
0.091537 0.091537 0.091537
0.105390 0.105390 0.105390
0.120024 0.120024 0.120024
0.135401 0.135401 0.135401
0.151481 0.151481 0.151481
0.168226 0.168226 0.168226
0.185597 0.185597 0.185597
0.203556 0.203556 0.203556
0.029904 0.029904 0.029904
0.038634 0.038634 0.038634
0.048362 0.048362 0.048362
0.059050 0.059050 0.059050
0.070659 0.070659 0.070659
0.083152 0.083152 0.083152
0.096488 0.096488 0.096488
0.110630 0.110630 0.110630
0.125538 0.125538 0.125538
0.141175 0.141175 0.141175
0.157502 0.157502 0.157502
0.174479 0.174479 0.174479
0.192069 0.192069 0.192069
0.210233 0.210233 0.210233
0.228932 0.228932 0.228932
0.248127 0.248127 0.248127
0.267781 0.267781 0.267781
0.063172 0.063172 0.063172
0.075107 0.075107 0.075107
0.087911 0.087911 0.087911
0.101545 0.101545 0.101545
0.115971 0.115971 0.115971
0.131149 0.131149 0.131149
0.147041 0.147041 0.147041
0.163609 0.163609 0.163609
0.180814 0.180814 0.180814
0.198618 0.198618 0.198618
0.216981 0.216981 0.216981
0.235865 0.235865 0.235865
0.255231 0.255231 0.255231
0.275042 0.275042 0.275042
0.295258 0.295258 0.295258
0.315840 0.315840 0.315840
0.336750 0.336750 0.336750
0.106707 0.106707 0.106707
0.121411 0.121411 0.121411
0.136854 0.136854 0.136854
0.152997 0.152997 0.152997
0.169801 0.169801 0.169801
0.187229 0.187229 0.187229
0.205240 0.205240 0.205240
0.223797 0.223797 0.223797
0.242862 0.242862 0.242862
0.262394 0.262394 0.262394
0.282357 0.282357 0.282357
0.302711 0.302711 0.302711
0.323417 0.323417 0.323417
0.344437 0.344437 0.344437
0.365732 0.365732 0.365732
0.387265 0.387265 0.387265
0.408995 0.408995 0.408995
0.159040 0.159040 0.159040
0.176076 0.176076 0.176076
0.193720 0.193720 0.193720
0.211935 0.211935 0.211935
0.230681 0.230681 0.230681
0.249921 0.249921 0.249921
0.269614 0.269614 0.269614
0.289724 0.289724 0.289724
0.310210 0.310210 0.310210
0.331035 0.331035 0.331035
0.352160 0.352160 0.352160
0.373546 0.373546 0.373546
0.395155 0.395155 0.395155
0.416948 0.416948 0.416948
0.438886 0.438886 0.438886
0.460931 0.460931 0.460931
0.483045 0.483045 0.483045
0.218700 0.218700 0.218700
0.237631 0.237631 0.237631
0.257040 0.257040 0.257040
0.276889 0.276889 0.276889
0.297140 0.297140 0.297140
0.317755 0.317755 0.317755
0.338693 0.338693 0.338693
0.359918 0.359918 0.359918
0.381389 0.381389 0.381389
0.403070 0.403070 0.403070
0.424920 0.424920 0.424920
0.446902 0.446902 0.446902
0.468976 0.468976 0.468976
0.491105 0.491105 0.491105
0.513249 0.513249 0.513249
0.535370 0.535370 0.535370
0.557429 0.557429 0.557429
0.284218 0.284218 0.284218
0.304605 0.304605 0.304605
0.325342 0.325342 0.325342
0.346389 0.346389 0.346389
0.367708 0.367708 0.367708
0.389260 0.389260 0.389260
0.411007 0.411007 0.411007
0.432910 0.432910 0.432910
0.454929 0.454929 0.454929
0.477028 0.477028 0.477028
0.499167 0.499167 0.499167
0.521307 0.521307 0.521307
0.543410 0.543410 0.543410
0.565437 0.565437 0.565437
0.587350 0.587350 0.587350
0.609109 0.609109 0.609109
0.630677 0.630677 0.630677
0.354121 0.354121 0.354121
0.375530 0.375530 0.375530
0.397157 0.397157 0.397157
0.418965 0.418965 0.418965
0.440915 0.440915 0.440915
0.462968 0.462968 0.462968
0.485085 0.485085 0.485085
0.507229 0.507229 0.507229
0.529360 0.529360 0.529360
0.551440 0.551440 0.551440
0.573430 0.573430 0.573430
0.595291 0.595291 0.595291
0.616986 0.616986 0.616986
0.638474 0.638474 0.638474
0.659719 0.659719 0.659719
0.680680 0.680680 0.680680
0.701320 0.701320 0.701320
0.426942 0.426942 0.426942
0.448933 0.448933 0.448933
0.471014 0.471014 0.471014
0.493146 0.493146 0.493146
0.515290 0.515290 0.515290
0.537406 0.537406 0.537406
0.559458 0.559458 0.559458
0.581406 0.581406 0.581406
0.603211 0.603211 0.603211
0.624835 0.624835 0.624835
0.646239 0.646239 0.646239
0.667385 0.667385 0.667385
0.688234 0.688234 0.688234
0.708747 0.708747 0.708747
0.728886 0.728886 0.728886
0.748613 0.748613 0.748613
0.767887 0.767887 0.767887
0.501208 0.501208 0.501208
0.523347 0.523347 0.523347
0.545444 0.545444 0.545444
0.567462 0.567462 0.567462
0.589363 0.589363 0.589363
0.611106 0.611106 0.611106
0.632655 0.632655 0.632655
0.653970 0.653970 0.653970
0.675012 0.675012 0.675012
0.695743 0.695743 0.695743
0.716124 0.716124 0.716124
0.736118 0.736118 0.736118
0.755684 0.755684 0.755684
0.774785 0.774785 0.774785
0.793382 0.793382 0.793382
0.811436 0.811436 0.811436
0.828908 0.828908 0.828908
0.575451 0.575451 0.575451
0.597299 0.597299 0.597299
0.618976 0.618976 0.618976
0.640444 0.640444 0.640444
0.661664 0.661664 0.661664
0.682597 0.682597 0.682597
0.703206 0.703206 0.703206
0.723450 0.723450 0.723450
0.743293 0.743293 0.743293
0.762694 0.762694 0.762694
0.781616 0.781616 0.781616
0.800019 0.800019 0.800019
0.817866 0.817866 0.817866
0.835117 0.835117 0.835117
0.851735 0.851735 0.851735
0.867679 0.867679 0.867679
0.882913 0.882913 0.882913
0.648200 0.648200 0.648200
0.669320 0.669320 0.669320
0.690140 0.690140 0.690140
0.710620 0.710620 0.710620
0.730723 0.730723 0.730723
0.750409 0.750409 0.750409
0.769640 0.769640 0.769640
0.788378 0.788378 0.788378
0.806583 0.806583 0.806583
0.824218 0.824218 0.824218
0.841243 0.841243 0.841243
0.857619 0.857619 0.857619
0.873310 0.873310 0.873310
0.888274 0.888274 0.888274
0.902475 0.902475 0.902475
0.915874 0.915874 0.915874
0.928431 0.928431 0.928431
0.717985 0.717985 0.717985
0.737940 0.737940 0.737940
0.757465 0.757465 0.757465
0.776521 0.776521 0.776521
0.795069 0.795069 0.795069
0.813071 0.813071 0.813071
0.830488 0.830488 0.830488
0.847282 0.847282 0.847282
0.863413 0.863413 0.863413
0.878844 0.878844 0.878844
0.893535 0.893535 0.893535
0.907448 0.907448 0.907448
0.920545 0.920545 0.920545
0.932786 0.932786 0.932786
0.944133 0.944133 0.944133
0.954548 0.954548 0.954548
0.963992 0.963992 0.963992
0.783335 0.783335 0.783335
0.801689 0.801689 0.801689
0.819482 0.819482 0.819482
0.836677 0.836677 0.836677
0.853233 0.853233 0.853233
0.869114 0.869114 0.869114
0.884280 0.884280 0.884280
0.898692 0.898692 0.898692
0.912313 0.912313 0.912313
0.925102 0.925102 0.925102
0.937023 0.937023 0.937023
0.948035 0.948035 0.948035
0.958101 0.958101 0.958101
0.967181 0.967181 0.967181
0.975238 0.975238 0.975238
0.982233 0.982233 0.982233
0.988126 0.988126 0.988126
0.842780 0.842780 0.842780
0.859095 0.859095 0.859095
0.874720 0.874720 0.874720
0.889616 0.889616 0.889616
0.903745 0.903745 0.903745
0.917067 0.917067 0.917067
0.929545 0.929545 0.929545
0.941139 0.941139 0.941139
0.951811 0.951811 0.951811
0.961523 0.961523 0.961523
0.970235 0.970235 0.970235
0.977910 0.977910 0.977910
0.984508 0.984508 0.984508
0.989991 0.989991 0.989991
0.994320 0.994320 0.994320
0.997457 0.997457 0.997457
0.999363 0.999363 0.999363
0.000000 0.000000 0.000000
0.000000 0.000000 0.000000
0.000000 0.000000 0.000000
0.000043 0.000043 0.000043
0.001019 0.001019 0.001019
0.003254 0.003254 0.003254
0.006710 0.006710 0.006710
0.011348 0.011348 0.011348
0.017130 0.017130 0.017130
0.024016 0.024016 0.024016
0.031969 0.031969 0.031969
0.040949 0.040949 0.040949
