ios/AIPhotoCoach/Resources/LUTs/mono.cube
# Baseline LUT for FilterPreset 'mono' (单色).
# Generated by scripts/luts/gen_baseline_luts.py — replace with a
# hand-graded / commercial LUT keeping the same filename to upgrade.
TITLE "mono"
LUT_3D_SIZE 5
DOMAIN_MIN 0.0 0.0 0.0
DOMAIN_MAX 1.0 1.0 1.0
0.000000 0.000000 0.000000
0.000037 0.000037 0.000037
0.011250 0.011250 0.011250
0.040771 0.040771 0.040771
0.086127 0.086127 0.086127
0.055580 0.055580 0.055580
0.106088 0.106088 0.106088
0.169061 0.169061 0.169061
0.242027 0.242027 0.242027
0.322514 0.322514 0.322514
0.270589 0.270589 0.270589
0.353200 0.353200 0.353200
0.439962 0.439962 0.439962
0.528403 0.528403 0.528403
0.616051 0.616051 0.616051
0.560534 0.560534 0.560534
0.647280 0.647280 0.647280
0.729861 0.729861 0.729861
0.805807 0.805807 0.805807
0.872645 0.872645 0.872645
0.831325 0.831325 0.831325
0.894234 0.894234 0.894234
0.944665 0.944665 0.944665
0.980145 0.980145 0.980145
0.998205 0.998205 0.998205
0.000000 0.000000 0.000000
0.001638 0.001638 0.001638
0.019346 0.019346 0.019346
0.054522 0.054522 0.054522
0.104694 0.104694 0.104694
0.071182 0.071182 0.071182
0.126200 0.126200 0.126200
0.192844 0.192844 0.192844
0.268641 0.268641 0.268641
0.351120 0.351120 0.351120
0.298025 0.298025 0.298025
0.382324 0.382324 0.382324
0.469933 0.469933 0.469933
0.558381 0.558381 0.558381
0.645198 0.645198 0.645198
0.590307 0.590307 0.590307
0.675916 0.675916 0.675916
0.756521 0.756521 0.756521
0.829651 0.829651 0.829651
0.892834 0.892834 0.892834
0.853935 0.853935 0.853935
0.912884 0.912884 0.912884
0.958514 0.958514 0.958514
0.988356 0.988356 0.988356
0.999936 0.999936 0.999936
0.000000 0.000000 0.000000
0.005540 0.005540 0.005540
0.029457 0.029457 0.029457
0.070003 0.070003 0.070003
0.124706 0.124706 0.124706
0.088409 0.088409 0.088409
0.147653 0.147653 0.147653
0.217682 0.217682 0.217682
0.296026 0.296026 0.296026
0.380212 0.380212 0.380212
0.326129 0.326129 0.326129
0.411829 0.411829 0.411829
0.500000 0.500000 0.500000
0.588171 0.588171 0.588171
0.673871 0.673871 0.673871
0.619788 0.619788 0.619788
0.703974 0.703974 0.703974
0.782318 0.782318 0.782318
0.852347 0.852347 0.852347
0.911591 0.911591 0.911591
0.875294 0.875294 0.875294
0.929997 0.929997 0.929997
0.970543 0.970543 0.970543
0.994460 0.994460 0.994460
1.000000 1.000000 1.000000
0.000064 0.000064 0.000064
0.011644 0.011644 0.011644
0.041486 0.041486 0.041486
0.087116 0.087116 0.087116
0.146065 0.146065 0.146065
0.107166 0.107166 0.107166
0.170349 0.170349 0.170349
0.243479 0.243479 0.243479
0.324084 0.324084 0.324084
0.409693 0.409693 0.409693
0.354802 0.354802 0.354802
0.441619 0.441619 0.441619
0.530067 0.530067 0.530067
0.617676 0.617676 0.617676
0.701975 0.701975 0.701975
0.648880 0.648880 0.648880
0.731359 0.731359 0.731359
0.807156 0.807156 0.807156
0.873800 0.873800 0.873800
0.928818 0.928818 0.928818
0.895306 0.895306 0.895306
0.945478 0.945478 0.945478
0.980654 0.980654 0.980654
0.998362 0.998362 0.998362
1.000000 1.000000 1.000000
0.001795 0.001795 0.001795
0.019855 0.019855 0.019855
0.055335 0.055335 0.055335
0.105766 0.105766 0.105766
0.168675 0.168675 0.168675
0.127355 0.127355 0.127355
0.194193 0.194193 0.194193
0.270139 0.270139 0.270139
0.352720 0.352720 0.352720
0.439466 0.439466 0.439466
0.383949 0.383949 0.383949
0.471597 0.471597 0.471597
0.560038 0.560038 0.560038
0.646800 0.646800 0.646800
0.729411 0.729411 0.729411
0.677486 0.677486 0.677486
0.757973 0.757973 0.757973
0.830939 0.830939 0.830939
0.893912 0.893912 0.893912
0.944420 0.944420 0.944420
0.913873 0.913873 0.913873
0.959229 0.959229 0.959229
0.988750 0.988750 0.988750
0.999963 0.999963 0.999963
1.000000 1.000000 1.000000
