ios/AIPhotoCoach/Resources/LUTs/moody_fade.cube
# Baseline LUT for FilterPreset 'moody_fade' (复古褪色).
# Generated by scripts/luts/gen_baseline_luts.py — replace with a
# hand-graded / commercial LUT keeping the same filename to upgrade.
TITLE "moody_fade"
LUT_3D_SIZE 17
DOMAIN_MIN 0.0 0.0 0.0
DOMAIN_MAX 1.0 1.0 1.0
0.100000 0.100000 0.100000
0.158505 0.117551 0.117551
0.216634 0.134990 0.134990
0.274029 0.152209 0.152209
0.330355 0.169107 0.169107
0.385323 0.185597 0.185597
0.438694 0.201608 0.201608
0.490289 0.217087 0.217087
0.540000 0.232000 0.232000
0.587789 0.246337 0.246337
0.633694 0.260108 0.260108
0.677823 0.273347 0.273347
0.720355 0.286107 0.286107
0.761529 0.298459 0.298459
0.801634 0.310490 0.310490
0.841005 0.322301 0.322301
0.880000 0.334000 0.334000
0.117551 0.158505 0.117551
0.158505 0.158505 0.117551
0.216634 0.175943 0.134990
0.274029 0.193162 0.152209
0.330355 0.210060 0.169107
0.385323 0.226550 0.185597
0.438694 0.242561 0.201608
0.490289 0.258040 0.217087
0.540000 0.272953 0.232000
0.587789 0.287290 0.246337
0.633694 0.301061 0.260108
0.677823 0.314300 0.273347
0.720355 0.327060 0.286107
0.761529 0.339412 0.298459
0.801634 0.351443 0.310490
0.841005 0.363255 0.322301
0.880000 0.374953 0.334000
0.134990 0.216634 0.134990
0.175943 0.216634 0.134990
0.216634 0.216634 0.134990
0.274029 0.233852 0.152209
0.330355 0.250751 0.169107
0.385323 0.267241 0.185597
0.438694 0.283252 0.201608
0.490289 0.298731 0.217087
0.540000 0.313644 0.232000
0.587789 0.327981 0.246337
0.633694 0.341752 0.260108
0.677823 0.354991 0.273347
0.720355 0.367751 0.286107
0.761529 0.380102 0.298459
0.801634 0.392134 0.310490
0.841005 0.403945 0.322301
0.880000 0.415644 0.334000
0.152209 0.274029 0.152209
0.193162 0.274029 0.152209
0.233852 0.274029 0.152209
0.274029 0.274029 0.152209
0.330355 0.290927 0.169107
0.385323 0.307417 0.185597
0.438694 0.323428 0.201608
0.490289 0.338907 0.217087
0.540000 0.353820 0.232000
0.587789 0.368157 0.246337
0.633694 0.381928 0.260108
0.677823 0.395167 0.273347
0.720355 0.407927 0.286107
0.761529 0.420279 0.298459
0.801634 0.432310 0.310490
0.841005 0.444121 0.322301
0.880000 0.455820 0.334000
0.169107 0.330355 0.169107
0.210060 0.330355 0.169107
0.250751 0.330355 0.169107
0.290927 0.330355 0.169107
0.330355 0.330355 0.169107
0.385323 0.346846 0.185597
0.438694 0.362857 0.201608
0.490289 0.378336 0.217087
0.540000 0.393249 0.232000
0.587789 0.407586 0.246337
0.633694 0.421357 0.260108
0.677823 0.434596 0.273347
0.720355 0.447355 0.286107
0.761529 0.459707 0.298459
0.801634 0.471739 0.310490
0.841005 0.483550 0.322301
0.880000 0.495249 0.334000
0.185597 0.385323 0.185597
0.226550 0.385323 0.185597
0.267241 0.385323 0.185597
0.307417 0.385323 0.185597
0.346846 0.385323 0.185597
0.385323 0.385323 0.185597
0.438694 0.401335 0.201608
0.490289 0.416813 0.217087
0.540000 0.431726 0.232000
0.587789 0.446063 0.246337
0.633694 0.459835 0.260108
0.677823 0.473073 0.273347
0.720355 0.485833 0.286107
0.761529 0.498185 0.298459
0.801634 0.510217 0.310490
0.841005 0.522028 0.322301
0.880000 0.533726 0.334000
0.201608 0.438694 0.201608
0.242561 0.438694 0.201608
0.283252 0.438694 0.201608
0.323428 0.438694 0.201608
0.362857 0.438694 0.201608
0.401335 0.438694 0.201608
0.438694 0.438694 0.201608
0.490289 0.454173 0.217087
0.540000 0.469086 0.232000
0.587789 0.483423 0.246337
0.633694 0.497194 0.260108
0.677823 0.510433 0.273347
0.720355 0.523192 0.286107
0.761529 0.535544 0.298459
0.801634 0.547576 0.310490
0.841005 0.559387 0.322301
0.880000 0.571086 0.334000
0.217087 0.490289 0.217087
0.258040 0.490289 0.217087
0.298731 0.490289 0.217087
0.338907 0.490289 0.217087
0.378336 0.490289 0.217087
0.416813 0.490289 0.217087
0.454173 0.490289 0.217087
0.490289 0.490289 0.217087
0.540000 0.505202 0.232000
0.587789 0.519539 0.246337
0.633694 0.533311 0.260108
0.677823 0.546550 0.273347
0.720355 0.559309 0.286107
0.761529 0.571661 0.298459
0.801634 0.583693 0.310490
0.841005 0.595504 0.322301
0.880000 0.607202 0.334000
0.232000 0.540000 0.232000
0.272953 0.540000 0.232000
0.313644 0.540000 0.232000
0.353820 0.540000 0.232000
0.393249 0.540000 0.232000
0.431726 0.540000 0.232000
0.469086 0.540000 0.232000
0.505202 0.540000 0.232000
0.540000 0.540000 0.232000
0.587789 0.554337 0.246337
0.633694 0.568108 0.260108
0.677823 0.581347 0.273347
0.720355 0.594107 0.286107
0.761529 0.606459 0.298459
0.801634 0.618490 0.310490
0.841005 0.630301 0.322301
0.880000 0.642000 0.334000
0.246337 0.587789 0.246337
0.287290 0.587789 0.246337
0.327981 0.587789 0.246337
0.368157 0.587789 0.246337
0.407586 0.587789 0.246337
0.446063 0.587789 0.246337
0.483423 0.587789 0.246337
0.519539 0.587789 0.246337
0.554337 0.587789 0.246337
0.587789 0.587789 0.246337
0.633694 0.601561 0.260108
0.677823 0.614800 0.273347
0.720355 0.627559 0.286107
0.761529 0.639911 0.298459
0.801634 0.651943 0.310490
0.841005 0.663754 0.322301
0.880000 0.675452 0.334000
0.260108 0.633694 0.260108
0.301061 0.633694 0.260108
0.341752 0.633694 0.260108
0.381928 0.633694 0.260108
0.421357 0.633694 0.260108
0.459835 0.633694 0.260108
0.497194 0.633694 0.260108
0.533311 0.633694 0.260108
0.568108 0.633694 0.260108
0.601561 0.633694 0.260108
0.633694 0.633694 0.260108
0.677823 0.646933 0.273347
0.720355 0.659692 0.286107
0.761529 0.672044 0.298459
0.801634 0.684076 0.310490
0.841005 0.695887 0.322301
0.880000 0.707586 0.334000
0.273347 0.677823 0.273347
0.314300 0.677823 0.273347
0.354991 0.677823 0.273347
0.395167 0.677823 0.273347
0.434596 0.677823 0.273347
0.473073 0.677823 0.273347
0.510433 0.677823 0.273347
0.546550 0.677823 0.273347
0.581347 0.677823 0.273347
0.614800 0.677823 0.273347
0.646933 0.677823 0.273347
0.677823 0.677823 0.273347
0.720355 0.690583 0.286107
0.761529 0.702935 0.298459
0.801634 0.714967 0.310490
0.841005 0.726778 0.322301
0.880000 0.738476 0.334000
0.286107 0.720355 0.286107
0.327060 0.720355 0.286107
0.367751 0.720355 0.286107
0.407927 0.720355 0.286107
0.447355 0.720355 0.286107
0.485833 0.720355 0.286107
0.523192 0.720355 0.286107
0.559309 0.720355 0.286107
0.594107 0.720355 0.286107
0.627559 0.720355 0.286107
0.659692 0.720355 0.286107
0.690583 0.720355 0.286107
0.720355 0.720355 0.286107
0.761529 0.732707 0.298459
0.801634 0.744739 0.310490
0.841005 0.756550 0.322301
0.880000 0.768249 0.334000
0.298459 0.761529 0.298459
0.339412 0.761529 0.298459
0.380102 0.761529 0.298459
0.420279 0.761529 0.298459
0.459707 0.761529 0.298459
0.498185 0.761529 0.298459
0.535544 0.761529 0.298459
0.571661 0.761529 0.298459
0.606459 0.761529 0.298459
0.639911 0.761529 0.298459
0.672044 0.761529 0.298459
0.702935 0.761529 0.298459
0.732707 0.761529 0.298459
0.761529 0.761529 0.298459
0.801634 0.773560 0.310490
0.841005 0.785371 0.322301
0.880000 0.797070 0.334000
0.310490 0.801634 0.310490
0.351443 0.801634 0.310490
0.392134 0.801634 0.310490
0.432310 0.801634 0.310490
0.471739 0.801634 0.310490
0.510217 0.801634 0.310490
0.547576 0.801634 0.310490
0.583693 0.801634 0.310490
0.618490 0.801634 0.310490
0.651943 0.801634 0.310490
0.684076 0.801634 0.310490
0.714967 0.801634 0.310490
0.744739 0.801634 0.310490
0.773560 0.801634 0.310490
0.801634 0.801634 0.310490
0.841005 0.813445 0.322301
0.880000 0.825144 0.334000
0.322301 0.841005 0.322301
0.363255 0.841005 0.322301
0.403945 0.841005 0.322301
0.444121 0.841005 0.322301
0.483550 0.841005 0.322301
0.522028 0.841005 0.322301
0.559387 0.841005 0.322301
0.595504 0.841005 0.322301
0.630301 0.841005 0.322301
0.663754 0.841005 0.322301
0.695887 0.841005 0.322301
0.726778 0.841005 0.322301
0.756550 0.841005 0.322301
0.785371 0.841005 0.322301
0.813445 0.841005 0.322301
0.841005 0.841005 0.322301
0.880000 0.852703 0.334000
0.334000 0.880000 0.334000
0.374953 0.880000 0.334000
0.415644 0.880000 0.334000
0.455820 0.880000 0.334000
0.495249 0.880000 0.334000
0.533726 0.880000 0.334000
0.571086 0.880000 0.334000
0.607202 0.880000 0.334000
0.642000 0.880000 0.334000
0.675452 0.880000 0.334000
0.707586 0.880000 0.334000
0.738476 0.880000 0.334000
0.768249 0.880000 0.334000
0.797070 0.880000 0.334000
0.825144 0.880000 0.334000
0.852703 0.880000 0.334000
0.880000 0.880000 0.334000
0.117551 0.117551 0.158505
0.158505 0.117551 0.158505
0.216634 0.134990 0.175943
0.274029 0.152209 0.193162
0.330355 0.169107 0.210060
0.385323 0.185597 0.226550
0.438694 0.201608 0.242561
0.490289 0.217087 0.258040
0.540000 0.232000 0.272953
0.587789 0.246337 0.287290
0.633694 0.260108 0.301061
0.677823 0.273347 0.314300
0.720355 0.286107 0.327060
0.761529 0.298459 0.339412
0.801634 0.310490 0.351443
0.841005 0.322301 0.363255
0.880000 0.334000 0.374953
0.117551 0.158505 0.158505
0.158505 0.158505 0.158505
0.216634 0.175943 0.175943
0.274029 0.193162 0.193162
0.330355 0.210060 0.210060
0.385323 0.226550 0.226550
0.438694 0.242561 0.242561
0.490289 0.258040 0.258040
0.540000 0.272953 0.272953
0.587789 0.287290 0.287290
0.633694 0.301061 0.301061
0.677823 0.314300 0.314300
0.720355 0.327060 0.327060
0.761529 0.339412 0.339412
0.801634 0.351443 0.351443
0.841005 0.363255 0.363255
0.880000 0.374953 0.374953
0.134990 0.216634 0.175943
0.175943 0.216634 0.175943
0.216634 0.216634 0.175943
0.274029 0.233852 0.193162
0.330355 0.250751 0.210060
0.385323 0.267241 0.226550
0.438694 0.283252 0.242561
0.490289 0.298731 0.258040
0.540000 0.313644 0.272953
0.587789 0.327981 0.287290
0.633694 0.341752 0.301061
0.677823 0.354991 0.314300
0.720355 0.367751 0.327060
0.761529 0.380102 0.339412
0.801634 0.392134 0.351443
0.841005 0.403945 0.363255
0.880000 0.415644 0.374953
0.152209 0.274029 0.193162
0.193162 0.274029 0.193162
0.233852 0.274029 0.193162
0.274029 0.274029 0.193162
0.330355 0.290927 0.210060
0.385323 0.307417 0.226550
0.438694 0.323428 0.242561
0.490289 0.338907 0.258040
0.540000 0.353820 0.272953
0.587789 0.368157 0.287290
0.633694 0.381928 0.301061
0.677823 0.395167 0.314300
0.720355 0.407927 0.327060
0.761529 0.420279 0.339412
0.801634 0.432310 0.351443
0.841005 0.444121 0.363255
0.880000 0.455820 0.374953
0.169107 0.330355 0.210060
0.210060 0.330355 0.210060
0.250751 0.330355 0.210060
0.290927 0.330355 0.210060
0.330355 0.330355 0.210060
0.385323 0.346846 0.226550
0.438694 0.362857 0.242561
0.490289 0.378336 0.258040
0.540000 0.393249 0.272953
0.587789 0.407586 0.287290
0.633694 0.421357 0.301061
0.677823 0.434596 0.314300
0.720355 0.447355 0.327060
0.761529 0.459707 0.339412
0.801634 0.471739 0.351443
0.841005 0.483550 0.363255
0.880000 0.495249 0.374953
0.185597 0.385323 0.226550
0.226550 0.385323 0.226550
0.267241 0.385323 0.226550
0.307417 0.385323 0.226550
0.346846 0.385323 0.226550
0.385323 0.385323 0.226550
0.438694 0.401335 0.242561
0.490289 0.416813 0.258040
0.540000 0.431726 0.272953
0.587789 0.446063 0.287290
0.633694 0.459835 0.301061
0.677823 0.473073 0.314300
0.720355 0.485833 0.327060
0.761529 0.498185 0.339412
0.801634 0.510217 0.351443
0.841005 0.522028 0.363255
0.880000 0.533726 0.374953
0.201608 0.438694 0.242561
0.242561 0.438694 0.242561
0.283252 0.438694 0.242561
0.323428 0.438694 0.242561
0.362857 0.438694 0.242561
0.401335 0.438694 0.242561
0.438694 0.438694 0.242561
0.490289 0.454173 0.258040
0.540000 0.469086 0.272953
0.587789 0.483423 0.287290
0.633694 0.497194 0.301061
0.677823 0.510433 0.314300
0.720355 0.523192 0.327060
0.761529 0.535544 0.339412
0.801634 0.547576 0.351443
0.841005 0.559387 0.363255
0.880000 0.571086 0.374953
0.217087 0.490289 0.258040
0.258040 0.490289 0.258040
0.298731 0.490289 0.258040
0.338907 0.490289 0.258040
0.378336 0.490289 0.258040
0.416813 0.490289 0.258040
0.454173 0.490289 0.258040
0.490289 0.490289 0.258040
0.540000 0.505202 0.272953
0.587789 0.519539 0.287290
0.633694 0.533311 0.301061
0.677823 0.546550 0.314300
0.720355 0.559309 0.327060
0.761529 0.571661 0.339412
0.801634 0.583693 0.351443
0.841005 0.595504 0.363255
0.880000 0.607202 0.374953
0.232000 0.540000 0.272953
0.272953 0.540000 0.272953
0.313644 0.540000 0.272953
0.353820 0.540000 0.272953
0.393249 0.540000 0.272953
0.431726 0.540000 0.272953
0.469086 0.540000 0.272953
0.505202 0.540000 0.272953
0.540000 0.540000 0.272953
0.587789 0.554337 0.287290
0.633694 0.568108 0.301061
0.677823 0.581347 0.314300
0.720355 0.594107 0.327060
0.761529 0.606459 0.339412
0.801634 0.618490 0.351443
0.841005 0.630301 0.363255
0.880000 0.642000 0.374953
0.246337 0.587789 0.287290
0.287290 0.587789 0.287290
0.327981 0.587789 0.287290
0.368157 0.587789 0.287290
0.407586 0.587789 0.287290
0.446063 0.587789 0.287290
0.483423 0.587789 0.287290
0.519539 0.587789 0.287290
0.554337 0.587789 0.287290
0.587789 0.587789 0.287290
0.633694 0.601561 0.301061
0.677823 0.614800 0.314300
0.720355 0.627559 0.327060
0.761529 0.639911 0.339412
0.801634 0.651943 0.351443
0.841005 0.663754 0.363255
0.880000 0.675452 0.374953
0.260108 0.633694 0.301061
0.301061 0.633694 0.301061
0.341752 0.633694 0.301061
0.381928 0.633694 0.301061
0.421357 0.633694 0.301061
0.459835 0.633694 0.301061
0.497194 0.633694 0.301061
0.533311 0.633694 0.301061
0.568108 0.633694 0.301061
0.601561 0.633694 0.301061
0.633694 0.633694 0.301061
0.677823 0.646933 0.314300
0.720355 0.659692 0.327060
0.761529 0.672044 0.339412
0.801634 0.684076 0.351443
0.841005 0.695887 0.363255
0.880000 0.707586 0.374953
0.273347 0.677823 0.314300
0.314300 0.677823 0.314300
0.354991 0.677823 0.314300
0.395167 0.677823 0.314300
0.434596 0.677823 0.314300
0.473073 0.677823 0.314300
0.510433 0.677823 0.314300
0.546550 0.677823 0.314300
0.581347 0.677823 0.314300
0.614800 0.677823 0.314300
0.646933 0.677823 0.314300
0.677823 0.677823 0.314300
0.720355 0.690583 0.327060
0.761529 0.702935 0.339412
0.801634 0.714967 0.351443
0.841005 0.726778 0.363255
0.880000 0.738476 0.374953
0.286107 0.720355 0.327060
0.327060 0.720355 0.327060
0.367751 0.720355 0.327060
0.407927 0.720355 0.327060
0.447355 0.720355 0.327060
0.485833 0.720355 0.327060
0.523192 0.720355 0.327060
0.559309 0.720355 0.327060
0.594107 0.720355 0.327060
0.627559 0.720355 0.327060
0.659692 0.720355 0.327060
0.690583 0.720355 0.327060
0.720355 0.720355 0.327060
0.761529 0.732707 0.339412
0.801634 0.744739 0.351443
0.841005 0.756550 0.363255
0.880000 0.768249 0.374953
0.298459 0.761529 0.339412
0.339412 0.761529 0.339412
0.380102 0.761529 0.339412
0.420279 0.761529 0.339412
0.459707 0.761529 0.339412
0.498185 0.761529 0.339412
0.535544 0.761529 0.339412
0.571661 0.761529 0.339412
0.606459 0.761529 0.339412
0.639911 0.761529 0.339412
0.672044 0.761529 0.339412
0.702935 0.761529 0.339412
0.732707 0.761529 0.339412
0.761529 0.761529 0.339412
0.801634 0.773560 0.351443
0.841005 0.785371 0.363255
0.880000 0.797070 0.374953
0.310490 0.801634 0.351443
0.351443 0.801634 0.351443
0.392134 0.801634 0.351443
0.432310 0.801634 0.351443
0.471739 0.801634 0.351443
0.510217 0.801634 0.351443
0.547576 0.801634 0.351443
0.583693 0.801634 0.351443
0.618490 0.801634 0.351443
0.651943 0.801634 0.351443
0.684076 0.801634 0.351443
0.714967 0.801634 0.351443
0.744739 0.801634 0.351443
0.773560 0.801634 0.351443
0.801634 0.801634 0.351443
0.841005 0.813445 0.363255
0.880000 0.825144 0.374953
0.322301 0.841005 0.363255
0.363255 0.841005 0.363255
0.403945 0.841005 0.363255
0.444121 0.841005 0.363255
0.483550 0.841005 0.363255
0.522028 0.841005 0.363255
0.559387 0.841005 0.363255
0.595504 0.841005 0.363255
0.630301 0.841005 0.363255
0.663754 0.841005 0.363255
0.695887 0.841005 0.363255
0.726778 0.841005 0.363255
0.756550 0.841005 0.363255
0.785371 0.841005 0.363255
0.813445 0.841005 0.363255
0.841005 0.841005 0.363255
0.880000 0.852703 0.374953
0.334000 0.880000 0.374953
0.374953 0.880000 0.374953
0.415644 0.880000 0.374953
0.455820 0.880000 0.374953
0.495249 0.880000 0.374953
0.533726 0.880000 0.374953
0.571086 0.880000 0.374953
0.607202 0.880000 0.374953
0.642000 0.880000 0.374953
0.675452 0.880000 0.374953
0.707586 0.880000 0.374953
0.738476 0.880000 0.374953
0.768249 0.880000 0.374953
0.797070 0.880000 0.374953
0.825144 0.880000 0.374953
0.852703 0.880000 0.374953
0.880000 0.880000 0.374953
0.134990 0.134990 0.216634
0.175943 0.134990 0.216634
0.216634 0.134990 0.216634
0.274029 0.152209 0.233852
0.330355 0.169107 0.250751
0.385323 0.185597 0.267241
0.438694 0.201608 0.283252
0.490289 0.217087 0.298731
0.540000 0.232000 0.313644
0.587789 0.246337 0.327981
0.633694 0.260108 0.341752
0.677823 0.273347 0.354991
0.720355 0.286107 0.367751
0.761529 0.298459 0.380102
0.801634 0.310490 0.392134
0.841005 0.322301 0.403945
0.880000 0.334000 0.415644
0.134990 0.175943 0.216634
0.175943 0.175943 0.216634
0.216634 0.175943 0.216634
0.274029 0.193162 0.233852
0.330355 0.210060 0.250751
0.385323 0.226550 0.267241
0.438694 0.242561 0.283252
0.490289 0.258040 0.298731
0.540000 0.272953 0.313644
0.587789 0.287290 0.327981
0.633694 0.301061 0.341752
0.677823 0.314300 0.354991
0.720355 0.327060 0.367751
0.761529 0.339412 0.380102
0.801634 0.351443 0.392134
0.841005 0.363255 0.403945
0.880000 0.374953 0.415644
0.134990 0.216634 0.216634
0.175943 0.216634 0.216634
0.216634 0.216634 0.216634
0.274029 0.233852 0.233852
0.330355 0.250751 0.250751
0.385323 0.267241 0.267241
0.438694 0.283252 0.283252
0.490289 0.298731 0.298731
0.540000 0.313644 0.313644
0.587789 0.327981 0.327981
0.633694 0.341752 0.341752
0.677823 0.354991 0.354991
0.720355 0.367751 0.367751
0.761529 0.380102 0.380102
0.801634 0.392134 0.392134
0.841005 0.403945 0.403945
0.880000 0.415644 0.415644
0.152209 0.274029 0.233852
0.193162 0.274029 0.233852
0.233852 0.274029 0.233852
0.274029 0.274029 0.233852
0.330355 0.290927 0.250751
0.385323 0.307417 0.267241
0.438694 0.323428 0.283252
0.490289 0.338907 0.298731
0.540000 0.353820 0.313644
0.587789 0.368157 0.327981
0.633694 0.381928 0.341752
0.677823 0.395167 0.354991
0.720355 0.407927 0.367751
0.761529 0.420279 0.380102
0.801634 0.432310 0.392134
0.841005 0.444121 0.403945
0.880000 0.455820 0.415644
0.169107 0.330355 0.250751
0.210060 0.330355 0.250751
0.250751 0.330355 0.250751
0.290927 0.330355 0.250751
0.330355 0.330355 0.250751
0.385323 0.346846 0.267241
0.438694 0.362857 0.283252
0.490289 0.378336 0.298731
0.540000 0.393249 0.313644
0.587789 0.407586 0.327981
0.633694 0.421357 0.341752
0.677823 0.434596 0.354991
0.720355 0.447355 0.367751
0.761529 0.459707 0.380102
0.801634 0.471739 0.392134
0.841005 0.483550 0.403945
0.880000 0.495249 0.415644
0.185597 0.385323 0.267241
0.226550 0.385323 0.267241
0.267241 0.385323 0.267241
0.307417 0.385323 0.267241
0.346846 0.385323 0.267241
0.385323 0.385323 0.267241
0.438694 0.401335 0.283252
0.490289 0.416813 0.298731
0.540000 0.431726 0.313644
0.587789 0.446063 0.327981
0.633694 0.459835 0.341752
0.677823 0.473073 0.354991
0.720355 0.485833 0.367751
0.761529 0.498185 0.380102
0.801634 0.510217 0.392134
0.841005 0.522028 0.403945
0.880000 0.533726 0.415644
0.201608 0.438694 0.283252
0.242561 0.438694 0.283252
0.283252 0.438694 0.283252
0.323428 0.438694 0.283252
0.362857 0.438694 0.283252
0.401335 0.438694 0.283252
0.438694 0.438694 0.283252
0.490289 0.454173 0.298731
0.540000 0.469086 0.313644
0.587789 0.483423 0.327981
0.633694 0.497194 0.341752
0.677823 0.510433 0.354991
0.720355 0.523192 0.367751
0.761529 0.535544 0.380102
0.801634 0.547576 0.392134
0.841005 0.559387 0.403945
0.880000 0.571086 0.415644
0.217087 0.490289 0.298731
0.258040 0.490289 0.298731
0.298731 0.490289 0.298731
0.338907 0.490289 0.298731
0.378336 0.490289 0.298731
0.416813 0.490289 0.298731
0.454173 0.490289 0.298731
0.490289 0.490289 0.298731
0.540000 0.505202 0.313644
0.587789 0.519539 0.327981
0.633694 0.533311 0.341752
0.677823 0.546550 0.354991
0.720355 0.559309 0.367751
0.761529 0.571661 0.380102
0.801634 0.583693 0.392134
0.841005 0.595504 0.403945
0.880000 0.607202 0.415644
0.232000 0.540000 0.313644
0.272953 0.540000 0.313644
0.313644 0.540000 0.313644
0.353820 0.540000 0.313644
0.393249 0.540000 0.313644
0.431726 0.540000 0.313644
0.469086 0.540000 0.313644
0.505202 0.540000 0.313644
0.540000 0.540000 0.313644
0.587789 0.554337 0.327981
0.633694 0.568108 0.341752
0.677823 0.581347 0.354991
0.720355 0.594107 0.367751
0.761529 0.606459 0.380102
0.801634 0.618490 0.392134
0.841005 0.630301 0.403945
0.880000 0.642000 0.415644
0.246337 0.587789 0.327981
0.287290 0.587789 0.327981
0.327981 0.587789 0.327981
0.368157 0.587789 0.327981
0.407586 0.587789 0.327981
0.446063 0.587789 0.327981
0.483423 0.587789 0.327981
0.519539 0.587789 0.327981
0.554337 0.587789 0.327981
0.587789 0.587789 0.327981
0.633694 0.601561 0.341752
0.677823 0.614800 0.354991
0.720355 0.627559 0.367751
0.761529 0.639911 0.380102
0.801634 0.651943 0.392134
0.841005 0.663754 0.403945
0.880000 0.675452 0.415644
0.260108 0.633694 0.341752
0.301061 0.633694 0.341752
0.341752 0.633694 0.341752
0.381928 0.633694 0.341752
0.421357 0.633694 0.341752
0.459835 0.633694 0.341752
0.497194 0.633694 0.341752
0.533311 0.633694 0.341752
0.568108 0.633694 0.341752
0.601561 0.633694 0.341752
0.633694 0.633694 0.341752
0.677823 0.646933 0.354991
0.720355 0.659692 0.367751
0.761529 0.672044 0.380102
0.801634 0.684076 0.392134
0.841005 0.695887 0.403945
0.880000 0.707586 0.415644
0.273347 0.677823 0.354991
0.314300 0.677823 0.354991
0.354991 0.677823 0.354991
0.395167 0.677823 0.354991
0.434596 0.677823 0.354991
0.473073 0.677823 0.354991
0.510433 0.677823 0.354991
0.546550 0.677823 0.354991
0.581347 0.677823 0.354991
0.614800 0.677823 0.354991
0.646933 0.677823 0.354991
0.677823 0.677823 0.354991
0.720355 0.690583 0.367751
0.761529 0.702935 0.380102
0.801634 0.714967 0.392134
0.841005 0.726778 0.403945
0.880000 0.738476 0.415644
0.286107 0.720355 0.367751
0.327060 0.720355 0.367751
0.367751 0.720355 0.367751
0.407927 0.720355 0.367751
0.447355 0.720355 0.367751
0.485833 0.720355 0.367751
0.523192 0.720355 0.367751
0.559309 0.720355 0.367751
0.594107 0.720355 0.367751
0.627559 0.720355 0.367751
0.659692 0.720355 0.367751
0.690583 0.720355 0.367751
0.720355 0.720355 0.367751
0.761529 0.732707 0.380102
0.801634 0.744739 0.392134
0.841005 0.756550 0.403945
0.880000 0.768249 0.415644
0.298459 0.761529 0.380102
0.339412 0.761529 0.380102
0.380102 0.761529 0.380102
0.420279 0.761529 0.380102
0.459707 0.761529 0.380102
0.498185 0.761529 0.380102
0.535544 0.761529 0.380102
0.571661 0.761529 0.380102
0.606459 0.761529 0.380102
0.639911 0.761529 0.380102
0.672044 0.761529 0.380102
0.702935 0.761529 0.380102
0.732707 0.761529 0.380102
0.761529 0.761529 0.380102
0.801634 0.773560 0.392134
0.841005 0.785371 0.403945
0.880000 0.797070 0.415644
0.310490 0.801634 0.392134
0.351443 0.801634 0.392134
0.392134 0.801634 0.392134
0.432310 0.801634 0.392134
0.471739 0.801634 0.392134
0.510217 0.801634 0.392134
0.547576 0.801634 0.392134
0.583693 0.801634 0.392134
0.618490 0.801634 0.392134
0.651943 0.801634 0.392134
0.684076 0.801634 0.392134
0.714967 0.801634 0.392134
0.744739 0.801634 0.392134
0.773560 0.801634 0.392134
0.801634 0.801634 0.392134
0.841005 0.813445 0.403945
0.880000 0.825144 0.415644
0.322301 0.841005 0.403945
0.363255 0.841005 0.403945
0.403945 0.841005 0.403945
0.444121 0.841005 0.403945
0.483550 0.841005 0.403945
0.522028 0.841005 0.403945
0.559387 0.841005 0.403945
0.595504 0.841005 0.403945
0.630301 0.841005 0.403945
0.663754 0.841005 0.403945
0.695887 0.841005 0.403945
0.726778 0.841005 0.403945
0.756550 0.841005 0.403945
0.785371 0.841005 0.403945
0.813445 0.841005 0.403945
0.841005 0.841005 0.403945
0.880000 0.852703 0.415644
0.334000 0.880000 0.415644
0.374953 0.880000 0.415644
0.415644 0.880000 0.415644
0.455820 0.880000 0.415644
0.495249 0.880000 0.415644
0.533726 0.880000 0.415644
0.571086 0.880000 0.415644
0.607202 0.880000 0.415644
0.642000 0.880000 0.415644
0.675452 0.880000 0.415644
0.707586 0.880000 0.415644
0.738476 0.880000 0.415644
0.768249 0.880000 0.415644
0.797070 0.880000 0.415644
0.825144 0.880000 0.415644
0.852703 0.880000 0.415644
0.880000 0.880000 0.415644
0.152209 0.152209 0.274029
0.193162 0.152209 0.274029
0.233852 0.152209 0.274029
0.274029 0.152209 0.274029
0.330355 0.169107 0.290927
0.385323 0.185597 0.307417
0.438694 0.201608 0.323428
0.490289 0.217087 0.338907
0.540000 0.232000 0.353820
0.587789 0.246337 0.368157
0.633694 0.260108 0.381928
