ios/AIPhotoCoach/Resources/LUTs/moody_fade.cube
# Baseline LUT for FilterPreset 'moody_fade' (复古褪色).
# Generated by scripts/luts/gen_baseline_luts.py — replace with a
# hand-graded / commercial LUT keeping the same filename to upgrade.
TITLE "moody_fade"
LUT_3D_SIZE 5
DOMAIN_MIN 0.0 0.0 0.0
DOMAIN_MAX 1.0 1.0 1.0
0.100000 0.100000 0.100000
0.330355 0.169107 0.169107
0.540000 0.232000 0.232000
0.720355 0.286107 0.286107
0.880000 0.334000 0.334000
0.169107 0.330355 0.169107
0.330355 0.330355 0.169107
0.540000 0.393249 0.232000
0.720355 0.447355 0.286107
0.880000 0.495249 0.334000
0.232000 0.540000 0.232000
0.393249 0.540000 0.232000
0.540000 0.540000 0.232000
0.720355 0.594107 0.286107
0.880000 0.642000 0.334000
0.286107 0.720355 0.286107
0.447355 0.720355 0.286107
0.594107 0.720355 0.286107
0.720355 0.720355 0.286107
0.880000 0.768249 0.334000
0.334000 0.880000 0.334000
0.495249 0.880000 0.334000
0.642000 0.880000 0.334000
0.768249 0.880000 0.334000
0.880000 0.880000 0.334000
0.169107 0.169107 0.330355
0.330355 0.169107 0.330355
0.540000 0.232000 0.393249
0.720355 0.286107 0.447355
0.880000 0.334000 0.495249
0.169107 0.330355 0.330355
0.330355 0.330355 0.330355
0.540000 0.393249 0.393249
0.720355 0.447355 0.447355
0.880000 0.495249 0.495249
0.232000 0.540000 0.393249
0.393249 0.540000 0.393249
0.540000 0.540000 0.393249
0.720355 0.594107 0.447355
0.880000 0.642000 0.495249
0.286107 0.720355 0.447355
0.447355 0.720355 0.447355
0.594107 0.720355 0.447355
0.720355 0.720355 0.447355
0.880000 0.768249 0.495249
0.334000 0.880000 0.495249
0.495249 0.880000 0.495249
0.642000 0.880000 0.495249
0.768249 0.880000 0.495249
0.880000 0.880000 0.495249
0.232000 0.232000 0.540000
0.393249 0.232000 0.540000
0.540000 0.232000 0.540000
0.720355 0.286107 0.594107
0.880000 0.334000 0.642000
0.232000 0.393249 0.540000
0.393249 0.393249 0.540000
0.540000 0.393249 0.540000
0.720355 0.447355 0.594107
0.880000 0.495249 0.642000
0.232000 0.540000 0.540000
0.393249 0.540000 0.540000
0.540000 0.540000 0.540000
0.720355 0.594107 0.594107
0.880000 0.642000 0.642000
0.286107 0.720355 0.594107
0.447355 0.720355 0.594107
0.594107 0.720355 0.594107
0.720355 0.720355 0.594107
0.880000 0.768249 0.642000
0.334000 0.880000 0.642000
0.495249 0.880000 0.642000
0.642000 0.880000 0.642000
0.768249 0.880000 0.642000
0.880000 0.880000 0.642000
0.286107 0.286107 0.720355
0.447355 0.286107 0.720355
0.594107 0.286107 0.720355
0.720355 0.286107 0.720355
0.880000 0.334000 0.768249
0.286107 0.447355 0.720355
0.447355 0.447355 0.720355
0.594107 0.447355 0.720355
0.720355 0.447355 0.720355
0.880000 0.495249 0.768249
0.286107 0.594107 0.720355
0.447355 0.594107 0.720355
0.594107 0.594107 0.720355
0.720355 0.594107 0.720355
0.880000 0.642000 0.768249
0.286107 0.720355 0.720355
0.447355 0.720355 0.720355
0.594107 0.720355 0.720355
0.720355 0.720355 0.720355
0.880000 0.768249 0.768249
0.334000 0.880000 0.768249
0.495249 0.880000 0.768249
0.642000 0.880000 0.768249
0.768249 0.880000 0.768249
0.880000 0.880000 0.768249
0.334000 0.334000 0.880000
0.495249 0.334000 0.880000
0.642000 0.334000 0.880000
0.768249 0.334000 0.880000
0.880000 0.334000 0.880000
0.334000 0.495249 0.880000
0.495249 0.495249 0.880000
0.642000 0.495249 0.880000
0.768249 0.495249 0.880000
0.880000 0.495249 0.880000
0.334000 0.642000 0.880000
0.495249 0.642000 0.880000
0.642000 0.642000 0.880000
0.768249 0.642000 0.880000
0.880000 0.642000 0.880000
0.334000 0.768249 0.880000
0.495249 0.768249 0.880000
0.642000 0.768249 0.880000
0.768249 0.768249 0.880000
0.880000 0.768249 0.880000
0.334000 0.880000 0.880000
0.495249 0.880000 0.880000
0.642000 0.880000 0.880000
0.768249 0.880000 0.880000
0.880000 0.880000 0.880000
