ios/AIPhotoCoach/Resources/LUTs/moody_fade.cube
# Baseline LUT for FilterPreset 'moody_fade' (复古褪色).
# Generated by scripts/luts/gen_baseline_luts.py — replace with a
# hand-graded / commercial LUT keeping the same filename to upgrade.
TITLE "moody_fade"
LUT_3D_SIZE 9
DOMAIN_MIN 0.0 0.0 0.0
DOMAIN_MAX 1.0 1.0 1.0
0.100000 0.100000 0.100000
0.216634 0.134990 0.134990
0.330355 0.169107 0.169107
0.438694 0.201608 0.201608
0.540000 0.232000 0.232000
0.633694 0.260108 0.260108
0.720355 0.286107 0.286107
0.801634 0.310490 0.310490
0.880000 0.334000 0.334000
0.134990 0.216634 0.134990
0.216634 0.216634 0.134990
0.330355 0.250751 0.169107
0.438694 0.283252 0.201608
0.540000 0.313644 0.232000
0.633694 0.341752 0.260108
0.720355 0.367751 0.286107
0.801634 0.392134 0.310490
0.880000 0.415644 0.334000
0.169107 0.330355 0.169107
0.250751 0.330355 0.169107
0.330355 0.330355 0.169107
0.438694 0.362857 0.201608
0.540000 0.393249 0.232000
0.633694 0.421357 0.260108
0.720355 0.447355 0.286107
0.801634 0.471739 0.310490
0.880000 0.495249 0.334000
0.201608 0.438694 0.201608
0.283252 0.438694 0.201608
0.362857 0.438694 0.201608
0.438694 0.438694 0.201608
0.540000 0.469086 0.232000
0.633694 0.497194 0.260108
0.720355 0.523192 0.286107
0.801634 0.547576 0.310490
0.880000 0.571086 0.334000
0.232000 0.540000 0.232000
0.313644 0.540000 0.232000
0.393249 0.540000 0.232000
0.469086 0.540000 0.232000
0.540000 0.540000 0.232000
0.633694 0.568108 0.260108
0.720355 0.594107 0.286107
0.801634 0.618490 0.310490
0.880000 0.642000 0.334000
0.260108 0.633694 0.260108
0.341752 0.633694 0.260108
0.421357 0.633694 0.260108
0.497194 0.633694 0.260108
0.568108 0.633694 0.260108
0.633694 0.633694 0.260108
0.720355 0.659692 0.286107
0.801634 0.684076 0.310490
0.880000 0.707586 0.334000
0.286107 0.720355 0.286107
0.367751 0.720355 0.286107
0.447355 0.720355 0.286107
0.523192 0.720355 0.286107
0.594107 0.720355 0.286107
0.659692 0.720355 0.286107
0.720355 0.720355 0.286107
0.801634 0.744739 0.310490
0.880000 0.768249 0.334000
0.310490 0.801634 0.310490
0.392134 0.801634 0.310490
0.471739 0.801634 0.310490
0.547576 0.801634 0.310490
0.618490 0.801634 0.310490
0.684076 0.801634 0.310490
0.744739 0.801634 0.310490
0.801634 0.801634 0.310490
0.880000 0.825144 0.334000
0.334000 0.880000 0.334000
0.415644 0.880000 0.334000
0.495249 0.880000 0.334000
0.571086 0.880000 0.334000
0.642000 0.880000 0.334000
0.707586 0.880000 0.334000
0.768249 0.880000 0.334000
0.825144 0.880000 0.334000
0.880000 0.880000 0.334000
0.134990 0.134990 0.216634
0.216634 0.134990 0.216634
0.330355 0.169107 0.250751
0.438694 0.201608 0.283252
0.540000 0.232000 0.313644
0.633694 0.260108 0.341752
0.720355 0.286107 0.367751
0.801634 0.310490 0.392134
0.880000 0.334000 0.415644
0.134990 0.216634 0.216634
0.216634 0.216634 0.216634
0.330355 0.250751 0.250751
0.438694 0.283252 0.283252
0.540000 0.313644 0.313644
0.633694 0.341752 0.341752
0.720355 0.367751 0.367751
0.801634 0.392134 0.392134
0.880000 0.415644 0.415644
0.169107 0.330355 0.250751
0.250751 0.330355 0.250751
0.330355 0.330355 0.250751
0.438694 0.362857 0.283252
0.540000 0.393249 0.313644
0.633694 0.421357 0.341752
0.720355 0.447355 0.367751
0.801634 0.471739 0.392134
0.880000 0.495249 0.415644
0.201608 0.438694 0.283252
0.283252 0.438694 0.283252
0.362857 0.438694 0.283252
0.438694 0.438694 0.283252
0.540000 0.469086 0.313644
0.633694 0.497194 0.341752
0.720355 0.523192 0.367751
0.801634 0.547576 0.392134
0.880000 0.571086 0.415644
0.232000 0.540000 0.313644
0.313644 0.540000 0.313644
0.393249 0.540000 0.313644
0.469086 0.540000 0.313644
0.540000 0.540000 0.313644
0.633694 0.568108 0.341752
0.720355 0.594107 0.367751
0.801634 0.618490 0.392134
0.880000 0.642000 0.415644
0.260108 0.633694 0.341752
0.341752 0.633694 0.341752
0.421357 0.633694 0.341752
0.497194 0.633694 0.341752
0.568108 0.633694 0.341752
0.633694 0.633694 0.341752
0.720355 0.659692 0.367751
0.801634 0.684076 0.392134
0.880000 0.707586 0.415644
0.286107 0.720355 0.367751
0.367751 0.720355 0.367751
0.447355 0.720355 0.367751
0.523192 0.720355 0.367751
0.594107 0.720355 0.367751
0.659692 0.720355 0.367751
0.720355 0.720355 0.367751
0.801634 0.744739 0.392134
0.880000 0.768249 0.415644
0.310490 0.801634 0.392134
0.392134 0.801634 0.392134
0.471739 0.801634 0.392134
0.547576 0.801634 0.392134
0.618490 0.801634 0.392134
0.684076 0.801634 0.392134
0.744739 0.801634 0.392134
0.801634 0.801634 0.392134
0.880000 0.825144 0.415644
0.334000 0.880000 0.415644
0.415644 0.880000 0.415644
0.495249 0.880000 0.415644
0.571086 0.880000 0.415644
0.642000 0.880000 0.415644
0.707586 0.880000 0.415644
0.768249 0.880000 0.415644
0.825144 0.880000 0.415644
0.880000 0.880000 0.415644
0.169107 0.169107 0.330355
0.250751 0.169107 0.330355
0.330355 0.169107 0.330355
0.438694 0.201608 0.362857
0.540000 0.232000 0.393249
0.633694 0.260108 0.421357
0.720355 0.286107 0.447355
0.801634 0.310490 0.471739
0.880000 0.334000 0.495249
0.169107 0.250751 0.330355
0.250751 0.250751 0.330355
0.330355 0.250751 0.330355
0.438694 0.283252 0.362857
0.540000 0.313644 0.393249
0.633694 0.341752 0.421357
0.720355 0.367751 0.447355
0.801634 0.392134 0.471739
0.880000 0.415644 0.495249
0.169107 0.330355 0.330355
0.250751 0.330355 0.330355
0.330355 0.330355 0.330355
0.438694 0.362857 0.362857
0.540000 0.393249 0.393249
0.633694 0.421357 0.421357
0.720355 0.447355 0.447355
0.801634 0.471739 0.471739
0.880000 0.495249 0.495249
0.201608 0.438694 0.362857
0.283252 0.438694 0.362857
0.362857 0.438694 0.362857
0.438694 0.438694 0.362857
0.540000 0.469086 0.393249
0.633694 0.497194 0.421357
0.720355 0.523192 0.447355
0.801634 0.547576 0.471739
0.880000 0.571086 0.495249
0.232000 0.540000 0.393249
0.313644 0.540000 0.393249
0.393249 0.540000 0.393249
0.469086 0.540000 0.393249
0.540000 0.540000 0.393249
0.633694 0.568108 0.421357
0.720355 0.594107 0.447355
0.801634 0.618490 0.471739
0.880000 0.642000 0.495249
0.260108 0.633694 0.421357
0.341752 0.633694 0.421357
0.421357 0.633694 0.421357
0.497194 0.633694 0.421357
0.568108 0.633694 0.421357
0.633694 0.633694 0.421357
0.720355 0.659692 0.447355
0.801634 0.684076 0.471739
0.880000 0.707586 0.495249
0.286107 0.720355 0.447355
0.367751 0.720355 0.447355
0.447355 0.720355 0.447355
0.523192 0.720355 0.447355
0.594107 0.720355 0.447355
0.659692 0.720355 0.447355
0.720355 0.720355 0.447355
0.801634 0.744739 0.471739
0.880000 0.768249 0.495249
0.310490 0.801634 0.471739
0.392134 0.801634 0.471739
0.471739 0.801634 0.471739
0.547576 0.801634 0.471739
0.618490 0.801634 0.471739
0.684076 0.801634 0.471739
0.744739 0.801634 0.471739
0.801634 0.801634 0.471739
0.880000 0.825144 0.495249
0.334000 0.880000 0.495249
0.415644 0.880000 0.495249
0.495249 0.880000 0.495249
0.571086 0.880000 0.495249
0.642000 0.880000 0.495249
0.707586 0.880000 0.495249
0.768249 0.880000 0.495249
0.825144 0.880000 0.495249
0.880000 0.880000 0.495249
0.201608 0.201608 0.438694
0.283252 0.201608 0.438694
0.362857 0.201608 0.438694
0.438694 0.201608 0.438694
0.540000 0.232000 0.469086
0.633694 0.260108 0.497194
0.720355 0.286107 0.523192
0.801634 0.310490 0.547576
0.880000 0.334000 0.571086
0.201608 0.283252 0.438694
0.283252 0.283252 0.438694
0.362857 0.283252 0.438694
0.438694 0.283252 0.438694
0.540000 0.313644 0.469086
0.633694 0.341752 0.497194
0.720355 0.367751 0.523192
0.801634 0.392134 0.547576
0.880000 0.415644 0.571086
0.201608 0.362857 0.438694
0.283252 0.362857 0.438694
0.362857 0.362857 0.438694
0.438694 0.362857 0.438694
0.540000 0.393249 0.469086
0.633694 0.421357 0.497194
0.720355 0.447355 0.523192
0.801634 0.471739 0.547576
0.880000 0.495249 0.571086
0.201608 0.438694 0.438694
0.283252 0.438694 0.438694
0.362857 0.438694 0.438694
0.438694 0.438694 0.438694
0.540000 0.469086 0.469086
0.633694 0.497194 0.497194
0.720355 0.523192 0.523192
0.801634 0.547576 0.547576
0.880000 0.571086 0.571086
0.232000 0.540000 0.469086
0.313644 0.540000 0.469086
0.393249 0.540000 0.469086
0.469086 0.540000 0.469086
0.540000 0.540000 0.469086
0.633694 0.568108 0.497194
0.720355 0.594107 0.523192
0.801634 0.618490 0.547576
0.880000 0.642000 0.571086
0.260108 0.633694 0.497194
0.341752 0.633694 0.497194
0.421357 0.633694 0.497194
0.497194 0.633694 0.497194
0.568108 0.633694 0.497194
0.633694 0.633694 0.497194
0.720355 0.659692 0.523192
0.801634 0.684076 0.547576
0.880000 0.707586 0.571086
0.286107 0.720355 0.523192
0.367751 0.720355 0.523192
0.447355 0.720355 0.523192
0.523192 0.720355 0.523192
0.594107 0.720355 0.523192
0.659692 0.720355 0.523192
0.720355 0.720355 0.523192
0.801634 0.744739 0.547576
0.880000 0.768249 0.571086
0.310490 0.801634 0.547576
0.392134 0.801634 0.547576
0.471739 0.801634 0.547576
0.547576 0.801634 0.547576
0.618490 0.801634 0.547576
0.684076 0.801634 0.547576
0.744739 0.801634 0.547576
0.801634 0.801634 0.547576
0.880000 0.825144 0.571086
0.334000 0.880000 0.571086
0.415644 0.880000 0.571086
0.495249 0.880000 0.571086
0.571086 0.880000 0.571086
0.642000 0.880000 0.571086
0.707586 0.880000 0.571086
0.768249 0.880000 0.571086
0.825144 0.880000 0.571086
0.880000 0.880000 0.571086
0.232000 0.232000 0.540000
0.313644 0.232000 0.540000
0.393249 0.232000 0.540000
0.469086 0.232000 0.540000
0.540000 0.232000 0.540000
0.633694 0.260108 0.568108
0.720355 0.286107 0.594107
0.801634 0.310490 0.618490
0.880000 0.334000 0.642000
0.232000 0.313644 0.540000
0.313644 0.313644 0.540000
0.393249 0.313644 0.540000
0.469086 0.313644 0.540000
0.540000 0.313644 0.540000
0.633694 0.341752 0.568108
0.720355 0.367751 0.594107
0.801634 0.392134 0.618490
0.880000 0.415644 0.642000
0.232000 0.393249 0.540000
0.313644 0.393249 0.540000
0.393249 0.393249 0.540000
0.469086 0.393249 0.540000
0.540000 0.393249 0.540000
0.633694 0.421357 0.568108
0.720355 0.447355 0.594107
0.801634 0.471739 0.618490
0.880000 0.495249 0.642000
0.232000 0.469086 0.540000
0.313644 0.469086 0.540000
0.393249 0.469086 0.540000
0.469086 0.469086 0.540000
0.540000 0.469086 0.540000
0.633694 0.497194 0.568108
0.720355 0.523192 0.594107
0.801634 0.547576 0.618490
0.880000 0.571086 0.642000
0.232000 0.540000 0.540000
0.313644 0.540000 0.540000
0.393249 0.540000 0.540000
0.469086 0.540000 0.540000
0.540000 0.540000 0.540000
0.633694 0.568108 0.568108
0.720355 0.594107 0.594107
0.801634 0.618490 0.618490
0.880000 0.642000 0.642000
0.260108 0.633694 0.568108
0.341752 0.633694 0.568108
0.421357 0.633694 0.568108
0.497194 0.633694 0.568108
0.568108 0.633694 0.568108
0.633694 0.633694 0.568108
0.720355 0.659692 0.594107
0.801634 0.684076 0.618490
0.880000 0.707586 0.642000
0.286107 0.720355 0.594107
0.367751 0.720355 0.594107
0.447355 0.720355 0.594107
0.523192 0.720355 0.594107
0.594107 0.720355 0.594107
0.659692 0.720355 0.594107
0.720355 0.720355 0.594107
0.801634 0.744739 0.618490
0.880000 0.768249 0.642000
0.310490 0.801634 0.618490
0.392134 0.801634 0.618490
0.471739 0.801634 0.618490
0.547576 0.801634 0.618490
0.618490 0.801634 0.618490
0.684076 0.801634 0.618490
0.744739 0.801634 0.618490
0.801634 0.801634 0.618490
0.880000 0.825144 0.642000
0.334000 0.880000 0.642000
0.415644 0.880000 0.642000
0.495249 0.880000 0.642000
0.571086 0.880000 0.642000
0.642000 0.880000 0.642000
0.707586 0.880000 0.642000
0.768249 0.880000 0.642000
0.825144 0.880000 0.642000
0.880000 0.880000 0.642000
0.260108 0.260108 0.633694
0.341752 0.260108 0.633694
0.421357 0.260108 0.633694
0.497194 0.260108 0.633694
0.568108 0.260108 0.633694
0.633694 0.260108 0.633694
0.720355 0.286107 0.659692
0.801634 0.310490 0.684076
0.880000 0.334000 0.707586
0.260108 0.341752 0.633694
0.341752 0.341752 0.633694
0.421357 0.341752 0.633694
0.497194 0.341752 0.633694
0.568108 0.341752 0.633694
0.633694 0.341752 0.633694
0.720355 0.367751 0.659692
0.801634 0.392134 0.684076
0.880000 0.415644 0.707586
0.260108 0.421357 0.633694
0.341752 0.421357 0.633694
0.421357 0.421357 0.633694
0.497194 0.421357 0.633694
0.568108 0.421357 0.633694
0.633694 0.421357 0.633694
0.720355 0.447355 0.659692
0.801634 0.471739 0.684076
0.880000 0.495249 0.707586
0.260108 0.497194 0.633694
0.341752 0.497194 0.633694
0.421357 0.497194 0.633694
0.497194 0.497194 0.633694
0.568108 0.497194 0.633694
0.633694 0.497194 0.633694
0.720355 0.523192 0.659692
0.801634 0.547576 0.684076
0.880000 0.571086 0.707586
0.260108 0.568108 0.633694
0.341752 0.568108 0.633694
0.421357 0.568108 0.633694
0.497194 0.568108 0.633694
0.568108 0.568108 0.633694
0.633694 0.568108 0.633694
0.720355 0.594107 0.659692
0.801634 0.618490 0.684076
0.880000 0.642000 0.707586
0.260108 0.633694 0.633694
0.341752 0.633694 0.633694
0.421357 0.633694 0.633694
0.497194 0.633694 0.633694
0.568108 0.633694 0.633694
0.633694 0.633694 0.633694
0.720355 0.659692 0.659692
0.801634 0.684076 0.684076
0.880000 0.707586 0.707586
0.286107 0.720355 0.659692
0.367751 0.720355 0.659692
0.447355 0.720355 0.659692
0.523192 0.720355 0.659692
0.594107 0.720355 0.659692
0.659692 0.720355 0.659692
0.720355 0.720355 0.659692
0.801634 0.744739 0.684076
0.880000 0.768249 0.707586
0.310490 0.801634 0.684076
0.392134 0.801634 0.684076
0.471739 0.801634 0.684076
0.547576 0.801634 0.684076
0.618490 0.801634 0.684076
0.684076 0.801634 0.684076
0.744739 0.801634 0.684076
0.801634 0.801634 0.684076
0.880000 0.825144 0.707586
0.334000 0.880000 0.707586
0.415644 0.880000 0.707586
0.495249 0.880000 0.707586
0.571086 0.880000 0.707586
0.642000 0.880000 0.707586
0.707586 0.880000 0.707586
0.768249 0.880000 0.707586
0.825144 0.880000 0.707586
0.880000 0.880000 0.707586
0.286107 0.286107 0.720355
0.367751 0.286107 0.720355
0.447355 0.286107 0.720355
0.523192 0.286107 0.720355
0.594107 0.286107 0.720355
0.659692 0.286107 0.720355
0.720355 0.286107 0.720355
0.801634 0.310490 0.744739
0.880000 0.334000 0.768249
0.286107 0.367751 0.720355
0.367751 0.367751 0.720355
0.447355 0.367751 0.720355
0.523192 0.367751 0.720355
0.594107 0.367751 0.720355
0.659692 0.367751 0.720355
0.720355 0.367751 0.720355
0.801634 0.392134 0.744739
0.880000 0.415644 0.768249
0.286107 0.447355 0.720355
0.367751 0.447355 0.720355
0.447355 0.447355 0.720355
0.523192 0.447355 0.720355
0.594107 0.447355 0.720355
0.659692 0.447355 0.720355
0.720355 0.447355 0.720355
0.801634 0.471739 0.744739
0.880000 0.495249 0.768249
0.286107 0.523192 0.720355
0.367751 0.523192 0.720355
0.447355 0.523192 0.720355
0.523192 0.523192 0.720355
0.594107 0.523192 0.720355
0.659692 0.523192 0.720355
0.720355 0.523192 0.720355
0.801634 0.547576 0.744739
0.880000 0.571086 0.768249
0.286107 0.594107 0.720355
0.367751 0.594107 0.720355
0.447355 0.594107 0.720355
0.523192 0.594107 0.720355
0.594107 0.594107 0.720355
0.659692 0.594107 0.720355
0.720355 0.594107 0.720355
0.801634 0.618490 0.744739
0.880000 0.642000 0.768249
0.286107 0.659692 0.720355
0.367751 0.659692 0.720355
0.447355 0.659692 0.720355
0.523192 0.659692 0.720355
0.594107 0.659692 0.720355
0.659692 0.659692 0.720355
0.720355 0.659692 0.720355
0.801634 0.684076 0.744739
0.880000 0.707586 0.768249
0.286107 0.720355 0.720355
0.367751 0.720355 0.720355
0.447355 0.720355 0.720355
0.523192 0.720355 0.720355
0.594107 0.720355 0.720355
0.659692 0.720355 0.720355
0.720355 0.720355 0.720355
0.801634 0.744739 0.744739
0.880000 0.768249 0.768249
0.310490 0.801634 0.744739
0.392134 0.801634 0.744739
0.471739 0.801634 0.744739
0.547576 0.801634 0.744739
0.618490 0.801634 0.744739
0.684076 0.801634 0.744739
0.744739 0.801634 0.744739
0.801634 0.801634 0.744739
0.880000 0.825144 0.768249
0.334000 0.880000 0.768249
0.415644 0.880000 0.768249
0.495249 0.880000 0.768249
0.571086 0.880000 0.768249
0.642000 0.880000 0.768249
0.707586 0.880000 0.768249
0.768249 0.880000 0.768249
0.825144 0.880000 0.768249
0.880000 0.880000 0.768249
0.310490 0.310490 0.801634
0.392134 0.310490 0.801634
0.471739 0.310490 0.801634
0.547576 0.310490 0.801634
0.618490 0.310490 0.801634
0.684076 0.310490 0.801634
0.744739 0.310490 0.801634
0.801634 0.310490 0.801634
0.880000 0.334000 0.825144
0.310490 0.392134 0.801634
0.392134 0.392134 0.801634
0.471739 0.392134 0.801634
0.547576 0.392134 0.801634
0.618490 0.392134 0.801634
0.684076 0.392134 0.801634
0.744739 0.392134 0.801634
0.801634 0.392134 0.801634
0.880000 0.415644 0.825144
0.310490 0.471739 0.801634
0.392134 0.471739 0.801634
0.471739 0.471739 0.801634
0.547576 0.471739 0.801634
0.618490 0.471739 0.801634
0.684076 0.471739 0.801634
0.744739 0.471739 0.801634
0.801634 0.471739 0.801634
0.880000 0.495249 0.825144
0.310490 0.547576 0.801634
0.392134 0.547576 0.801634
0.471739 0.547576 0.801634
0.547576 0.547576 0.801634
0.618490 0.547576 0.801634
0.684076 0.547576 0.801634
0.744739 0.547576 0.801634
0.801634 0.547576 0.801634
0.880000 0.571086 0.825144
0.310490 0.618490 0.801634
0.392134 0.618490 0.801634
0.471739 0.618490 0.801634
0.547576 0.618490 0.801634
0.618490 0.618490 0.801634
0.684076 0.618490 0.801634
0.744739 0.618490 0.801634
0.801634 0.618490 0.801634
0.880000 0.642000 0.825144
0.310490 0.684076 0.801634
0.392134 0.684076 0.801634
0.471739 0.684076 0.801634
0.547576 0.684076 0.801634
0.618490 0.684076 0.801634
0.684076 0.684076 0.801634
0.744739 0.684076 0.801634
0.801634 0.684076 0.801634
0.880000 0.707586 0.825144
0.310490 0.744739 0.801634
0.392134 0.744739 0.801634
0.471739 0.744739 0.801634
0.547576 0.744739 0.801634
0.618490 0.744739 0.801634
0.684076 0.744739 0.801634
0.744739 0.744739 0.801634
0.801634 0.744739 0.801634
0.880000 0.768249 0.825144
0.310490 0.801634 0.801634
0.392134 0.801634 0.801634
0.471739 0.801634 0.801634
0.547576 0.801634 0.801634
0.618490 0.801634 0.801634
0.684076 0.801634 0.801634
0.744739 0.801634 0.801634
0.801634 0.801634 0.801634
0.880000 0.825144 0.825144
0.334000 0.880000 0.825144
0.415644 0.880000 0.825144
0.495249 0.880000 0.825144
0.571086 0.880000 0.825144
0.642000 0.880000 0.825144
0.707586 0.880000 0.825144
0.768249 0.880000 0.825144
0.825144 0.880000 0.825144
0.880000 0.880000 0.825144
0.334000 0.334000 0.880000
0.415644 0.334000 0.880000
0.495249 0.334000 0.880000
0.571086 0.334000 0.880000
0.642000 0.334000 0.880000
0.707586 0.334000 0.880000
0.768249 0.334000 0.880000
0.825144 0.334000 0.880000
0.880000 0.334000 0.880000
0.334000 0.415644 0.880000
0.415644 0.415644 0.880000
0.495249 0.415644 0.880000
0.571086 0.415644 0.880000
0.642000 0.415644 0.880000
0.707586 0.415644 0.880000
0.768249 0.415644 0.880000
0.825144 0.415644 0.880000
0.880000 0.415644 0.880000
0.334000 0.495249 0.880000
0.415644 0.495249 0.880000
0.495249 0.495249 0.880000
0.571086 0.495249 0.880000
0.642000 0.495249 0.880000
0.707586 0.495249 0.880000
0.768249 0.495249 0.880000
0.825144 0.495249 0.880000
0.880000 0.495249 0.880000
0.334000 0.571086 0.880000
0.415644 0.571086 0.880000
0.495249 0.571086 0.880000
0.571086 0.571086 0.880000
0.642000 0.571086 0.880000
0.707586 0.571086 0.880000
0.768249 0.571086 0.880000
0.825144 0.571086 0.880000
0.880000 0.571086 0.880000
0.334000 0.642000 0.880000
0.415644 0.642000 0.880000
0.495249 0.642000 0.880000
0.571086 0.642000 0.880000
0.642000 0.642000 0.880000
0.707586 0.642000 0.880000
0.768249 0.642000 0.880000
0.825144 0.642000 0.880000
0.880000 0.642000 0.880000
0.334000 0.707586 0.880000
0.415644 0.707586 0.880000
0.495249 0.707586 0.880000
0.571086 0.707586 0.880000
0.642000 0.707586 0.880000
0.707586 0.707586 0.880000
0.768249 0.707586 0.880000
0.825144 0.707586 0.880000
0.880000 0.707586 0.880000
0.334000 0.768249 0.880000
0.415644 0.768249 0.880000
0.495249 0.768249 0.880000
0.571086 0.768249 0.880000
0.642000 0.768249 0.880000
0.707586 0.768249 0.880000
0.768249 0.768249 0.880000
0.825144 0.768249 0.880000
0.880000 0.768249 0.880000
0.334000 0.825144 0.880000
0.415644 0.825144 0.880000
0.495249 0.825144 0.880000
0.571086 0.825144 0.880000
0.642000 0.825144 0.880000
0.707586 0.825144 0.880000
0.768249 0.825144 0.880000
0.825144 0.825144 0.880000
0.880000 0.825144 0.880000
0.334000 0.880000 0.880000
0.415644 0.880000 0.880000
0.495249 0.880000 0.880000
0.571086 0.880000 0.880000
0.642000 0.880000 0.880000
0.707586 0.880000 0.880000
0.768249 0.880000 0.880000
0.825144 0.880000 0.880000
0.880000 0.880000 0.880000
