ios/AIPhotoCoach/Resources/LUTs/natural.cube
# Baseline LUT for FilterPreset 'natural' (自然).
# Generated by scripts/luts/gen_baseline_luts.py — replace with a
# hand-graded / commercial LUT keeping the same filename to upgrade.
TITLE "natural"
LUT_3D_SIZE 9
DOMAIN_MIN 0.0 0.0 0.0
DOMAIN_MAX 1.0 1.0 1.0
0.000000 0.000000 0.000000
0.132654 0.000000 0.000000
0.264142 0.000000 0.000000
0.393478 0.000000 0.000000
0.520000 0.000000 0.000000
0.643478 0.000000 0.000000
0.764142 0.000000 0.000000
0.882654 0.000000 0.000000
1.000000 0.000000 0.000000
0.000000 0.132654 0.000000
0.132654 0.132654 0.000000
0.264142 0.132654 0.000000
0.393478 0.132654 0.000000
0.520000 0.132654 0.000000
0.643478 0.132654 0.000000
0.764142 0.132654 0.000000
0.882654 0.132654 0.000000
1.000000 0.132654 0.000000
0.000000 0.264142 0.000000
0.132654 0.264142 0.000000
0.264142 0.264142 0.000000
0.393478 0.264142 0.000000
0.520000 0.264142 0.000000
0.643478 0.264142 0.000000
0.764142 0.264142 0.000000
0.882654 0.264142 0.000000
1.000000 0.264142 0.000000
0.000000 0.393478 0.000000
0.132654 0.393478 0.000000
0.264142 0.393478 0.000000
0.393478 0.393478 0.000000
0.520000 0.393478 0.000000
0.643478 0.393478 0.000000
0.764142 0.393478 0.000000
0.882654 0.393478 0.000000
1.000000 0.393478 0.000000
0.000000 0.520000 0.000000
0.132654 0.520000 0.000000
0.264142 0.520000 0.000000
0.393478 0.520000 0.000000
0.520000 0.520000 0.000000
0.643478 0.520000 0.000000
0.764142 0.520000 0.000000
0.882654 0.520000 0.000000
1.000000 0.520000 0.000000
0.000000 0.643478 0.000000
0.132654 0.643478 0.000000
0.264142 0.643478 0.000000
0.393478 0.643478 0.000000
0.520000 0.643478 0.000000
0.643478 0.643478 0.000000
0.764142 0.643478 0.000000
0.882654 0.643478 0.000000
1.000000 0.643478 0.000000
0.000000 0.764142 0.000000
0.132654 0.764142 0.000000
0.264142 0.764142 0.000000
0.393478 0.764142 0.000000
0.520000 0.764142 0.000000
0.643478 0.764142 0.000000
0.764142 0.764142 0.000000
0.882654 0.764142 0.000000
1.000000 0.764142 0.000000
0.000000 0.882654 0.000000
0.132654 0.882654 0.000000
0.264142 0.882654 0.000000
0.393478 0.882654 0.000000
0.520000 0.882654 0.000000
0.643478 0.882654 0.000000
0.764142 0.882654 0.000000
0.882654 0.882654 0.000000
1.000000 0.882654 0.000000
0.000000 1.000000 0.000000
0.132654 1.000000 0.000000
0.264142 1.000000 0.000000
0.393478 1.000000 0.000000
0.520000 1.000000 0.000000
0.643478 1.000000 0.000000
0.764142 1.000000 0.000000
0.882654 1.000000 0.000000
1.000000 1.000000 0.000000
0.000000 0.000000 0.132654
0.132654 0.000000 0.132654
0.264142 0.000000 0.132654
0.393478 0.000000 0.132654
0.520000 0.000000 0.132654
0.643478 0.000000 0.132654
0.764142 0.000000 0.132654
0.882654 0.000000 0.132654
1.000000 0.000000 0.132654
0.000000 0.132654 0.132654
0.132654 0.132654 0.132654
0.264142 0.126079 0.126079
0.393478 0.119612 0.119612
0.520000 0.113286 0.113286
0.643478 0.107112 0.107112
0.764142 0.101079 0.101079
0.882654 0.095154 0.095154
1.000000 0.089286 0.089286
0.000000 0.264142 0.132654
0.126079 0.264142 0.126079
0.264142 0.264142 0.126079
0.393478 0.257675 0.119612
0.520000 0.251349 0.113286
0.643478 0.245175 0.107112
0.764142 0.239142 0.101079
0.882654 0.233217 0.095154
1.000000 0.227349 0.089286
0.000000 0.393478 0.132654
0.119612 0.393478 0.119612
0.257675 0.393478 0.119612
0.393478 0.393478 0.119612
0.520000 0.387151 0.113286
0.643478 0.380978 0.107112
0.764142 0.374944 0.101079
0.882654 0.369019 0.095154
1.000000 0.363151 0.089286
0.000000 0.520000 0.132654
0.113286 0.520000 0.113286
0.251349 0.520000 0.113286
0.387151 0.520000 0.113286
0.520000 0.520000 0.113286
0.643478 0.513826 0.107112
0.764142 0.507793 0.101079
0.882654 0.501867 0.095154
1.000000 0.496000 0.089286
0.000000 0.643478 0.132654
0.107112 0.643478 0.107112
0.245175 0.643478 0.107112
0.380978 0.643478 0.107112
0.513826 0.643478 0.107112
0.643478 0.643478 0.107112
0.764142 0.637444 0.101079
0.882654 0.631519 0.095154
1.000000 0.625651 0.089286
0.000000 0.764142 0.132654
0.101079 0.764142 0.101079
0.239142 0.764142 0.101079
0.374944 0.764142 0.101079
0.507793 0.764142 0.101079
0.637444 0.764142 0.101079
0.764142 0.764142 0.101079
0.882654 0.758217 0.095154
1.000000 0.752349 0.089286
0.000000 0.882654 0.132654
0.095154 0.882654 0.095154
0.233217 0.882654 0.095154
0.369019 0.882654 0.095154
0.501867 0.882654 0.095154
0.631519 0.882654 0.095154
0.758217 0.882654 0.095154
0.882654 0.882654 0.095154
1.000000 0.876786 0.089286
0.000000 1.000000 0.132654
0.089286 1.000000 0.089286
0.227349 1.000000 0.089286
0.363151 1.000000 0.089286
0.496000 1.000000 0.089286
0.625651 1.000000 0.089286
0.752349 1.000000 0.089286
0.876786 1.000000 0.089286
1.000000 1.000000 0.089286
0.000000 0.000000 0.264142
0.132654 0.000000 0.264142
0.264142 0.000000 0.264142
0.393478 0.000000 0.264142
0.520000 0.000000 0.264142
0.643478 0.000000 0.264142
0.764142 0.000000 0.264142
0.882654 0.000000 0.264142
1.000000 0.000000 0.264142
0.000000 0.132654 0.264142
0.126079 0.126079 0.264142
0.264142 0.126079 0.264142
0.393478 0.119612 0.257675
0.520000 0.113286 0.251349
0.643478 0.107112 0.245175
0.764142 0.101079 0.239142
0.882654 0.095154 0.233217
1.000000 0.089286 0.227349
0.000000 0.264142 0.264142
0.126079 0.264142 0.264142
0.264142 0.264142 0.264142
0.393478 0.257675 0.257675
0.520000 0.251349 0.251349
0.643478 0.245175 0.245175
0.764142 0.239142 0.239142
0.882654 0.233217 0.233217
1.000000 0.227349 0.227349
0.000000 0.393478 0.264142
0.119612 0.393478 0.257675
0.257675 0.393478 0.257675
0.393478 0.393478 0.257675
0.520000 0.387151 0.251349
0.643478 0.380978 0.245175
0.764142 0.374944 0.239142
0.882654 0.369019 0.233217
1.000000 0.363151 0.227349
0.000000 0.520000 0.264142
0.113286 0.520000 0.251349
0.251349 0.520000 0.251349
0.387151 0.520000 0.251349
0.520000 0.520000 0.251349
0.643478 0.513826 0.245175
0.764142 0.507793 0.239142
0.882654 0.501867 0.233217
1.000000 0.496000 0.227349
0.000000 0.643478 0.264142
0.107112 0.643478 0.245175
0.245175 0.643478 0.245175
0.380978 0.643478 0.245175
0.513826 0.643478 0.245175
0.643478 0.643478 0.245175
0.764142 0.637444 0.239142
0.882654 0.631519 0.233217
1.000000 0.625651 0.227349
0.000000 0.764142 0.264142
0.101079 0.764142 0.239142
0.239142 0.764142 0.239142
0.374944 0.764142 0.239142
0.507793 0.764142 0.239142
0.637444 0.764142 0.239142
0.764142 0.764142 0.239142
0.882654 0.758217 0.233217
1.000000 0.752349 0.227349
0.000000 0.882654 0.264142
0.095154 0.882654 0.233217
0.233217 0.882654 0.233217
0.369019 0.882654 0.233217
0.501867 0.882654 0.233217
0.631519 0.882654 0.233217
0.758217 0.882654 0.233217
0.882654 0.882654 0.233217
1.000000 0.876786 0.227349
0.000000 1.000000 0.264142
0.089286 1.000000 0.227349
0.227349 1.000000 0.227349
0.363151 1.000000 0.227349
0.496000 1.000000 0.227349
0.625651 1.000000 0.227349
0.752349 1.000000 0.227349
0.876786 1.000000 0.227349
1.000000 1.000000 0.227349
0.000000 0.000000 0.393478
0.132654 0.000000 0.393478
0.264142 0.000000 0.393478
0.393478 0.000000 0.393478
0.520000 0.000000 0.393478
0.643478 0.000000 0.393478
0.764142 0.000000 0.393478
0.882654 0.000000 0.393478
1.000000 0.000000 0.393478
0.000000 0.132654 0.393478
0.119612 0.119612 0.393478
0.257675 0.119612 0.393478
0.393478 0.119612 0.393478
0.520000 0.113286 0.387151
0.643478 0.107112 0.380978
0.764142 0.101079 0.374944
0.882654 0.095154 0.369019
1.000000 0.089286 0.363151
0.000000 0.264142 0.393478
0.119612 0.257675 0.393478
0.257675 0.257675 0.393478
0.393478 0.257675 0.393478
0.520000 0.251349 0.387151
0.643478 0.245175 0.380978
0.764142 0.239142 0.374944
0.882654 0.233217 0.369019
1.000000 0.227349 0.363151
0.000000 0.393478 0.393478
0.119612 0.393478 0.393478
0.257675 0.393478 0.393478
0.393478 0.393478 0.393478
0.520000 0.387151 0.387151
0.643478 0.380978 0.380978
0.764142 0.374944 0.374944
0.882654 0.369019 0.369019
1.000000 0.363151 0.363151
0.000000 0.520000 0.393478
0.113286 0.520000 0.387151
0.251349 0.520000 0.387151
0.387151 0.520000 0.387151
0.520000 0.520000 0.387151
0.643478 0.513826 0.380978
0.764142 0.507793 0.374944
0.882654 0.501867 0.369019
1.000000 0.496000 0.363151
0.000000 0.643478 0.393478
0.107112 0.643478 0.380978
0.245175 0.643478 0.380978
0.380978 0.643478 0.380978
0.513826 0.643478 0.380978
0.643478 0.643478 0.380978
0.764142 0.637444 0.374944
0.882654 0.631519 0.369019
1.000000 0.625651 0.363151
0.000000 0.764142 0.393478
0.101079 0.764142 0.374944
0.239142 0.764142 0.374944
0.374944 0.764142 0.374944
0.507793 0.764142 0.374944
0.637444 0.764142 0.374944
0.764142 0.764142 0.374944
0.882654 0.758217 0.369019
1.000000 0.752349 0.363151
0.000000 0.882654 0.393478
0.095154 0.882654 0.369019
0.233217 0.882654 0.369019
0.369019 0.882654 0.369019
0.501867 0.882654 0.369019
0.631519 0.882654 0.369019
0.758217 0.882654 0.369019
0.882654 0.882654 0.369019
1.000000 0.876786 0.363151
0.000000 1.000000 0.393478
0.089286 1.000000 0.363151
0.227349 1.000000 0.363151
0.363151 1.000000 0.363151
0.496000 1.000000 0.363151
0.625651 1.000000 0.363151
0.752349 1.000000 0.363151
0.876786 1.000000 0.363151
1.000000 1.000000 0.363151
0.000000 0.000000 0.520000
0.132654 0.000000 0.520000
0.264142 0.000000 0.520000
0.393478 0.000000 0.520000
0.520000 0.000000 0.520000
0.643478 0.000000 0.520000
0.764142 0.000000 0.520000
0.882654 0.000000 0.520000
1.000000 0.000000 0.520000
0.000000 0.132654 0.520000
0.113286 0.113286 0.520000
0.251349 0.113286 0.520000
0.387151 0.113286 0.520000
0.520000 0.113286 0.520000
0.643478 0.107112 0.513826
0.764142 0.101079 0.507793
0.882654 0.095154 0.501867
1.000000 0.089286 0.496000
0.000000 0.264142 0.520000
0.113286 0.251349 0.520000
0.251349 0.251349 0.520000
0.387151 0.251349 0.520000
0.520000 0.251349 0.520000
0.643478 0.245175 0.513826
0.764142 0.239142 0.507793
0.882654 0.233217 0.501867
1.000000 0.227349 0.496000
0.000000 0.393478 0.520000
0.113286 0.387151 0.520000
0.251349 0.387151 0.520000
0.387151 0.387151 0.520000
0.520000 0.387151 0.520000
0.643478 0.380978 0.513826
0.764142 0.374944 0.507793
0.882654 0.369019 0.501867
1.000000 0.363151 0.496000
0.000000 0.520000 0.520000
0.113286 0.520000 0.520000
0.251349 0.520000 0.520000
0.387151 0.520000 0.520000
0.520000 0.520000 0.520000
0.643478 0.513826 0.513826
0.764142 0.507793 0.507793
0.882654 0.501867 0.501867
1.000000 0.496000 0.496000
0.000000 0.643478 0.520000
0.107112 0.643478 0.513826
0.245175 0.643478 0.513826
0.380978 0.643478 0.513826
0.513826 0.643478 0.513826
0.643478 0.643478 0.513826
0.764142 0.637444 0.507793
0.882654 0.631519 0.501867
1.000000 0.625651 0.496000
0.000000 0.764142 0.520000
0.101079 0.764142 0.507793
0.239142 0.764142 0.507793
0.374944 0.764142 0.507793
0.507793 0.764142 0.507793
0.637444 0.764142 0.507793
0.764142 0.764142 0.507793
0.882654 0.758217 0.501867
1.000000 0.752349 0.496000
0.000000 0.882654 0.520000
0.095154 0.882654 0.501867
0.233217 0.882654 0.501867
0.369019 0.882654 0.501867
0.501867 0.882654 0.501867
0.631519 0.882654 0.501867
0.758217 0.882654 0.501867
0.882654 0.882654 0.501867
1.000000 0.876786 0.496000
0.000000 1.000000 0.520000
0.089286 1.000000 0.496000
0.227349 1.000000 0.496000
0.363151 1.000000 0.496000
0.496000 1.000000 0.496000
0.625651 1.000000 0.496000
0.752349 1.000000 0.496000
0.876786 1.000000 0.496000
1.000000 1.000000 0.496000
0.000000 0.000000 0.643478
0.132654 0.000000 0.643478
0.264142 0.000000 0.643478
0.393478 0.000000 0.643478
0.520000 0.000000 0.643478
0.643478 0.000000 0.643478
0.764142 0.000000 0.643478
0.882654 0.000000 0.643478
1.000000 0.000000 0.643478
0.000000 0.132654 0.643478
0.107112 0.107112 0.643478
0.245175 0.107112 0.643478
0.380978 0.107112 0.643478
0.513826 0.107112 0.643478
0.643478 0.107112 0.643478
0.764142 0.101079 0.637444
0.882654 0.095154 0.631519
1.000000 0.089286 0.625651
0.000000 0.264142 0.643478
0.107112 0.245175 0.643478
0.245175 0.245175 0.643478
0.380978 0.245175 0.643478
0.513826 0.245175 0.643478
0.643478 0.245175 0.643478
0.764142 0.239142 0.637444
0.882654 0.233217 0.631519
1.000000 0.227349 0.625651
0.000000 0.393478 0.643478
0.107112 0.380978 0.643478
0.245175 0.380978 0.643478
0.380978 0.380978 0.643478
0.513826 0.380978 0.643478
0.643478 0.380978 0.643478
0.764142 0.374944 0.637444
0.882654 0.369019 0.631519
1.000000 0.363151 0.625651
0.000000 0.520000 0.643478
0.107112 0.513826 0.643478
0.245175 0.513826 0.643478
0.380978 0.513826 0.643478
0.513826 0.513826 0.643478
0.643478 0.513826 0.643478
0.764142 0.507793 0.637444
0.882654 0.501867 0.631519
1.000000 0.496000 0.625651
0.000000 0.643478 0.643478
0.107112 0.643478 0.643478
0.245175 0.643478 0.643478
0.380978 0.643478 0.643478
0.513826 0.643478 0.643478
0.643478 0.643478 0.643478
0.764142 0.637444 0.637444
0.882654 0.631519 0.631519
1.000000 0.625651 0.625651
0.000000 0.764142 0.643478
0.101079 0.764142 0.637444
0.239142 0.764142 0.637444
0.374944 0.764142 0.637444
0.507793 0.764142 0.637444
0.637444 0.764142 0.637444
0.764142 0.764142 0.637444
0.882654 0.758217 0.631519
1.000000 0.752349 0.625651
0.000000 0.882654 0.643478
0.095154 0.882654 0.631519
0.233217 0.882654 0.631519
0.369019 0.882654 0.631519
0.501867 0.882654 0.631519
0.631519 0.882654 0.631519
0.758217 0.882654 0.631519
0.882654 0.882654 0.631519
1.000000 0.876786 0.625651
0.000000 1.000000 0.643478
0.089286 1.000000 0.625651
0.227349 1.000000 0.625651
0.363151 1.000000 0.625651
0.496000 1.000000 0.625651
0.625651 1.000000 0.625651
0.752349 1.000000 0.625651
0.876786 1.000000 0.625651
1.000000 1.000000 0.625651
0.000000 0.000000 0.764142
0.132654 0.000000 0.764142
0.264142 0.000000 0.764142
0.393478 0.000000 0.764142
0.520000 0.000000 0.764142
0.643478 0.000000 0.764142
0.764142 0.000000 0.764142
0.882654 0.000000 0.764142
1.000000 0.000000 0.764142
0.000000 0.132654 0.764142
0.101079 0.101079 0.764142
0.239142 0.101079 0.764142
0.374944 0.101079 0.764142
0.507793 0.101079 0.764142
0.637444 0.101079 0.764142
0.764142 0.101079 0.764142
0.882654 0.095154 0.758217
1.000000 0.089286 0.752349
0.000000 0.264142 0.764142
0.101079 0.239142 0.764142
0.239142 0.239142 0.764142
0.374944 0.239142 0.764142
0.507793 0.239142 0.764142
0.637444 0.239142 0.764142
0.764142 0.239142 0.764142
0.882654 0.233217 0.758217
1.000000 0.227349 0.752349
0.000000 0.393478 0.764142
0.101079 0.374944 0.764142
0.239142 0.374944 0.764142
0.374944 0.374944 0.764142
0.507793 0.374944 0.764142
0.637444 0.374944 0.764142
0.764142 0.374944 0.764142
0.882654 0.369019 0.758217
1.000000 0.363151 0.752349
0.000000 0.520000 0.764142
0.101079 0.507793 0.764142
0.239142 0.507793 0.764142
0.374944 0.507793 0.764142
0.507793 0.507793 0.764142
0.637444 0.507793 0.764142
0.764142 0.507793 0.764142
0.882654 0.501867 0.758217
1.000000 0.496000 0.752349
0.000000 0.643478 0.764142
0.101079 0.637444 0.764142
0.239142 0.637444 0.764142
0.374944 0.637444 0.764142
0.507793 0.637444 0.764142
0.637444 0.637444 0.764142
0.764142 0.637444 0.764142
0.882654 0.631519 0.758217
1.000000 0.625651 0.752349
0.000000 0.764142 0.764142
0.101079 0.764142 0.764142
0.239142 0.764142 0.764142
0.374944 0.764142 0.764142
0.507793 0.764142 0.764142
0.637444 0.764142 0.764142
0.764142 0.764142 0.764142
0.882654 0.758217 0.758217
1.000000 0.752349 0.752349
0.000000 0.882654 0.764142
0.095154 0.882654 0.758217
0.233217 0.882654 0.758217
0.369019 0.882654 0.758217
0.501867 0.882654 0.758217
0.631519 0.882654 0.758217
0.758217 0.882654 0.758217
0.882654 0.882654 0.758217
1.000000 0.876786 0.752349
0.000000 1.000000 0.764142
0.089286 1.000000 0.752349
0.227349 1.000000 0.752349
0.363151 1.000000 0.752349
0.496000 1.000000 0.752349
0.625651 1.000000 0.752349
0.752349 1.000000 0.752349
0.876786 1.000000 0.752349
1.000000 1.000000 0.752349
0.000000 0.000000 0.882654
0.132654 0.000000 0.882654
0.264142 0.000000 0.882654
0.393478 0.000000 0.882654
0.520000 0.000000 0.882654
0.643478 0.000000 0.882654
0.764142 0.000000 0.882654
0.882654 0.000000 0.882654
1.000000 0.000000 0.882654
0.000000 0.132654 0.882654
0.095154 0.095154 0.882654
0.233217 0.095154 0.882654
0.369019 0.095154 0.882654
0.501867 0.095154 0.882654
0.631519 0.095154 0.882654
0.758217 0.095154 0.882654
0.882654 0.095154 0.882654
1.000000 0.089286 0.876786
0.000000 0.264142 0.882654
0.095154 0.233217 0.882654
0.233217 0.233217 0.882654
0.369019 0.233217 0.882654
0.501867 0.233217 0.882654
0.631519 0.233217 0.882654
0.758217 0.233217 0.882654
0.882654 0.233217 0.882654
1.000000 0.227349 0.876786
0.000000 0.393478 0.882654
0.095154 0.369019 0.882654
0.233217 0.369019 0.882654
0.369019 0.369019 0.882654
0.501867 0.369019 0.882654
0.631519 0.369019 0.882654
0.758217 0.369019 0.882654
0.882654 0.369019 0.882654
1.000000 0.363151 0.876786
0.000000 0.520000 0.882654
0.095154 0.501867 0.882654
0.233217 0.501867 0.882654
0.369019 0.501867 0.882654
0.501867 0.501867 0.882654
0.631519 0.501867 0.882654
0.758217 0.501867 0.882654
0.882654 0.501867 0.882654
1.000000 0.496000 0.876786
0.000000 0.643478 0.882654
0.095154 0.631519 0.882654
0.233217 0.631519 0.882654
0.369019 0.631519 0.882654
0.501867 0.631519 0.882654
0.631519 0.631519 0.882654
0.758217 0.631519 0.882654
0.882654 0.631519 0.882654
1.000000 0.625651 0.876786
0.000000 0.764142 0.882654
0.095154 0.758217 0.882654
0.233217 0.758217 0.882654
0.369019 0.758217 0.882654
0.501867 0.758217 0.882654
0.631519 0.758217 0.882654
0.758217 0.758217 0.882654
0.882654 0.758217 0.882654
1.000000 0.752349 0.876786
0.000000 0.882654 0.882654
0.095154 0.882654 0.882654
0.233217 0.882654 0.882654
0.369019 0.882654 0.882654
0.501867 0.882654 0.882654
0.631519 0.882654 0.882654
0.758217 0.882654 0.882654
0.882654 0.882654 0.882654
1.000000 0.876786 0.876786
0.000000 1.000000 0.882654
0.089286 1.000000 0.876786
0.227349 1.000000 0.876786
0.363151 1.000000 0.876786
0.496000 1.000000 0.876786
0.625651 1.000000 0.876786
0.752349 1.000000 0.876786
0.876786 1.000000 0.876786
1.000000 1.000000 0.876786
0.000000 0.000000 1.000000
0.132654 0.000000 1.000000
0.264142 0.000000 1.000000
0.393478 0.000000 1.000000
0.520000 0.000000 1.000000
0.643478 0.000000 1.000000
0.764142 0.000000 1.000000
0.882654 0.000000 1.000000
1.000000 0.000000 1.000000
0.000000 0.132654 1.000000
0.089286 0.089286 1.000000
0.227349 0.089286 1.000000
0.363151 0.089286 1.000000
0.496000 0.089286 1.000000
0.625651 0.089286 1.000000
0.752349 0.089286 1.000000
0.876786 0.089286 1.000000
1.000000 0.089286 1.000000
0.000000 0.264142 1.000000
0.089286 0.227349 1.000000
0.227349 0.227349 1.000000
0.363151 0.227349 1.000000
0.496000 0.227349 1.000000
0.625651 0.227349 1.000000
0.752349 0.227349 1.000000
0.876786 0.227349 1.000000
1.000000 0.227349 1.000000
0.000000 0.393478 1.000000
0.089286 0.363151 1.000000
0.227349 0.363151 1.000000
0.363151 0.363151 1.000000
0.496000 0.363151 1.000000
0.625651 0.363151 1.000000
0.752349 0.363151 1.000000
0.876786 0.363151 1.000000
1.000000 0.363151 1.000000
0.000000 0.520000 1.000000
0.089286 0.496000 1.000000
0.227349 0.496000 1.000000
0.363151 0.496000 1.000000
0.496000 0.496000 1.000000
0.625651 0.496000 1.000000
0.752349 0.496000 1.000000
0.876786 0.496000 1.000000
1.000000 0.496000 1.000000
0.000000 0.643478 1.000000
0.089286 0.625651 1.000000
0.227349 0.625651 1.000000
0.363151 0.625651 1.000000
0.496000 0.625651 1.000000
0.625651 0.625651 1.000000
0.752349 0.625651 1.000000
0.876786 0.625651 1.000000
1.000000 0.625651 1.000000
0.000000 0.764142 1.000000
0.089286 0.752349 1.000000
0.227349 0.752349 1.000000
0.363151 0.752349 1.000000
0.496000 0.752349 1.000000
0.625651 0.752349 1.000000
0.752349 0.752349 1.000000
0.876786 0.752349 1.000000
1.000000 0.752349 1.000000
0.000000 0.882654 1.000000
0.089286 0.876786 1.000000
0.227349 0.876786 1.000000
0.363151 0.876786 1.000000
0.496000 0.876786 1.000000
0.625651 0.876786 1.000000
0.752349 0.876786 1.000000
0.876786 0.876786 1.000000
1.000000 0.876786 1.000000
0.000000 1.000000 1.000000
0.089286 1.000000 1.000000
0.227349 1.000000 1.000000
0.363151 1.000000 1.000000
0.496000 1.000000 1.000000
0.625651 1.000000 1.000000
0.752349 1.000000 1.000000
0.876786 1.000000 1.000000
1.000000 1.000000 1.000000
