ios/AIPhotoCoach/Resources/LUTs/natural.cube
# Baseline LUT for FilterPreset 'natural' (自然).
# Generated by scripts/luts/gen_baseline_luts.py — replace with a
# hand-graded / commercial LUT keeping the same filename to upgrade.
TITLE "natural"
LUT_3D_SIZE 5
DOMAIN_MIN 0.0 0.0 0.0
DOMAIN_MAX 1.0 1.0 1.0
0.000000 0.000000 0.000000
0.264142 0.000000 0.000000
0.520000 0.000000 0.000000
0.764142 0.000000 0.000000
1.000000 0.000000 0.000000
0.000000 0.264142 0.000000
0.264142 0.264142 0.000000
0.520000 0.264142 0.000000
0.764142 0.264142 0.000000
1.000000 0.264142 0.000000
0.000000 0.520000 0.000000
0.264142 0.520000 0.000000
0.520000 0.520000 0.000000
0.764142 0.520000 0.000000
1.000000 0.520000 0.000000
0.000000 0.764142 0.000000
0.264142 0.764142 0.000000
0.520000 0.764142 0.000000
0.764142 0.764142 0.000000
1.000000 0.764142 0.000000
0.000000 1.000000 0.000000
0.264142 1.000000 0.000000
0.520000 1.000000 0.000000
0.764142 1.000000 0.000000
1.000000 1.000000 0.000000
0.000000 0.000000 0.264142
0.264142 0.000000 0.264142
0.520000 0.000000 0.264142
0.764142 0.000000 0.264142
1.000000 0.000000 0.264142
0.000000 0.264142 0.264142
0.264142 0.264142 0.264142
0.520000 0.251349 0.251349
0.764142 0.239142 0.239142
1.000000 0.227349 0.227349
0.000000 0.520000 0.264142
0.251349 0.520000 0.251349
0.520000 0.520000 0.251349
0.764142 0.507793 0.239142
1.000000 0.496000 0.227349
0.000000 0.764142 0.264142
0.239142 0.764142 0.239142
0.507793 0.764142 0.239142
0.764142 0.764142 0.239142
1.000000 0.752349 0.227349
0.000000 1.000000 0.264142
0.227349 1.000000 0.227349
0.496000 1.000000 0.227349
0.752349 1.000000 0.227349
1.000000 1.000000 0.227349
0.000000 0.000000 0.520000
0.264142 0.000000 0.520000
0.520000 0.000000 0.520000
0.764142 0.000000 0.520000
1.000000 0.000000 0.520000
0.000000 0.264142 0.520000
0.251349 0.251349 0.520000
0.520000 0.251349 0.520000
0.764142 0.239142 0.507793
1.000000 0.227349 0.496000
0.000000 0.520000 0.520000
0.251349 0.520000 0.520000
0.520000 0.520000 0.520000
0.764142 0.507793 0.507793
1.000000 0.496000 0.496000
0.000000 0.764142 0.520000
0.239142 0.764142 0.507793
0.507793 0.764142 0.507793
0.764142 0.764142 0.507793
1.000000 0.752349 0.496000
0.000000 1.000000 0.520000
0.227349 1.000000 0.496000
0.496000 1.000000 0.496000
0.752349 1.000000 0.496000
1.000000 1.000000 0.496000
0.000000 0.000000 0.764142
0.264142 0.000000 0.764142
0.520000 0.000000 0.764142
0.764142 0.000000 0.764142
1.000000 0.000000 0.764142
0.000000 0.264142 0.764142
0.239142 0.239142 0.764142
0.507793 0.239142 0.764142
0.764142 0.239142 0.764142
1.000000 0.227349 0.752349
0.000000 0.520000 0.764142
0.239142 0.507793 0.764142
0.507793 0.507793 0.764142
0.764142 0.507793 0.764142
1.000000 0.496000 0.752349
0.000000 0.764142 0.764142
0.239142 0.764142 0.764142
0.507793 0.764142 0.764142
0.764142 0.764142 0.764142
1.000000 0.752349 0.752349
0.000000 1.000000 0.764142
0.227349 1.000000 0.752349
0.496000 1.000000 0.752349
0.752349 1.000000 0.752349
1.000000 1.000000 0.752349
0.000000 0.000000 1.000000
0.264142 0.000000 1.000000
0.520000 0.000000 1.000000
0.764142 0.000000 1.000000
1.000000 0.000000 1.000000
0.000000 0.264142 1.000000
0.227349 0.227349 1.000000
0.496000 0.227349 1.000000
0.752349 0.227349 1.000000
1.000000 0.227349 1.000000
0.000000 0.520000 1.000000
0.227349 0.496000 1.000000
0.496000 0.496000 1.000000
0.752349 0.496000 1.000000
1.000000 0.496000 1.000000
0.000000 0.764142 1.000000
0.227349 0.752349 1.000000
0.496000 0.752349 1.000000
0.752349 0.752349 1.000000
1.000000 0.752349 1.000000
0.000000 1.000000 1.000000
0.227349 1.000000 1.000000
0.496000 1.000000 1.000000
0.752349 1.000000 1.000000
1.000000 1.000000 1.000000
