ios/AIPhotoCoach/Resources/LUTs/natural.cube
# Baseline LUT for FilterPreset 'natural' (自然).
# Generated by scripts/luts/gen_baseline_luts.py — replace with a
# hand-graded / commercial LUT keeping the same filename to upgrade.
TITLE "natural"
LUT_3D_SIZE 17
DOMAIN_MIN 0.0 0.0 0.0
DOMAIN_MAX 1.0 1.0 1.0
0.000000 0.000000 0.000000
0.066402 0.000000 0.000000
0.132654 0.000000 0.000000
0.198611 0.000000 0.000000
0.264142 0.000000 0.000000
0.329129 0.000000 0.000000
0.393478 0.000000 0.000000
0.457116 0.000000 0.000000
0.520000 0.000000 0.000000
0.582116 0.000000 0.000000
0.643478 0.000000 0.000000
0.704129 0.000000 0.000000
0.764142 0.000000 0.000000
0.823611 0.000000 0.000000
0.882654 0.000000 0.000000
0.941402 0.000000 0.000000
1.000000 0.000000 0.000000
0.000000 0.066402 0.000000
0.066402 0.066402 0.000000
0.132654 0.066402 0.000000
0.198611 0.066402 0.000000
0.264142 0.066402 0.000000
0.329129 0.066402 0.000000
0.393478 0.066402 0.000000
0.457116 0.066402 0.000000
0.520000 0.066402 0.000000
0.582116 0.066402 0.000000
0.643478 0.066402 0.000000
0.704129 0.066402 0.000000
0.764142 0.066402 0.000000
0.823611 0.066402 0.000000
0.882654 0.066402 0.000000
0.941402 0.066402 0.000000
1.000000 0.066402 0.000000
0.000000 0.132654 0.000000
0.066402 0.132654 0.000000
0.132654 0.132654 0.000000
0.198611 0.132654 0.000000
0.264142 0.132654 0.000000
0.329129 0.132654 0.000000
0.393478 0.132654 0.000000
0.457116 0.132654 0.000000
0.520000 0.132654 0.000000
0.582116 0.132654 0.000000
0.643478 0.132654 0.000000
0.704129 0.132654 0.000000
0.764142 0.132654 0.000000
0.823611 0.132654 0.000000
0.882654 0.132654 0.000000
0.941402 0.132654 0.000000
1.000000 0.132654 0.000000
0.000000 0.198611 0.000000
0.066402 0.198611 0.000000
0.132654 0.198611 0.000000
0.198611 0.198611 0.000000
0.264142 0.198611 0.000000
0.329129 0.198611 0.000000
0.393478 0.198611 0.000000
0.457116 0.198611 0.000000
0.520000 0.198611 0.000000
0.582116 0.198611 0.000000
0.643478 0.198611 0.000000
0.704129 0.198611 0.000000
0.764142 0.198611 0.000000
0.823611 0.198611 0.000000
0.882654 0.198611 0.000000
0.941402 0.198611 0.000000
1.000000 0.198611 0.000000
0.000000 0.264142 0.000000
0.066402 0.264142 0.000000
0.132654 0.264142 0.000000
0.198611 0.264142 0.000000
0.264142 0.264142 0.000000
0.329129 0.264142 0.000000
0.393478 0.264142 0.000000
0.457116 0.264142 0.000000
0.520000 0.264142 0.000000
0.582116 0.264142 0.000000
0.643478 0.264142 0.000000
0.704129 0.264142 0.000000
0.764142 0.264142 0.000000
0.823611 0.264142 0.000000
0.882654 0.264142 0.000000
0.941402 0.264142 0.000000
1.000000 0.264142 0.000000
0.000000 0.329129 0.000000
0.066402 0.329129 0.000000
0.132654 0.329129 0.000000
0.198611 0.329129 0.000000
0.264142 0.329129 0.000000
0.329129 0.329129 0.000000
0.393478 0.329129 0.000000
0.457116 0.329129 0.000000
0.520000 0.329129 0.000000
0.582116 0.329129 0.000000
0.643478 0.329129 0.000000
0.704129 0.329129 0.000000
0.764142 0.329129 0.000000
0.823611 0.329129 0.000000
0.882654 0.329129 0.000000
0.941402 0.329129 0.000000
1.000000 0.329129 0.000000
0.000000 0.393478 0.000000
0.066402 0.393478 0.000000
0.132654 0.393478 0.000000
0.198611 0.393478 0.000000
0.264142 0.393478 0.000000
0.329129 0.393478 0.000000
0.393478 0.393478 0.000000
0.457116 0.393478 0.000000
0.520000 0.393478 0.000000
0.582116 0.393478 0.000000
0.643478 0.393478 0.000000
0.704129 0.393478 0.000000
0.764142 0.393478 0.000000
0.823611 0.393478 0.000000
0.882654 0.393478 0.000000
0.941402 0.393478 0.000000
1.000000 0.393478 0.000000
0.000000 0.457116 0.000000
0.066402 0.457116 0.000000
0.132654 0.457116 0.000000
0.198611 0.457116 0.000000
0.264142 0.457116 0.000000
0.329129 0.457116 0.000000
0.393478 0.457116 0.000000
0.457116 0.457116 0.000000
0.520000 0.457116 0.000000
0.582116 0.457116 0.000000
0.643478 0.457116 0.000000
0.704129 0.457116 0.000000
0.764142 0.457116 0.000000
0.823611 0.457116 0.000000
0.882654 0.457116 0.000000
0.941402 0.457116 0.000000
1.000000 0.457116 0.000000
0.000000 0.520000 0.000000
0.066402 0.520000 0.000000
0.132654 0.520000 0.000000
0.198611 0.520000 0.000000
0.264142 0.520000 0.000000
0.329129 0.520000 0.000000
0.393478 0.520000 0.000000
0.457116 0.520000 0.000000
0.520000 0.520000 0.000000
0.582116 0.520000 0.000000
0.643478 0.520000 0.000000
0.704129 0.520000 0.000000
0.764142 0.520000 0.000000
0.823611 0.520000 0.000000
0.882654 0.520000 0.000000
0.941402 0.520000 0.000000
1.000000 0.520000 0.000000
0.000000 0.582116 0.000000
0.066402 0.582116 0.000000
0.132654 0.582116 0.000000
0.198611 0.582116 0.000000
0.264142 0.582116 0.000000
0.329129 0.582116 0.000000
0.393478 0.582116 0.000000
0.457116 0.582116 0.000000
0.520000 0.582116 0.000000
0.582116 0.582116 0.000000
0.643478 0.582116 0.000000
0.704129 0.582116 0.000000
0.764142 0.582116 0.000000
0.823611 0.582116 0.000000
0.882654 0.582116 0.000000
0.941402 0.582116 0.000000
1.000000 0.582116 0.000000
0.000000 0.643478 0.000000
0.066402 0.643478 0.000000
0.132654 0.643478 0.000000
0.198611 0.643478 0.000000
0.264142 0.643478 0.000000
0.329129 0.643478 0.000000
0.393478 0.643478 0.000000
0.457116 0.643478 0.000000
0.520000 0.643478 0.000000
0.582116 0.643478 0.000000
0.643478 0.643478 0.000000
0.704129 0.643478 0.000000
0.764142 0.643478 0.000000
0.823611 0.643478 0.000000
0.882654 0.643478 0.000000
0.941402 0.643478 0.000000
1.000000 0.643478 0.000000
0.000000 0.704129 0.000000
0.066402 0.704129 0.000000
0.132654 0.704129 0.000000
0.198611 0.704129 0.000000
0.264142 0.704129 0.000000
0.329129 0.704129 0.000000
0.393478 0.704129 0.000000
0.457116 0.704129 0.000000
0.520000 0.704129 0.000000
0.582116 0.704129 0.000000
0.643478 0.704129 0.000000
0.704129 0.704129 0.000000
0.764142 0.704129 0.000000
0.823611 0.704129 0.000000
0.882654 0.704129 0.000000
0.941402 0.704129 0.000000
1.000000 0.704129 0.000000
0.000000 0.764142 0.000000
0.066402 0.764142 0.000000
0.132654 0.764142 0.000000
0.198611 0.764142 0.000000
0.264142 0.764142 0.000000
0.329129 0.764142 0.000000
0.393478 0.764142 0.000000
0.457116 0.764142 0.000000
0.520000 0.764142 0.000000
0.582116 0.764142 0.000000
0.643478 0.764142 0.000000
0.704129 0.764142 0.000000
0.764142 0.764142 0.000000
0.823611 0.764142 0.000000
0.882654 0.764142 0.000000
0.941402 0.764142 0.000000
1.000000 0.764142 0.000000
0.000000 0.823611 0.000000
0.066402 0.823611 0.000000
0.132654 0.823611 0.000000
0.198611 0.823611 0.000000
0.264142 0.823611 0.000000
0.329129 0.823611 0.000000
0.393478 0.823611 0.000000
0.457116 0.823611 0.000000
0.520000 0.823611 0.000000
0.582116 0.823611 0.000000
0.643478 0.823611 0.000000
0.704129 0.823611 0.000000
0.764142 0.823611 0.000000
0.823611 0.823611 0.000000
0.882654 0.823611 0.000000
0.941402 0.823611 0.000000
1.000000 0.823611 0.000000
0.000000 0.882654 0.000000
0.066402 0.882654 0.000000
0.132654 0.882654 0.000000
0.198611 0.882654 0.000000
0.264142 0.882654 0.000000
0.329129 0.882654 0.000000
0.393478 0.882654 0.000000
0.457116 0.882654 0.000000
0.520000 0.882654 0.000000
0.582116 0.882654 0.000000
0.643478 0.882654 0.000000
0.704129 0.882654 0.000000
0.764142 0.882654 0.000000
0.823611 0.882654 0.000000
0.882654 0.882654 0.000000
0.941402 0.882654 0.000000
1.000000 0.882654 0.000000
0.000000 0.941402 0.000000
0.066402 0.941402 0.000000
0.132654 0.941402 0.000000
0.198611 0.941402 0.000000
0.264142 0.941402 0.000000
0.329129 0.941402 0.000000
0.393478 0.941402 0.000000
0.457116 0.941402 0.000000
0.520000 0.941402 0.000000
0.582116 0.941402 0.000000
0.643478 0.941402 0.000000
0.704129 0.941402 0.000000
0.764142 0.941402 0.000000
0.823611 0.941402 0.000000
0.882654 0.941402 0.000000
0.941402 0.941402 0.000000
1.000000 0.941402 0.000000
0.000000 1.000000 0.000000
0.066402 1.000000 0.000000
0.132654 1.000000 0.000000
0.198611 1.000000 0.000000
0.264142 1.000000 0.000000
0.329129 1.000000 0.000000
0.393478 1.000000 0.000000
0.457116 1.000000 0.000000
0.520000 1.000000 0.000000
0.582116 1.000000 0.000000
0.643478 1.000000 0.000000
0.704129 1.000000 0.000000
0.764142 1.000000 0.000000
0.823611 1.000000 0.000000
0.882654 1.000000 0.000000
0.941402 1.000000 0.000000
1.000000 1.000000 0.000000
0.000000 0.000000 0.066402
0.066402 0.000000 0.066402
0.132654 0.000000 0.066402
0.198611 0.000000 0.066402
0.264142 0.000000 0.066402
0.329129 0.000000 0.066402
0.393478 0.000000 0.066402
0.457116 0.000000 0.066402
0.520000 0.000000 0.066402
0.582116 0.000000 0.066402
0.643478 0.000000 0.066402
0.704129 0.000000 0.066402
0.764142 0.000000 0.066402
0.823611 0.000000 0.066402
0.882654 0.000000 0.066402
0.941402 0.000000 0.066402
1.000000 0.000000 0.066402
0.000000 0.066402 0.066402
0.066402 0.066402 0.066402
0.132654 0.063089 0.063089
0.198611 0.059791 0.059791
0.264142 0.056515 0.056515
0.329129 0.053265 0.053265
0.393478 0.050048 0.050048
0.457116 0.046866 0.046866
0.520000 0.043722 0.043722
0.582116 0.040616 0.040616
0.643478 0.037548 0.037548
0.704129 0.034515 0.034515
0.764142 0.031515 0.031515
0.823611 0.028541 0.028541
0.882654 0.025589 0.025589
0.941402 0.022652 0.022652
1.000000 0.019722 0.019722
0.000000 0.132654 0.066402
0.063089 0.132654 0.063089
0.132654 0.132654 0.063089
0.198611 0.129356 0.059791
0.264142 0.126079 0.056515
0.329129 0.122830 0.053265
0.393478 0.119612 0.050048
0.457116 0.116431 0.046866
0.520000 0.113286 0.043722
0.582116 0.110181 0.040616
0.643478 0.107112 0.037548
0.704129 0.104080 0.034515
0.764142 0.101079 0.031515
0.823611 0.098106 0.028541
0.882654 0.095154 0.025589
0.941402 0.092216 0.022652
1.000000 0.089286 0.019722
0.000000 0.198611 0.066402
0.059791 0.198611 0.059791
0.129356 0.198611 0.059791
0.198611 0.198611 0.059791
0.264142 0.195335 0.056515
0.329129 0.192086 0.053265
0.393478 0.188868 0.050048
0.457116 0.185686 0.046866
0.520000 0.182542 0.043722
0.582116 0.179436 0.040616
0.643478 0.176368 0.037548
0.704129 0.173336 0.034515
0.764142 0.170335 0.031515
0.823611 0.167361 0.028541
0.882654 0.164409 0.025589
0.941402 0.161472 0.022652
1.000000 0.158542 0.019722
0.000000 0.264142 0.066402
0.056515 0.264142 0.056515
0.126079 0.264142 0.056515
0.195335 0.264142 0.056515
0.264142 0.264142 0.056515
0.329129 0.260893 0.053265
0.393478 0.257675 0.050048
0.457116 0.254493 0.046866
0.520000 0.251349 0.043722
0.582116 0.248243 0.040616
0.643478 0.245175 0.037548
0.704129 0.242143 0.034515
0.764142 0.239142 0.031515
0.823611 0.236169 0.028541
0.882654 0.233217 0.025589
0.941402 0.230279 0.022652
1.000000 0.227349 0.019722
0.000000 0.329129 0.066402
0.053265 0.329129 0.053265
0.122830 0.329129 0.053265
0.192086 0.329129 0.053265
0.260893 0.329129 0.053265
0.329129 0.329129 0.053265
0.393478 0.325912 0.050048
0.457116 0.322730 0.046866
0.520000 0.319586 0.043722
0.582116 0.316480 0.040616
0.643478 0.313412 0.037548
0.704129 0.310379 0.034515
0.764142 0.307379 0.031515
0.823611 0.304405 0.028541
0.882654 0.301453 0.025589
0.941402 0.298516 0.022652
1.000000 0.295586 0.019722
0.000000 0.393478 0.066402
0.050048 0.393478 0.050048
0.119612 0.393478 0.050048
0.188868 0.393478 0.050048
0.257675 0.393478 0.050048
0.325912 0.393478 0.050048
0.393478 0.393478 0.050048
0.457116 0.390296 0.046866
0.520000 0.387151 0.043722
0.582116 0.384046 0.040616
0.643478 0.380978 0.037548
0.704129 0.377945 0.034515
0.764142 0.374944 0.031515
0.823611 0.371971 0.028541
0.882654 0.369019 0.025589
0.941402 0.366081 0.022652
1.000000 0.363151 0.019722
0.000000 0.457116 0.066402
0.046866 0.457116 0.046866
0.116431 0.457116 0.046866
0.185686 0.457116 0.046866
0.254493 0.457116 0.046866
0.322730 0.457116 0.046866
0.390296 0.457116 0.046866
0.457116 0.457116 0.046866
0.520000 0.453971 0.043722
0.582116 0.450866 0.040616
0.643478 0.447798 0.037548
0.704129 0.444765 0.034515
0.764142 0.441764 0.031515
0.823611 0.438791 0.028541
0.882654 0.435839 0.025589
0.941402 0.432901 0.022652
1.000000 0.429971 0.019722
0.000000 0.520000 0.066402
0.043722 0.520000 0.043722
0.113286 0.520000 0.043722
0.182542 0.520000 0.043722
0.251349 0.520000 0.043722
0.319586 0.520000 0.043722
0.387151 0.520000 0.043722
0.453971 0.520000 0.043722
0.520000 0.520000 0.043722
0.582116 0.516894 0.040616
0.643478 0.513826 0.037548
0.704129 0.510794 0.034515
0.764142 0.507793 0.031515
0.823611 0.504819 0.028541
0.882654 0.501867 0.025589
0.941402 0.498930 0.022652
1.000000 0.496000 0.019722
0.000000 0.582116 0.066402
0.040616 0.582116 0.040616
0.110181 0.582116 0.040616
0.179436 0.582116 0.040616
0.248243 0.582116 0.040616
0.316480 0.582116 0.040616
0.384046 0.582116 0.040616
0.450866 0.582116 0.040616
0.516894 0.582116 0.040616
0.582116 0.582116 0.040616
0.643478 0.579048 0.037548
0.704129 0.576015 0.034515
0.764142 0.573014 0.031515
0.823611 0.570041 0.028541
0.882654 0.567089 0.025589
0.941402 0.564151 0.022652
1.000000 0.561221 0.019722
0.000000 0.643478 0.066402
0.037548 0.643478 0.037548
0.107112 0.643478 0.037548
0.176368 0.643478 0.037548
0.245175 0.643478 0.037548
0.313412 0.643478 0.037548
0.380978 0.643478 0.037548
0.447798 0.643478 0.037548
0.513826 0.643478 0.037548
0.579048 0.643478 0.037548
0.643478 0.643478 0.037548
0.704129 0.640445 0.034515
0.764142 0.637444 0.031515
0.823611 0.634471 0.028541
0.882654 0.631519 0.025589
0.941402 0.628581 0.022652
1.000000 0.625651 0.019722
0.000000 0.704129 0.066402
0.034515 0.704129 0.034515
0.104080 0.704129 0.034515
0.173336 0.704129 0.034515
0.242143 0.704129 0.034515
0.310379 0.704129 0.034515
0.377945 0.704129 0.034515
0.444765 0.704129 0.034515
0.510794 0.704129 0.034515
0.576015 0.704129 0.034515
0.640445 0.704129 0.034515
0.704129 0.704129 0.034515
0.764142 0.701129 0.031515
0.823611 0.698155 0.028541
0.882654 0.695203 0.025589
0.941402 0.692266 0.022652
1.000000 0.689336 0.019722
0.000000 0.764142 0.066402
0.031515 0.764142 0.031515
0.101079 0.764142 0.031515
0.170335 0.764142 0.031515
0.239142 0.764142 0.031515
0.307379 0.764142 0.031515
0.374944 0.764142 0.031515
0.441764 0.764142 0.031515
0.507793 0.764142 0.031515
0.573014 0.764142 0.031515
0.637444 0.764142 0.031515
0.701129 0.764142 0.031515
0.764142 0.764142 0.031515
0.823611 0.761169 0.028541
0.882654 0.758217 0.025589
0.941402 0.755279 0.022652
1.000000 0.752349 0.019722
0.000000 0.823611 0.066402
0.028541 0.823611 0.028541
0.098106 0.823611 0.028541
0.167361 0.823611 0.028541
0.236169 0.823611 0.028541
0.304405 0.823611 0.028541
0.371971 0.823611 0.028541
0.438791 0.823611 0.028541
0.504819 0.823611 0.028541
0.570041 0.823611 0.028541
0.634471 0.823611 0.028541
0.698155 0.823611 0.028541
0.761169 0.823611 0.028541
0.823611 0.823611 0.028541
0.882654 0.820659 0.025589
0.941402 0.817722 0.022652
1.000000 0.814792 0.019722
0.000000 0.882654 0.066402
0.025589 0.882654 0.025589
0.095154 0.882654 0.025589
0.164409 0.882654 0.025589
0.233217 0.882654 0.025589
0.301453 0.882654 0.025589
0.369019 0.882654 0.025589
0.435839 0.882654 0.025589
0.501867 0.882654 0.025589
0.567089 0.882654 0.025589
0.631519 0.882654 0.025589
0.695203 0.882654 0.025589
0.758217 0.882654 0.025589
0.820659 0.882654 0.025589
0.882654 0.882654 0.025589
0.941402 0.879716 0.022652
1.000000 0.876786 0.019722
0.000000 0.941402 0.066402
0.022652 0.941402 0.022652
0.092216 0.941402 0.022652
0.161472 0.941402 0.022652
0.230279 0.941402 0.022652
0.298516 0.941402 0.022652
0.366081 0.941402 0.022652
0.432901 0.941402 0.022652
0.498930 0.941402 0.022652
0.564151 0.941402 0.022652
0.628581 0.941402 0.022652
0.692266 0.941402 0.022652
0.755279 0.941402 0.022652
0.817722 0.941402 0.022652
0.879716 0.941402 0.022652
0.941402 0.941402 0.022652
1.000000 0.938472 0.019722
0.000000 1.000000 0.066402
0.019722 1.000000 0.019722
0.089286 1.000000 0.019722
0.158542 1.000000 0.019722
0.227349 1.000000 0.019722
0.295586 1.000000 0.019722
0.363151 1.000000 0.019722
0.429971 1.000000 0.019722
0.496000 1.000000 0.019722
0.561221 1.000000 0.019722
0.625651 1.000000 0.019722
0.689336 1.000000 0.019722
0.752349 1.000000 0.019722
0.814792 1.000000 0.019722
0.876786 1.000000 0.019722
0.938472 1.000000 0.019722
1.000000 1.000000 0.019722
0.000000 0.000000 0.132654
0.066402 0.000000 0.132654
0.132654 0.000000 0.132654
0.198611 0.000000 0.132654
0.264142 0.000000 0.132654
0.329129 0.000000 0.132654
0.393478 0.000000 0.132654
0.457116 0.000000 0.132654
0.520000 0.000000 0.132654
0.582116 0.000000 0.132654
0.643478 0.000000 0.132654
0.704129 0.000000 0.132654
0.764142 0.000000 0.132654
0.823611 0.000000 0.132654
0.882654 0.000000 0.132654
0.941402 0.000000 0.132654
1.000000 0.000000 0.132654
0.000000 0.066402 0.132654
0.063089 0.063089 0.132654
0.132654 0.063089 0.132654
0.198611 0.059791 0.129356
0.264142 0.056515 0.126079
0.329129 0.053265 0.122830
0.393478 0.050048 0.119612
0.457116 0.046866 0.116431
0.520000 0.043722 0.113286
0.582116 0.040616 0.110181
0.643478 0.037548 0.107112
0.704129 0.034515 0.104080
0.764142 0.031515 0.101079
0.823611 0.028541 0.098106
0.882654 0.025589 0.095154
0.941402 0.022652 0.092216
1.000000 0.019722 0.089286
0.000000 0.132654 0.132654
0.063089 0.132654 0.132654
0.132654 0.132654 0.132654
0.198611 0.129356 0.129356
0.264142 0.126079 0.126079
0.329129 0.122830 0.122830
0.393478 0.119612 0.119612
0.457116 0.116431 0.116431
0.520000 0.113286 0.113286
0.582116 0.110181 0.110181
0.643478 0.107112 0.107112
0.704129 0.104080 0.104080
0.764142 0.101079 0.101079
0.823611 0.098106 0.098106
0.882654 0.095154 0.095154
0.941402 0.092216 0.092216
1.000000 0.089286 0.089286
0.000000 0.198611 0.132654
0.059791 0.198611 0.129356
0.129356 0.198611 0.129356
0.198611 0.198611 0.129356
0.264142 0.195335 0.126079
0.329129 0.192086 0.122830
0.393478 0.188868 0.119612
0.457116 0.185686 0.116431
0.520000 0.182542 0.113286
0.582116 0.179436 0.110181
0.643478 0.176368 0.107112
0.704129 0.173336 0.104080
0.764142 0.170335 0.101079
0.823611 0.167361 0.098106
0.882654 0.164409 0.095154
0.941402 0.161472 0.092216
1.000000 0.158542 0.089286
0.000000 0.264142 0.132654
0.056515 0.264142 0.126079
0.126079 0.264142 0.126079
0.195335 0.264142 0.126079
0.264142 0.264142 0.126079
0.329129 0.260893 0.122830
0.393478 0.257675 0.119612
0.457116 0.254493 0.116431
0.520000 0.251349 0.113286
0.582116 0.248243 0.110181
0.643478 0.245175 0.107112
0.704129 0.242143 0.104080
0.764142 0.239142 0.101079
0.823611 0.236169 0.098106
0.882654 0.233217 0.095154
0.941402 0.230279 0.092216
1.000000 0.227349 0.089286
0.000000 0.329129 0.132654
0.053265 0.329129 0.122830
0.122830 0.329129 0.122830
0.192086 0.329129 0.122830
0.260893 0.329129 0.122830
0.329129 0.329129 0.122830
0.393478 0.325912 0.119612
0.457116 0.322730 0.116431
0.520000 0.319586 0.113286
0.582116 0.316480 0.110181
0.643478 0.313412 0.107112
0.704129 0.310379 0.104080
0.764142 0.307379 0.101079
0.823611 0.304405 0.098106
0.882654 0.301453 0.095154
0.941402 0.298516 0.092216
1.000000 0.295586 0.089286
0.000000 0.393478 0.132654
0.050048 0.393478 0.119612
0.119612 0.393478 0.119612
0.188868 0.393478 0.119612
0.257675 0.393478 0.119612
0.325912 0.393478 0.119612
0.393478 0.393478 0.119612
0.457116 0.390296 0.116431
0.520000 0.387151 0.113286
0.582116 0.384046 0.110181
0.643478 0.380978 0.107112
0.704129 0.377945 0.104080
0.764142 0.374944 0.101079
0.823611 0.371971 0.098106
0.882654 0.369019 0.095154
0.941402 0.366081 0.092216
1.000000 0.363151 0.089286
0.000000 0.457116 0.132654
0.046866 0.457116 0.116431
0.116431 0.457116 0.116431
0.185686 0.457116 0.116431
0.254493 0.457116 0.116431
0.322730 0.457116 0.116431
0.390296 0.457116 0.116431
0.457116 0.457116 0.116431
0.520000 0.453971 0.113286
0.582116 0.450866 0.110181
0.643478 0.447798 0.107112
0.704129 0.444765 0.104080
0.764142 0.441764 0.101079
0.823611 0.438791 0.098106
0.882654 0.435839 0.095154
0.941402 0.432901 0.092216
1.000000 0.429971 0.089286
0.000000 0.520000 0.132654
0.043722 0.520000 0.113286
0.113286 0.520000 0.113286
0.182542 0.520000 0.113286
0.251349 0.520000 0.113286
0.319586 0.520000 0.113286
0.387151 0.520000 0.113286
0.453971 0.520000 0.113286
0.520000 0.520000 0.113286
0.582116 0.516894 0.110181
0.643478 0.513826 0.107112
0.704129 0.510794 0.104080
0.764142 0.507793 0.101079
0.823611 0.504819 0.098106
0.882654 0.501867 0.095154
0.941402 0.498930 0.092216
1.000000 0.496000 0.089286
0.000000 0.582116 0.132654
0.040616 0.582116 0.110181
0.110181 0.582116 0.110181
0.179436 0.582116 0.110181
0.248243 0.582116 0.110181
0.316480 0.582116 0.110181
0.384046 0.582116 0.110181
0.450866 0.582116 0.110181
0.516894 0.582116 0.110181
0.582116 0.582116 0.110181
0.643478 0.579048 0.107112
0.704129 0.576015 0.104080
0.764142 0.573014 0.101079
0.823611 0.570041 0.098106
0.882654 0.567089 0.095154
0.941402 0.564151 0.092216
1.000000 0.561221 0.089286
0.000000 0.643478 0.132654
0.037548 0.643478 0.107112
0.107112 0.643478 0.107112
0.176368 0.643478 0.107112
0.245175 0.643478 0.107112
0.313412 0.643478 0.107112
0.380978 0.643478 0.107112
0.447798 0.643478 0.107112
0.513826 0.643478 0.107112
0.579048 0.643478 0.107112
0.643478 0.643478 0.107112
0.704129 0.640445 0.104080
0.764142 0.637444 0.101079
0.823611 0.634471 0.098106
0.882654 0.631519 0.095154
0.941402 0.628581 0.092216
1.000000 0.625651 0.089286
0.000000 0.704129 0.132654
0.034515 0.704129 0.104080
0.104080 0.704129 0.104080
0.173336 0.704129 0.104080
0.242143 0.704129 0.104080
0.310379 0.704129 0.104080
0.377945 0.704129 0.104080
0.444765 0.704129 0.104080
0.510794 0.704129 0.104080
0.576015 0.704129 0.104080
0.640445 0.704129 0.104080
0.704129 0.704129 0.104080
0.764142 0.701129 0.101079
0.823611 0.698155 0.098106
0.882654 0.695203 0.095154
0.941402 0.692266 0.092216
1.000000 0.689336 0.089286
0.000000 0.764142 0.132654
0.031515 0.764142 0.101079
0.101079 0.764142 0.101079
0.170335 0.764142 0.101079
0.239142 0.764142 0.101079
0.307379 0.764142 0.101079
0.374944 0.764142 0.101079
0.441764 0.764142 0.101079
0.507793 0.764142 0.101079
0.573014 0.764142 0.101079
0.637444 0.764142 0.101079
0.701129 0.764142 0.101079
0.764142 0.764142 0.101079
0.823611 0.761169 0.098106
0.882654 0.758217 0.095154
0.941402 0.755279 0.092216
1.000000 0.752349 0.089286
0.000000 0.823611 0.132654
0.028541 0.823611 0.098106
0.098106 0.823611 0.098106
0.167361 0.823611 0.098106
0.236169 0.823611 0.098106
0.304405 0.823611 0.098106
0.371971 0.823611 0.098106
0.438791 0.823611 0.098106
0.504819 0.823611 0.098106
0.570041 0.823611 0.098106
0.634471 0.823611 0.098106
0.698155 0.823611 0.098106
0.761169 0.823611 0.098106
0.823611 0.823611 0.098106
0.882654 0.820659 0.095154
0.941402 0.817722 0.092216
1.000000 0.814792 0.089286
0.000000 0.882654 0.132654
0.025589 0.882654 0.095154
0.095154 0.882654 0.095154
0.164409 0.882654 0.095154
0.233217 0.882654 0.095154
0.301453 0.882654 0.095154
0.369019 0.882654 0.095154
0.435839 0.882654 0.095154
0.501867 0.882654 0.095154
0.567089 0.882654 0.095154
0.631519 0.882654 0.095154
0.695203 0.882654 0.095154
0.758217 0.882654 0.095154
0.820659 0.882654 0.095154
0.882654 0.882654 0.095154
0.941402 0.879716 0.092216
1.000000 0.876786 0.089286
0.000000 0.941402 0.132654
0.022652 0.941402 0.092216
0.092216 0.941402 0.092216
0.161472 0.941402 0.092216
0.230279 0.941402 0.092216
0.298516 0.941402 0.092216
0.366081 0.941402 0.092216
0.432901 0.941402 0.092216
0.498930 0.941402 0.092216
0.564151 0.941402 0.092216
0.628581 0.941402 0.092216
0.692266 0.941402 0.092216
0.755279 0.941402 0.092216
0.817722 0.941402 0.092216
0.879716 0.941402 0.092216
0.941402 0.941402 0.092216
1.000000 0.938472 0.089286
0.000000 1.000000 0.132654
0.019722 1.000000 0.089286
0.089286 1.000000 0.089286
0.158542 1.000000 0.089286
0.227349 1.000000 0.089286
0.295586 1.000000 0.089286
0.363151 1.000000 0.089286
0.429971 1.000000 0.089286
0.496000 1.000000 0.089286
0.561221 1.000000 0.089286
0.625651 1.000000 0.089286
0.689336 1.000000 0.089286
0.752349 1.000000 0.089286
0.814792 1.000000 0.089286
0.876786 1.000000 0.089286
0.938472 1.000000 0.089286
1.000000 1.000000 0.089286
0.000000 0.000000 0.198611
0.066402 0.000000 0.198611
0.132654 0.000000 0.198611
0.198611 0.000000 0.198611
0.264142 0.000000 0.198611
0.329129 0.000000 0.198611
0.393478 0.000000 0.198611
0.457116 0.000000 0.198611
0.520000 0.000000 0.198611
0.582116 0.000000 0.198611
0.643478 0.000000 0.198611
0.704129 0.000000 0.198611
